;Ploopy-Adept-Trackball-Chamfering
;Machine
;vendor: Snapmaker
;model: Desktop CNC
;description: Generic Snapmaker Marlin v20180725
M3 P55
G4 S2
G21
G90
;When using Fusion for Personal Use, the feedrate of rapid
;moves is reduced to match the feedrate of cutting moves,
;which can increase machining time. Unrestricted rapid moves
;are available with a Fusion Subscription.

;2D Chamfer4
G0 X94.146 Y30.091 Z15.010
G1 X94.146 Y30.091 Z15.010 F250
G1 X94.146 Y30.091 Z5.010 F250
G1 X94.146 Y30.091 Z2.010 F83.3
G1 X94.146 Y30.091 Z-0.500 F83.3
G1 X94.463 Y30.091 Z-0.500 F250
G1 X94.463 Y45.500 Z-0.500 F250
G1 X94.456 Y45.711 Z-0.500 F250
G1 X94.433 Y45.922 Z-0.500 F250
G1 X94.396 Y46.130 Z-0.500 F250
G1 X94.343 Y46.335 Z-0.500 F250
G1 X94.277 Y46.536 Z-0.500 F250
G1 X94.196 Y46.731 Z-0.500 F250
G1 X94.101 Y46.920 Z-0.500 F250
G1 X93.993 Y47.102 Z-0.500 F250
G1 X93.872 Y47.276 Z-0.500 F250
G1 X93.740 Y47.441 Z-0.500 F250
G1 X93.595 Y47.595 Z-0.500 F250
G1 X93.441 Y47.740 Z-0.500 F250
G1 X93.276 Y47.872 Z-0.500 F250
G1 X93.102 Y47.993 Z-0.500 F250
G1 X92.920 Y48.101 Z-0.500 F250
G1 X92.731 Y48.196 Z-0.500 F250
G1 X92.536 Y48.277 Z-0.500 F250
G1 X92.335 Y48.343 Z-0.500 F250
G1 X92.130 Y48.396 Z-0.500 F250
G1 X91.922 Y48.433 Z-0.500 F250
G1 X91.711 Y48.456 Z-0.500 F250
G1 X91.500 Y48.463 Z-0.500 F250
G1 X79.555 Y48.463 Z-0.500 F250
G1 X79.345 Y48.456 Z-0.500 F250
G1 X79.137 Y48.434 Z-0.500 F250
G1 X78.931 Y48.397 Z-0.500 F250
G1 X78.728 Y48.346 Z-0.500 F250
G1 X78.530 Y48.281 Z-0.500 F250
G1 X78.336 Y48.201 Z-0.500 F250
G1 X78.148 Y48.109 Z-0.500 F250
G1 X77.968 Y48.003 Z-0.500 F250
G1 X77.795 Y47.885 Z-0.500 F250
G1 X77.631 Y47.755 Z-0.500 F250
G1 X77.477 Y47.613 Z-0.500 F250
G1 X77.333 Y47.461 Z-0.500 F250
G1 X77.200 Y47.300 Z-0.500 F250
G1 X77.079 Y47.129 Z-0.500 F250
G1 X76.970 Y46.950 Z-0.500 F250
G1 X76.874 Y46.764 Z-0.500 F250
G1 X76.792 Y46.572 Z-0.500 F250
G1 X76.723 Y46.374 Z-0.500 F250
G1 X76.668 Y46.172 Z-0.500 F250
G1 X76.513 Y45.537 Z-0.500 F250
G1 X76.342 Y44.906 Z-0.500 F250
G1 X76.157 Y44.280 Z-0.500 F250
G1 X75.957 Y43.657 Z-0.500 F250
G1 X75.742 Y43.040 Z-0.500 F250
G1 X75.514 Y42.428 Z-0.500 F250
G1 X75.271 Y41.821 Z-0.500 F250
G1 X75.013 Y41.220 Z-0.500 F250
G1 X74.742 Y40.626 Z-0.500 F250
G1 X74.457 Y40.037 Z-0.500 F250
G1 X74.158 Y39.456 Z-0.500 F250
G1 X73.846 Y38.882 Z-0.500 F250
G1 X73.520 Y38.315 Z-0.500 F250
G1 X73.181 Y37.757 Z-0.500 F250
G1 X72.829 Y37.206 Z-0.500 F250
G1 X72.464 Y36.663 Z-0.500 F250
G1 X72.087 Y36.130 Z-0.500 F250
G1 X71.697 Y35.605 Z-0.500 F250
G1 X71.295 Y35.090 Z-0.500 F250
G1 X70.881 Y34.584 Z-0.500 F250
G1 X70.456 Y34.088 Z-0.500 F250
G1 X70.326 Y33.930 Z-0.500 F250
G1 X70.208 Y33.763 Z-0.500 F250
G1 X70.102 Y33.589 Z-0.500 F250
G1 X70.007 Y33.408 Z-0.500 F250
G1 X69.926 Y33.220 Z-0.500 F250
G1 X69.857 Y33.028 Z-0.500 F250
G1 X69.802 Y32.831 Z-0.500 F250
G1 X69.761 Y32.631 Z-0.500 F250
G1 X69.734 Y32.429 Z-0.500 F250
G1 X69.720 Y32.225 Z-0.500 F250
G1 X69.721 Y32.021 Z-0.500 F250
G1 X69.735 Y31.817 Z-0.500 F250
G1 X69.764 Y31.615 Z-0.500 F250
G1 X69.807 Y31.415 Z-0.500 F250
G1 X75.948 Y6.783 Z-0.500 F250
G1 X76.005 Y6.584 Z-0.500 F250
G1 X76.076 Y6.390 Z-0.500 F250
G1 X76.160 Y6.201 Z-0.500 F250
G1 X76.257 Y6.018 Z-0.500 F250
G1 X76.367 Y5.843 Z-0.500 F250
G1 X76.488 Y5.676 Z-0.500 F250
G1 X76.621 Y5.517 Z-0.500 F250
G1 X76.765 Y5.368 Z-0.500 F250
G1 X76.919 Y5.230 Z-0.500 F250
G1 X77.082 Y5.103 Z-0.500 F250
G1 X77.253 Y4.987 Z-0.500 F250
G1 X77.432 Y4.883 Z-0.500 F250
G1 X77.618 Y4.793 Z-0.500 F250
G1 X77.810 Y4.715 Z-0.500 F250
G1 X78.007 Y4.651 Z-0.500 F250
G1 X78.207 Y4.601 Z-0.500 F250
G1 X78.411 Y4.565 Z-0.500 F250
G1 X78.617 Y4.544 Z-0.500 F250
G1 X78.823 Y4.537 Z-0.500 F250
G1 X83.500 Y4.537 Z-0.500 F250
G1 X83.910 Y4.544 Z-0.500 F250
G1 X84.319 Y4.567 Z-0.500 F250
G1 X84.728 Y4.605 Z-0.500 F250
G1 X85.134 Y4.659 Z-0.500 F250
G1 X85.538 Y4.728 Z-0.500 F250
G1 X85.940 Y4.811 Z-0.500 F250
G1 X86.338 Y4.910 Z-0.500 F250
G1 X86.732 Y5.024 Z-0.500 F250
G1 X87.121 Y5.152 Z-0.500 F250
G1 X87.505 Y5.294 Z-0.500 F250
G1 X87.884 Y5.451 Z-0.500 F250
G1 X88.257 Y5.622 Z-0.500 F250
G1 X88.623 Y5.807 Z-0.500 F250
G1 X88.982 Y6.005 Z-0.500 F250
G1 X89.333 Y6.217 Z-0.500 F250
G1 X89.676 Y6.442 Z-0.500 F250
G1 X90.010 Y6.679 Z-0.500 F250
G1 X90.336 Y6.928 Z-0.500 F250
G1 X90.651 Y7.190 Z-0.500 F250
G1 X90.957 Y7.463 Z-0.500 F250
G1 X91.252 Y7.748 Z-0.500 F250
G1 X91.537 Y8.043 Z-0.500 F250
G1 X91.810 Y8.349 Z-0.500 F250
G1 X92.072 Y8.664 Z-0.500 F250
G1 X92.321 Y8.990 Z-0.500 F250
G1 X92.558 Y9.324 Z-0.500 F250
G1 X92.783 Y9.667 Z-0.500 F250
G1 X92.995 Y10.018 Z-0.500 F250
G1 X93.193 Y10.377 Z-0.500 F250
G1 X93.378 Y10.743 Z-0.500 F250
G1 X93.549 Y11.116 Z-0.500 F250
G1 X93.706 Y11.495 Z-0.500 F250
G1 X93.848 Y11.879 Z-0.500 F250
G1 X93.976 Y12.268 Z-0.500 F250
G1 X94.090 Y12.662 Z-0.500 F250
G1 X94.189 Y13.060 Z-0.500 F250
G1 X94.272 Y13.462 Z-0.500 F250
G1 X94.341 Y13.866 Z-0.500 F250
G1 X94.395 Y14.272 Z-0.500 F250
G1 X94.433 Y14.681 Z-0.500 F250
G1 X94.456 Y15.090 Z-0.500 F250
G1 X94.463 Y15.500 Z-0.500 F250
G1 X94.463 Y30.091 Z-0.500 F250
G1 X94.146 Y30.091 Z-0.500 F250
G1 X94.146 Y30.091 Z5.010 F250
G1 X105.378 Y41.676 Z5.010 F250
G1 X105.378 Y41.676 Z2.010 F83.3
G1 X105.378 Y41.676 Z-0.500 F83.3
G1 X105.634 Y41.488 Z-0.500 F250
G1 X105.743 Y41.624 Z-0.500 F250
G1 X105.862 Y41.750 Z-0.500 F250
G1 X105.990 Y41.868 Z-0.500 F250
G1 X106.128 Y41.975 Z-0.500 F250
G1 X106.273 Y42.071 Z-0.500 F250
G1 X106.425 Y42.155 Z-0.500 F250
G1 X106.583 Y42.227 Z-0.500 F250
G1 X106.747 Y42.287 Z-0.500 F250
G1 X106.914 Y42.334 Z-0.500 F250
G1 X107.085 Y42.368 Z-0.500 F250
G1 X107.258 Y42.388 Z-0.500 F250
G1 X107.432 Y42.395 Z-0.500 F250
G1 X118.334 Y42.395 Z-0.500 F250
G1 X119.377 Y42.395 Z-0.500 F250
G1 X119.564 Y42.387 Z-0.500 F250
G1 X119.750 Y42.363 Z-0.500 F250
G1 X119.934 Y42.324 Z-0.500 F250
G1 X120.113 Y42.270 Z-0.500 F250
G1 X120.288 Y42.201 Z-0.500 F250
G1 X120.456 Y42.117 Z-0.500 F250
G1 X120.616 Y42.020 Z-0.500 F250
G1 X120.768 Y41.910 Z-0.500 F250
G1 X120.910 Y41.787 Z-0.500 F250
G1 X121.041 Y41.653 Z-0.500 F250
G1 X121.160 Y41.509 Z-0.500 F250
G1 X121.267 Y41.354 Z-0.500 F250
G1 X121.361 Y41.192 Z-0.500 F250
G1 X121.440 Y41.022 Z-0.500 F250
G1 X121.506 Y40.846 Z-0.500 F250
G1 X121.556 Y40.665 Z-0.500 F250
G1 X121.715 Y40.014 Z-0.500 F250
G1 X121.890 Y39.367 Z-0.500 F250
G1 X122.081 Y38.724 Z-0.500 F250
G1 X122.286 Y38.085 Z-0.500 F250
G1 X122.506 Y37.452 Z-0.500 F250
G1 X122.741 Y36.823 Z-0.500 F250
G1 X122.990 Y36.201 Z-0.500 F250
G1 X123.254 Y35.584 Z-0.500 F250
G1 X123.532 Y34.974 Z-0.500 F250
G1 X123.825 Y34.371 Z-0.500 F250
G1 X124.132 Y33.774 Z-0.500 F250
G1 X124.452 Y33.185 Z-0.500 F250
G1 X124.786 Y32.604 Z-0.500 F250
G1 X125.134 Y32.030 Z-0.500 F250
G1 X125.495 Y31.465 Z-0.500 F250
G1 X125.869 Y30.909 Z-0.500 F250
G1 X126.257 Y30.361 Z-0.500 F250
G1 X126.657 Y29.823 Z-0.500 F250
G1 X127.069 Y29.294 Z-0.500 F250
G1 X127.494 Y28.775 Z-0.500 F250
G1 X127.930 Y28.266 Z-0.500 F250
G1 X128.044 Y28.126 Z-0.500 F250
G1 X128.145 Y27.978 Z-0.500 F250
G1 X128.234 Y27.822 Z-0.500 F250
G1 X128.311 Y27.659 Z-0.500 F250
G1 X128.374 Y27.490 Z-0.500 F250
G1 X128.423 Y27.317 Z-0.500 F250
G1 X128.459 Y27.141 Z-0.500 F250
G1 X128.480 Y26.962 Z-0.500 F250
G1 X128.486 Y26.783 Z-0.500 F250
G1 X128.478 Y26.603 Z-0.500 F250
G1 X128.456 Y26.425 Z-0.500 F250
G1 X128.420 Y26.248 Z-0.500 F250
G1 X122.279 Y1.617 Z-0.500 F250
G1 X122.226 Y1.439 Z-0.500 F250
G1 X122.160 Y1.266 Z-0.500 F250
G1 X122.079 Y1.100 Z-0.500 F250
G1 X121.984 Y0.940 Z-0.500 F250
G1 X121.877 Y0.789 Z-0.500 F250
G1 X121.758 Y0.647 Z-0.500 F250
G1 X121.627 Y0.516 Z-0.500 F250
G1 X121.486 Y0.396 Z-0.500 F250
G1 X121.335 Y0.288 Z-0.500 F250
G1 X121.176 Y0.193 Z-0.500 F250
G1 X121.010 Y0.111 Z-0.500 F250
G1 X120.837 Y0.043 Z-0.500 F250
G1 X120.660 Y-0.010 Z-0.500 F250
G1 X120.478 Y-0.048 Z-0.500 F250
G1 X120.294 Y-0.071 Z-0.500 F250
G1 X120.109 Y-0.079 Z-0.500 F250
G1 X115.432 Y-0.079 Z-0.500 F250
G1 X115.030 Y-0.071 Z-0.500 F250
G1 X114.629 Y-0.047 Z-0.500 F250
G1 X114.229 Y-0.008 Z-0.500 F250
G1 X113.831 Y0.047 Z-0.500 F250
G1 X113.435 Y0.118 Z-0.500 F250
G1 X113.042 Y0.204 Z-0.500 F250
G1 X112.653 Y0.306 Z-0.500 F250
G1 X112.269 Y0.422 Z-0.500 F250
G1 X111.889 Y0.554 Z-0.500 F250
G1 X111.515 Y0.701 Z-0.500 F250
G1 X111.146 Y0.862 Z-0.500 F250
G1 X110.785 Y1.037 Z-0.500 F250
G1 X110.430 Y1.227 Z-0.500 F250
G1 X110.083 Y1.430 Z-0.500 F250
G1 X109.745 Y1.647 Z-0.500 F250
G1 X109.415 Y1.876 Z-0.500 F250
G1 X109.095 Y2.119 Z-0.500 F250
G1 X108.784 Y2.374 Z-0.500 F250
G1 X108.483 Y2.641 Z-0.500 F250
G1 X108.194 Y2.920 Z-0.500 F250
G1 X107.915 Y3.209 Z-0.500 F250
G1 X107.648 Y3.510 Z-0.500 F250
G1 X107.393 Y3.821 Z-0.500 F250
G1 X107.150 Y4.141 Z-0.500 F250
G1 X106.921 Y4.471 Z-0.500 F250
G1 X106.704 Y4.809 Z-0.500 F250
G1 X106.501 Y5.156 Z-0.500 F250
G1 X106.311 Y5.511 Z-0.500 F250
G1 X106.136 Y5.872 Z-0.500 F250
G1 X105.975 Y6.241 Z-0.500 F250
G1 X105.828 Y6.615 Z-0.500 F250
G1 X105.696 Y6.995 Z-0.500 F250
G1 X105.580 Y7.379 Z-0.500 F250
G1 X105.478 Y7.768 Z-0.500 F250
G1 X105.392 Y8.161 Z-0.500 F250
G1 X105.321 Y8.557 Z-0.500 F250
G1 X105.266 Y8.955 Z-0.500 F250
G1 X105.227 Y9.355 Z-0.500 F250
G1 X105.203 Y9.756 Z-0.500 F250
G1 X105.195 Y10.158 Z-0.500 F250
G1 X105.195 Y40.158 Z-0.500 F250
G1 X105.203 Y40.336 Z-0.500 F250
G1 X105.224 Y40.512 Z-0.500 F250
G1 X105.259 Y40.687 Z-0.500 F250
G1 X105.308 Y40.858 Z-0.500 F250
G1 X105.370 Y41.025 Z-0.500 F250
G1 X105.446 Y41.186 Z-0.500 F250
G1 X105.534 Y41.341 Z-0.500 F250
G1 X105.634 Y41.488 Z-0.500 F250
G1 X105.378 Y41.676 Z-0.500 F250
G1 X105.378 Y41.676 Z5.010 F250
G1 X107.151 Y46.880 Z5.010 F250
G1 X107.151 Y46.880 Z2.010 F83.3
G1 X107.151 Y46.880 Z-0.500 F83.3
G1 X107.151 Y47.197 Z-0.500 F250
G1 X106.966 Y47.205 Z-0.500 F250
G1 X106.783 Y47.228 Z-0.500 F250
G1 X106.602 Y47.266 Z-0.500 F250
G1 X106.425 Y47.319 Z-0.500 F250
G1 X106.253 Y47.386 Z-0.500 F250
G1 X106.087 Y47.467 Z-0.500 F250
G1 X105.928 Y47.562 Z-0.500 F250
G1 X105.777 Y47.669 Z-0.500 F250
G1 X105.636 Y47.789 Z-0.500 F250
G1 X105.506 Y47.919 Z-0.500 F250
G1 X105.386 Y48.060 Z-0.500 F250
G1 X105.279 Y48.211 Z-0.500 F250
G1 X105.184 Y48.370 Z-0.500 F250
G1 X105.103 Y48.536 Z-0.500 F250
G1 X105.036 Y48.708 Z-0.500 F250
G1 X104.983 Y48.885 Z-0.500 F250
G1 X104.945 Y49.066 Z-0.500 F250
G1 X104.922 Y49.249 Z-0.500 F250
G1 X104.914 Y49.434 Z-0.500 F250
G1 X104.914 Y75.834 Z-0.500 F250
G1 X104.922 Y76.254 Z-0.500 F250
G1 X104.946 Y76.674 Z-0.500 F250
G1 X104.985 Y77.092 Z-0.500 F250
G1 X105.040 Y77.509 Z-0.500 F250
G1 X105.110 Y77.923 Z-0.500 F250
G1 X105.196 Y78.334 Z-0.500 F250
G1 X105.297 Y78.742 Z-0.500 F250
G1 X105.414 Y79.146 Z-0.500 F250
G1 X105.545 Y79.545 Z-0.500 F250
G1 X105.691 Y79.939 Z-0.500 F250
G1 X105.852 Y80.327 Z-0.500 F250
G1 X106.027 Y80.709 Z-0.500 F250
G1 X106.217 Y81.084 Z-0.500 F250
G1 X106.420 Y81.452 Z-0.500 F250
G1 X106.637 Y81.812 Z-0.500 F250
G1 X106.867 Y82.164 Z-0.500 F250
G1 X107.110 Y82.506 Z-0.500 F250
G1 X107.366 Y82.840 Z-0.500 F250
G1 X107.634 Y83.163 Z-0.500 F250
G1 X107.914 Y83.477 Z-0.500 F250
G1 X108.206 Y83.779 Z-0.500 F250
G1 X108.508 Y84.071 Z-0.500 F250
G1 X108.822 Y84.351 Z-0.500 F250
G1 X109.145 Y84.619 Z-0.500 F250
G1 X109.479 Y84.875 Z-0.500 F250
G1 X109.821 Y85.118 Z-0.500 F250
G1 X110.173 Y85.348 Z-0.500 F250
G1 X110.533 Y85.565 Z-0.500 F250
G1 X110.901 Y85.768 Z-0.500 F250
G1 X111.276 Y85.958 Z-0.500 F250
G1 X111.658 Y86.133 Z-0.500 F250
G1 X112.046 Y86.294 Z-0.500 F250
G1 X112.440 Y86.440 Z-0.500 F250
G1 X112.839 Y86.571 Z-0.500 F250
G1 X113.243 Y86.688 Z-0.500 F250
G1 X113.651 Y86.789 Z-0.500 F250
G1 X114.062 Y86.875 Z-0.500 F250
G1 X114.476 Y86.945 Z-0.500 F250
G1 X114.893 Y87.000 Z-0.500 F250
G1 X115.311 Y87.039 Z-0.500 F250
G1 X115.731 Y87.063 Z-0.500 F250
G1 X116.151 Y87.071 Z-0.500 F250
G1 X131.151 Y87.071 Z-0.500 F250
G1 X131.336 Y87.063 Z-0.500 F250
G1 X131.519 Y87.040 Z-0.500 F250
G1 X131.700 Y87.002 Z-0.500 F250
G1 X131.877 Y86.949 Z-0.500 F250
G1 X132.049 Y86.882 Z-0.500 F250
G1 X132.215 Y86.801 Z-0.500 F250
G1 X132.374 Y86.706 Z-0.500 F250
G1 X132.525 Y86.599 Z-0.500 F250
G1 X132.666 Y86.479 Z-0.500 F250
G1 X132.796 Y86.349 Z-0.500 F250
G1 X132.916 Y86.208 Z-0.500 F250
G1 X133.023 Y86.057 Z-0.500 F250
G1 X133.118 Y85.898 Z-0.500 F250
G1 X133.199 Y85.732 Z-0.500 F250
G1 X133.266 Y85.560 Z-0.500 F250
G1 X133.319 Y85.383 Z-0.500 F250
G1 X133.357 Y85.202 Z-0.500 F250
G1 X133.380 Y85.019 Z-0.500 F250
G1 X133.388 Y84.834 Z-0.500 F250
G1 X133.388 Y72.899 Z-0.500 F250
G1 X133.381 Y72.723 Z-0.500 F250
G1 X133.360 Y72.548 Z-0.500 F250
G1 X133.325 Y72.374 Z-0.500 F250
G1 X133.277 Y72.205 Z-0.500 F250
G1 X133.215 Y72.039 Z-0.500 F250
G1 X133.141 Y71.879 Z-0.500 F250
G1 X133.054 Y71.725 Z-0.500 F250
G1 X132.956 Y71.578 Z-0.500 F250
G1 X132.846 Y71.440 Z-0.500 F250
G1 X132.726 Y71.311 Z-0.500 F250
G1 X132.595 Y71.192 Z-0.500 F250
G1 X132.456 Y71.083 Z-0.500 F250
G1 X131.913 Y70.683 Z-0.500 F250
G1 X131.379 Y70.270 Z-0.500 F250
G1 X130.854 Y69.845 Z-0.500 F250
G1 X130.341 Y69.407 Z-0.500 F250
G1 X129.837 Y68.958 Z-0.500 F250
G1 X129.344 Y68.496 Z-0.500 F250
G1 X128.863 Y68.023 Z-0.500 F250
G1 X128.392 Y67.539 Z-0.500 F250
G1 X127.933 Y67.044 Z-0.500 F250
G1 X127.486 Y66.539 Z-0.500 F250
G1 X127.051 Y66.023 Z-0.500 F250
G1 X126.628 Y65.496 Z-0.500 F250
G1 X126.218 Y64.960 Z-0.500 F250
G1 X125.821 Y64.415 Z-0.500 F250
G1 X125.436 Y63.860 Z-0.500 F250
G1 X125.065 Y63.296 Z-0.500 F250
G1 X124.707 Y62.724 Z-0.500 F250
G1 X124.363 Y62.144 Z-0.500 F250
G1 X124.032 Y61.555 Z-0.500 F250
G1 X123.716 Y60.959 Z-0.500 F250
G1 X123.413 Y60.355 Z-0.500 F250
G1 X123.125 Y59.745 Z-0.500 F250
G1 X122.851 Y59.128 Z-0.500 F250
G1 X122.592 Y58.505 Z-0.500 F250
G1 X122.348 Y57.875 Z-0.500 F250
G1 X122.119 Y57.241 Z-0.500 F250
G1 X121.904 Y56.601 Z-0.500 F250
G1 X121.705 Y55.956 Z-0.500 F250
G1 X121.521 Y55.306 Z-0.500 F250
G1 X121.353 Y54.653 Z-0.500 F250
G1 X121.200 Y53.995 Z-0.500 F250
G1 X121.062 Y53.334 Z-0.500 F250
G1 X120.940 Y52.670 Z-0.500 F250
G1 X120.834 Y52.004 Z-0.500 F250
G1 X120.744 Y51.335 Z-0.500 F250
G1 X120.669 Y50.664 Z-0.500 F250
G1 X120.610 Y49.992 Z-0.500 F250
G1 X120.567 Y49.318 Z-0.500 F250
G1 X120.550 Y49.130 Z-0.500 F250
G1 X120.516 Y48.945 Z-0.500 F250
G1 X120.467 Y48.762 Z-0.500 F250
G1 X120.403 Y48.585 Z-0.500 F250
G1 X120.324 Y48.414 Z-0.500 F250
G1 X120.231 Y48.249 Z-0.500 F250
G1 X120.124 Y48.094 Z-0.500 F250
G1 X120.005 Y47.948 Z-0.500 F250
G1 X119.874 Y47.812 Z-0.500 F250
G1 X119.732 Y47.688 Z-0.500 F250
G1 X119.580 Y47.576 Z-0.500 F250
G1 X119.419 Y47.478 Z-0.500 F250
G1 X119.250 Y47.394 Z-0.500 F250
G1 X119.075 Y47.324 Z-0.500 F250
G1 X118.894 Y47.269 Z-0.500 F250
G1 X118.710 Y47.229 Z-0.500 F250
G1 X118.523 Y47.205 Z-0.500 F250
G1 X118.334 Y47.197 Z-0.500 F250
G1 X107.151 Y47.197 Z-0.500 F250
G1 X107.151 Y46.880 Z-0.500 F250
G1 X107.151 Y46.880 Z5.010 F250
G1 X94.146 Y79.081 Z5.010 F250
G1 X94.146 Y79.081 Z2.010 F83.3
G1 X94.146 Y79.081 Z-0.500 F83.3
G1 X94.463 Y79.081 Z-0.500 F250
G1 X94.463 Y80.500 Z-0.500 F250
G1 X94.455 Y80.937 Z-0.500 F250
G1 X94.432 Y81.373 Z-0.500 F250
G1 X94.392 Y81.808 Z-0.500 F250
G1 X94.336 Y82.242 Z-0.500 F250
G1 X94.264 Y82.673 Z-0.500 F250
G1 X94.177 Y83.101 Z-0.500 F250
G1 X94.074 Y83.526 Z-0.500 F250
G1 X93.956 Y83.947 Z-0.500 F250
G1 X93.823 Y84.363 Z-0.500 F250
G1 X93.674 Y84.774 Z-0.500 F250
G1 X93.511 Y85.179 Z-0.500 F250
G1 X93.332 Y85.578 Z-0.500 F250
G1 X93.140 Y85.970 Z-0.500 F250
G1 X92.933 Y86.355 Z-0.500 F250
G1 X92.712 Y86.732 Z-0.500 F250
G1 X92.477 Y87.101 Z-0.500 F250
G1 X92.230 Y87.461 Z-0.500 F250
G1 X91.969 Y87.812 Z-0.500 F250
G1 X91.696 Y88.153 Z-0.500 F250
G1 X91.410 Y88.483 Z-0.500 F250
G1 X91.113 Y88.804 Z-0.500 F250
G1 X90.804 Y89.113 Z-0.500 F250
G1 X90.483 Y89.410 Z-0.500 F250
G1 X90.153 Y89.696 Z-0.500 F250
G1 X89.812 Y89.969 Z-0.500 F250
G1 X89.461 Y90.230 Z-0.500 F250
G1 X89.101 Y90.477 Z-0.500 F250
G1 X88.732 Y90.712 Z-0.500 F250
G1 X88.355 Y90.933 Z-0.500 F250
G1 X87.970 Y91.140 Z-0.500 F250
G1 X87.578 Y91.332 Z-0.500 F250
G1 X87.179 Y91.511 Z-0.500 F250
G1 X86.774 Y91.674 Z-0.500 F250
G1 X86.363 Y91.823 Z-0.500 F250
G1 X85.947 Y91.956 Z-0.500 F250
G1 X85.526 Y92.074 Z-0.500 F250
G1 X85.101 Y92.177 Z-0.500 F250
G1 X84.673 Y92.264 Z-0.500 F250
G1 X84.242 Y92.336 Z-0.500 F250
G1 X83.808 Y92.392 Z-0.500 F250
G1 X83.373 Y92.432 Z-0.500 F250
G1 X82.937 Y92.455 Z-0.500 F250
G1 X82.500 Y92.463 Z-0.500 F250
G1 X67.500 Y92.463 Z-0.500 F250
G1 X67.289 Y92.456 Z-0.500 F250
G1 X67.078 Y92.433 Z-0.500 F250
G1 X66.870 Y92.396 Z-0.500 F250
G1 X66.665 Y92.343 Z-0.500 F250
G1 X66.464 Y92.277 Z-0.500 F250
G1 X66.269 Y92.196 Z-0.500 F250
G1 X66.080 Y92.101 Z-0.500 F250
G1 X65.898 Y91.993 Z-0.500 F250
G1 X65.724 Y91.872 Z-0.500 F250
G1 X65.559 Y91.740 Z-0.500 F250
G1 X65.405 Y91.595 Z-0.500 F250
G1 X65.260 Y91.441 Z-0.500 F250
G1 X65.128 Y91.276 Z-0.500 F250
G1 X65.007 Y91.102 Z-0.500 F250
G1 X64.899 Y90.920 Z-0.500 F250
G1 X64.804 Y90.731 Z-0.500 F250
G1 X64.723 Y90.536 Z-0.500 F250
G1 X64.657 Y90.335 Z-0.500 F250
G1 X64.604 Y90.130 Z-0.500 F250
G1 X64.567 Y89.922 Z-0.500 F250
G1 X64.544 Y89.711 Z-0.500 F250
G1 X64.537 Y89.500 Z-0.500 F250
G1 X64.537 Y77.565 Z-0.500 F250
G1 X64.544 Y77.349 Z-0.500 F250
G1 X64.568 Y77.135 Z-0.500 F250
G1 X64.607 Y76.922 Z-0.500 F250
G1 X64.662 Y76.713 Z-0.500 F250
G1 X64.731 Y76.509 Z-0.500 F250
G1 X64.816 Y76.310 Z-0.500 F250
G1 X64.914 Y76.117 Z-0.500 F250
G1 X65.027 Y75.933 Z-0.500 F250
G1 X65.152 Y75.757 Z-0.500 F250
G1 X65.290 Y75.591 Z-0.500 F250
G1 X65.440 Y75.435 Z-0.500 F250
G1 X65.601 Y75.291 Z-0.500 F250
G1 X65.771 Y75.158 Z-0.500 F250
G1 X66.301 Y74.768 Z-0.500 F250
G1 X66.822 Y74.366 Z-0.500 F250
G1 X67.332 Y73.951 Z-0.500 F250
G1 X67.833 Y73.525 Z-0.500 F250
G1 X68.324 Y73.087 Z-0.500 F250
G1 X68.804 Y72.637 Z-0.500 F250
G1 X69.274 Y72.176 Z-0.500 F250
G1 X69.732 Y71.705 Z-0.500 F250
G1 X70.179 Y71.222 Z-0.500 F250
G1 X70.615 Y70.729 Z-0.500 F250
G1 X71.039 Y70.226 Z-0.500 F250
G1 X71.451 Y69.714 Z-0.500 F250
G1 X71.851 Y69.191 Z-0.500 F250
G1 X72.238 Y68.660 Z-0.500 F250
G1 X72.613 Y68.119 Z-0.500 F250
G1 X72.975 Y67.569 Z-0.500 F250
G1 X73.324 Y67.012 Z-0.500 F250
G1 X73.659 Y66.446 Z-0.500 F250
G1 X73.981 Y65.872 Z-0.500 F250
G1 X74.290 Y65.291 Z-0.500 F250
G1 X74.585 Y64.703 Z-0.500 F250
G1 X74.865 Y64.108 Z-0.500 F250
G1 X75.132 Y63.507 Z-0.500 F250
G1 X75.385 Y62.900 Z-0.500 F250
G1 X75.623 Y62.286 Z-0.500 F250
G1 X75.846 Y61.668 Z-0.500 F250
G1 X76.055 Y61.044 Z-0.500 F250
G1 X76.249 Y60.415 Z-0.500 F250
G1 X76.428 Y59.782 Z-0.500 F250
G1 X76.592 Y59.145 Z-0.500 F250
G1 X76.742 Y58.505 Z-0.500 F250
G1 X76.876 Y57.861 Z-0.500 F250
G1 X76.994 Y57.214 Z-0.500 F250
G1 X77.098 Y56.564 Z-0.500 F250
G1 X77.186 Y55.912 Z-0.500 F250
G1 X77.259 Y55.258 Z-0.500 F250
G1 X77.316 Y54.603 Z-0.500 F250
G1 X77.358 Y53.946 Z-0.500 F250
G1 X77.377 Y53.733 Z-0.500 F250
G1 X77.411 Y53.521 Z-0.500 F250
G1 X77.461 Y53.313 Z-0.500 F250
G1 X77.525 Y53.108 Z-0.500 F250
G1 X77.604 Y52.909 Z-0.500 F250
G1 X77.697 Y52.716 Z-0.500 F250
G1 X77.804 Y52.530 Z-0.500 F250
G1 X77.924 Y52.353 Z-0.500 F250
G1 X78.056 Y52.184 Z-0.500 F250
G1 X78.201 Y52.026 Z-0.500 F250
G1 X78.356 Y51.879 Z-0.500 F250
G1 X78.522 Y51.743 Z-0.500 F250
G1 X78.697 Y51.619 Z-0.500 F250
G1 X78.880 Y51.508 Z-0.500 F250
G1 X79.071 Y51.411 Z-0.500 F250
G1 X79.269 Y51.328 Z-0.500 F250
G1 X79.472 Y51.260 Z-0.500 F250
G1 X79.679 Y51.206 Z-0.500 F250
G1 X79.890 Y51.168 Z-0.500 F250
G1 X80.103 Y51.144 Z-0.500 F250
G1 X80.317 Y51.137 Z-0.500 F250
G1 X91.500 Y51.137 Z-0.500 F250
G1 X91.711 Y51.144 Z-0.500 F250
G1 X91.922 Y51.167 Z-0.500 F250
G1 X92.130 Y51.204 Z-0.500 F250
G1 X92.335 Y51.257 Z-0.500 F250
G1 X92.536 Y51.323 Z-0.500 F250
G1 X92.731 Y51.404 Z-0.500 F250
G1 X92.920 Y51.499 Z-0.500 F250
G1 X93.102 Y51.607 Z-0.500 F250
G1 X93.276 Y51.728 Z-0.500 F250
G1 X93.441 Y51.860 Z-0.500 F250
G1 X93.595 Y52.005 Z-0.500 F250
G1 X93.740 Y52.159 Z-0.500 F250
G1 X93.872 Y52.324 Z-0.500 F250
G1 X93.993 Y52.498 Z-0.500 F250
G1 X94.101 Y52.680 Z-0.500 F250
G1 X94.196 Y52.869 Z-0.500 F250
G1 X94.277 Y53.064 Z-0.500 F250
G1 X94.343 Y53.265 Z-0.500 F250
G1 X94.396 Y53.470 Z-0.500 F250
G1 X94.433 Y53.678 Z-0.500 F250
G1 X94.456 Y53.889 Z-0.500 F250
G1 X94.463 Y54.100 Z-0.500 F250
G1 X94.463 Y79.081 Z-0.500 F250
G1 X94.146 Y79.081 Z-0.500 F250
G1 X94.146 Y79.081 Z5.010 F250
G1 X70.333 Y16.943 Z5.010 F250
G1 X70.333 Y16.943 Z2.010 F83.3
G1 X70.333 Y16.943 Z-0.500 F83.3
G1 X70.641 Y17.020 Z-0.500 F250
G1 X68.218 Y26.735 Z-0.500 F250
G1 X68.160 Y26.940 Z-0.500 F250
G1 X68.086 Y27.139 Z-0.500 F250
G1 X67.999 Y27.333 Z-0.500 F250
G1 X67.898 Y27.520 Z-0.500 F250
G1 X67.784 Y27.699 Z-0.500 F250
G1 X67.657 Y27.870 Z-0.500 F250
G1 X67.518 Y28.031 Z-0.500 F250
G1 X67.368 Y28.182 Z-0.500 F250
G1 X67.208 Y28.321 Z-0.500 F250
G1 X67.038 Y28.449 Z-0.500 F250
G1 X66.859 Y28.564 Z-0.500 F250
G1 X66.673 Y28.667 Z-0.500 F250
G1 X66.480 Y28.755 Z-0.500 F250
G1 X66.281 Y28.830 Z-0.500 F250
G1 X66.077 Y28.890 Z-0.500 F250
G1 X65.869 Y28.935 Z-0.500 F250
G1 X65.658 Y28.965 Z-0.500 F250
G1 X65.446 Y28.980 Z-0.500 F250
G1 X65.234 Y28.980 Z-0.500 F250
G1 X65.022 Y28.964 Z-0.500 F250
G1 X64.811 Y28.934 Z-0.500 F250
G1 X64.604 Y28.888 Z-0.500 F250
G1 X64.400 Y28.828 Z-0.500 F250
G1 X64.201 Y28.753 Z-0.500 F250
G1 X64.008 Y28.664 Z-0.500 F250
G1 X63.822 Y28.562 Z-0.500 F250
G1 X63.255 Y28.232 Z-0.500 F250
G1 X62.682 Y27.915 Z-0.500 F250
G1 X62.100 Y27.612 Z-0.500 F250
G1 X61.512 Y27.323 Z-0.500 F250
G1 X60.918 Y27.048 Z-0.500 F250
G1 X60.317 Y26.787 Z-0.500 F250
G1 X59.710 Y26.540 Z-0.500 F250
G1 X59.097 Y26.307 Z-0.500 F250
G1 X58.479 Y26.089 Z-0.500 F250
G1 X57.856 Y25.886 Z-0.500 F250
G1 X57.229 Y25.697 Z-0.500 F250
G1 X56.597 Y25.522 Z-0.500 F250
G1 X55.962 Y25.363 Z-0.500 F250
G1 X55.323 Y25.219 Z-0.500 F250
G1 X54.680 Y25.090 Z-0.500 F250
G1 X54.035 Y24.976 Z-0.500 F250
G1 X53.387 Y24.877 Z-0.500 F250
G1 X53.178 Y24.840 Z-0.500 F250
G1 X52.973 Y24.788 Z-0.500 F250
G1 X52.771 Y24.721 Z-0.500 F250
G1 X52.575 Y24.641 Z-0.500 F250
G1 X52.386 Y24.546 Z-0.500 F250
G1 X52.203 Y24.438 Z-0.500 F250
G1 X52.029 Y24.318 Z-0.500 F250
G1 X51.863 Y24.185 Z-0.500 F250
G1 X51.708 Y24.041 Z-0.500 F250
G1 X51.563 Y23.886 Z-0.500 F250
G1 X51.430 Y23.721 Z-0.500 F250
G1 X51.309 Y23.547 Z-0.500 F250
G1 X51.201 Y23.365 Z-0.500 F250
G1 X51.105 Y23.176 Z-0.500 F250
G1 X51.024 Y22.980 Z-0.500 F250
G1 X50.957 Y22.779 Z-0.500 F250
G1 X50.905 Y22.573 Z-0.500 F250
G1 X50.867 Y22.365 Z-0.500 F250
G1 X50.844 Y22.154 Z-0.500 F250
G1 X50.837 Y21.942 Z-0.500 F250
G1 X50.837 Y7.500 Z-0.500 F250
G1 X50.844 Y7.289 Z-0.500 F250
G1 X50.867 Y7.078 Z-0.500 F250
G1 X50.904 Y6.870 Z-0.500 F250
G1 X50.957 Y6.665 Z-0.500 F250
G1 X51.023 Y6.464 Z-0.500 F250
G1 X51.104 Y6.269 Z-0.500 F250
G1 X51.199 Y6.080 Z-0.500 F250
G1 X51.307 Y5.898 Z-0.500 F250
G1 X51.428 Y5.724 Z-0.500 F250
G1 X51.560 Y5.559 Z-0.500 F250
G1 X51.705 Y5.405 Z-0.500 F250
G1 X51.859 Y5.260 Z-0.500 F250
G1 X52.024 Y5.128 Z-0.500 F250
G1 X52.198 Y5.007 Z-0.500 F250
G1 X52.380 Y4.899 Z-0.500 F250
G1 X52.569 Y4.804 Z-0.500 F250
G1 X52.764 Y4.723 Z-0.500 F250
G1 X52.965 Y4.657 Z-0.500 F250
G1 X53.170 Y4.604 Z-0.500 F250
G1 X53.378 Y4.567 Z-0.500 F250
G1 X53.589 Y4.544 Z-0.500 F250
G1 X53.800 Y4.537 Z-0.500 F250
G1 X69.960 Y4.537 Z-0.500 F250
G1 X70.175 Y4.544 Z-0.500 F250
G1 X70.389 Y4.568 Z-0.500 F250
G1 X70.601 Y4.607 Z-0.500 F250
G1 X70.809 Y4.661 Z-0.500 F250
G1 X71.013 Y4.730 Z-0.500 F250
G1 X71.211 Y4.813 Z-0.500 F250
G1 X71.402 Y4.911 Z-0.500 F250
G1 X71.586 Y5.023 Z-0.500 F250
G1 X71.762 Y5.147 Z-0.500 F250
G1 X71.928 Y5.284 Z-0.500 F250
G1 X72.083 Y5.433 Z-0.500 F250
G1 X72.228 Y5.592 Z-0.500 F250
G1 X72.360 Y5.761 Z-0.500 F250
G1 X72.480 Y5.940 Z-0.500 F250
G1 X72.586 Y6.127 Z-0.500 F250
G1 X72.679 Y6.321 Z-0.500 F250
G1 X72.757 Y6.522 Z-0.500 F250
G1 X72.821 Y6.727 Z-0.500 F250
G1 X72.870 Y6.937 Z-0.500 F250
G1 X72.903 Y7.149 Z-0.500 F250
G1 X72.920 Y7.363 Z-0.500 F250
G1 X72.923 Y7.579 Z-0.500 F250
G1 X72.909 Y7.793 Z-0.500 F250
G1 X72.880 Y8.006 Z-0.500 F250
G1 X72.836 Y8.217 Z-0.500 F250
G1 X70.641 Y17.020 Z-0.500 F250
G1 X70.333 Y16.943 Z-0.500 F250
G1 X70.333 Y16.943 Z5.010 F250
G1 X47.846 Y14.588 Z5.010 F250
G1 X47.846 Y14.588 Z2.010 F83.3
G1 X47.846 Y14.588 Z-0.500 F83.3
G1 X48.163 Y14.588 Z-0.500 F250
G1 X48.163 Y21.942 Z-0.500 F250
G1 X48.156 Y22.154 Z-0.500 F250
G1 X48.133 Y22.365 Z-0.500 F250
G1 X48.095 Y22.573 Z-0.500 F250
G1 X48.043 Y22.779 Z-0.500 F250
G1 X47.976 Y22.980 Z-0.500 F250
G1 X47.895 Y23.176 Z-0.500 F250
G1 X47.799 Y23.365 Z-0.500 F250
G1 X47.691 Y23.547 Z-0.500 F250
G1 X47.570 Y23.721 Z-0.500 F250
G1 X47.437 Y23.886 Z-0.500 F250
G1 X47.292 Y24.041 Z-0.500 F250
G1 X47.137 Y24.185 Z-0.500 F250
G1 X46.971 Y24.318 Z-0.500 F250
G1 X46.797 Y24.438 Z-0.500 F250
G1 X46.614 Y24.546 Z-0.500 F250
G1 X46.425 Y24.641 Z-0.500 F250
G1 X46.229 Y24.721 Z-0.500 F250
G1 X46.027 Y24.788 Z-0.500 F250
G1 X45.822 Y24.840 Z-0.500 F250
G1 X45.613 Y24.877 Z-0.500 F250
G1 X44.965 Y24.976 Z-0.500 F250
G1 X44.320 Y25.090 Z-0.500 F250
G1 X43.678 Y25.219 Z-0.500 F250
G1 X43.038 Y25.363 Z-0.500 F250
G1 X42.403 Y25.522 Z-0.500 F250
G1 X41.771 Y25.697 Z-0.500 F250
G1 X41.144 Y25.886 Z-0.500 F250
G1 X40.521 Y26.089 Z-0.500 F250
G1 X39.903 Y26.307 Z-0.500 F250
G1 X39.290 Y26.540 Z-0.500 F250
G1 X38.683 Y26.787 Z-0.500 F250
G1 X38.082 Y27.048 Z-0.500 F250
G1 X37.488 Y27.323 Z-0.500 F250
G1 X36.900 Y27.612 Z-0.500 F250
G1 X36.318 Y27.915 Z-0.500 F250
G1 X35.745 Y28.232 Z-0.500 F250
G1 X35.178 Y28.562 Z-0.500 F250
G1 X34.992 Y28.664 Z-0.500 F250
G1 X34.799 Y28.753 Z-0.500 F250
G1 X34.600 Y28.828 Z-0.500 F250
G1 X34.396 Y28.888 Z-0.500 F250
G1 X34.189 Y28.934 Z-0.500 F250
G1 X33.978 Y28.964 Z-0.500 F250
G1 X33.766 Y28.980 Z-0.500 F250
G1 X33.554 Y28.980 Z-0.500 F250
G1 X33.342 Y28.965 Z-0.500 F250
G1 X33.131 Y28.935 Z-0.500 F250
G1 X32.923 Y28.890 Z-0.500 F250
G1 X32.719 Y28.830 Z-0.500 F250
G1 X32.520 Y28.755 Z-0.500 F250
G1 X32.327 Y28.667 Z-0.500 F250
G1 X32.141 Y28.564 Z-0.500 F250
G1 X31.962 Y28.449 Z-0.500 F250
G1 X31.792 Y28.321 Z-0.500 F250
G1 X31.632 Y28.182 Z-0.500 F250
G1 X31.482 Y28.031 Z-0.500 F250
G1 X31.343 Y27.870 Z-0.500 F250
G1 X31.216 Y27.699 Z-0.500 F250
G1 X31.102 Y27.520 Z-0.500 F250
G1 X31.001 Y27.333 Z-0.500 F250
G1 X30.914 Y27.139 Z-0.500 F250
G1 X30.840 Y26.940 Z-0.500 F250
G1 X30.782 Y26.735 Z-0.500 F250
G1 X26.164 Y8.217 Z-0.500 F250
G1 X26.120 Y8.006 Z-0.500 F250
G1 X26.091 Y7.793 Z-0.500 F250
G1 X26.077 Y7.579 Z-0.500 F250
G1 X26.080 Y7.364 Z-0.500 F250
G1 X26.097 Y7.149 Z-0.500 F250
G1 X26.130 Y6.937 Z-0.500 F250
G1 X26.179 Y6.727 Z-0.500 F250
G1 X26.243 Y6.522 Z-0.500 F250
G1 X26.321 Y6.321 Z-0.500 F250
G1 X26.414 Y6.127 Z-0.500 F250
G1 X26.520 Y5.940 Z-0.500 F250
G1 X26.640 Y5.761 Z-0.500 F250
G1 X26.772 Y5.592 Z-0.500 F250
G1 X26.917 Y5.433 Z-0.500 F250
G1 X27.072 Y5.284 Z-0.500 F250
G1 X27.238 Y5.147 Z-0.500 F250
G1 X27.414 Y5.023 Z-0.500 F250
G1 X27.598 Y4.911 Z-0.500 F250
G1 X27.789 Y4.813 Z-0.500 F250
G1 X27.987 Y4.730 Z-0.500 F250
G1 X28.191 Y4.661 Z-0.500 F250
G1 X28.399 Y4.607 Z-0.500 F250
G1 X28.611 Y4.568 Z-0.500 F250
G1 X28.825 Y4.544 Z-0.500 F250
G1 X29.040 Y4.537 Z-0.500 F250
G1 X45.200 Y4.537 Z-0.500 F250
G1 X45.411 Y4.544 Z-0.500 F250
G1 X45.622 Y4.567 Z-0.500 F250
G1 X45.830 Y4.604 Z-0.500 F250
G1 X46.035 Y4.657 Z-0.500 F250
G1 X46.236 Y4.723 Z-0.500 F250
G1 X46.431 Y4.804 Z-0.500 F250
G1 X46.620 Y4.899 Z-0.500 F250
G1 X46.802 Y5.007 Z-0.500 F250
G1 X46.976 Y5.128 Z-0.500 F250
G1 X47.141 Y5.260 Z-0.500 F250
G1 X47.295 Y5.405 Z-0.500 F250
G1 X47.440 Y5.559 Z-0.500 F250
G1 X47.572 Y5.724 Z-0.500 F250
G1 X47.693 Y5.898 Z-0.500 F250
G1 X47.801 Y6.080 Z-0.500 F250
G1 X47.896 Y6.269 Z-0.500 F250
G1 X47.977 Y6.464 Z-0.500 F250
G1 X48.043 Y6.665 Z-0.500 F250
G1 X48.096 Y6.870 Z-0.500 F250
G1 X48.133 Y7.078 Z-0.500 F250
G1 X48.156 Y7.289 Z-0.500 F250
G1 X48.163 Y7.500 Z-0.500 F250
G1 X48.163 Y14.588 Z-0.500 F250
G1 X47.846 Y14.588 Z-0.500 F250
G1 X47.846 Y14.588 Z5.010 F250
G1 X27.833 Y27.270 Z5.010 F250
G1 X27.833 Y27.270 Z2.010 F83.3
G1 X27.833 Y27.270 Z-0.500 F83.3
G1 X28.141 Y27.193 Z-0.500 F250
G1 X29.193 Y31.415 Z-0.500 F250
G1 X29.236 Y31.615 Z-0.500 F250
G1 X29.265 Y31.817 Z-0.500 F250
G1 X29.279 Y32.021 Z-0.500 F250
G1 X29.280 Y32.225 Z-0.500 F250
G1 X29.266 Y32.429 Z-0.500 F250
G1 X29.239 Y32.631 Z-0.500 F250
G1 X29.198 Y32.831 Z-0.500 F250
G1 X29.143 Y33.028 Z-0.500 F250
G1 X29.074 Y33.220 Z-0.500 F250
G1 X28.993 Y33.408 Z-0.500 F250
G1 X28.898 Y33.589 Z-0.500 F250
G1 X28.792 Y33.763 Z-0.500 F250
G1 X28.674 Y33.930 Z-0.500 F250
G1 X28.544 Y34.088 Z-0.500 F250
G1 X28.119 Y34.584 Z-0.500 F250
G1 X27.705 Y35.090 Z-0.500 F250
G1 X27.303 Y35.605 Z-0.500 F250
G1 X26.913 Y36.130 Z-0.500 F250
G1 X26.536 Y36.663 Z-0.500 F250
G1 X26.171 Y37.206 Z-0.500 F250
G1 X25.819 Y37.757 Z-0.500 F250
G1 X25.480 Y38.315 Z-0.500 F250
G1 X25.154 Y38.882 Z-0.500 F250
G1 X24.842 Y39.456 Z-0.500 F250
G1 X24.543 Y40.037 Z-0.500 F250
G1 X24.258 Y40.626 Z-0.500 F250
G1 X23.987 Y41.220 Z-0.500 F250
G1 X23.729 Y41.821 Z-0.500 F250
G1 X23.486 Y42.428 Z-0.500 F250
G1 X23.258 Y43.040 Z-0.500 F250
G1 X23.043 Y43.657 Z-0.500 F250
G1 X22.843 Y44.280 Z-0.500 F250
G1 X22.658 Y44.906 Z-0.500 F250
G1 X22.487 Y45.537 Z-0.500 F250
G1 X22.332 Y46.172 Z-0.500 F250
G1 X22.277 Y46.374 Z-0.500 F250
G1 X22.208 Y46.572 Z-0.500 F250
G1 X22.126 Y46.764 Z-0.500 F250
G1 X22.030 Y46.950 Z-0.500 F250
G1 X21.921 Y47.129 Z-0.500 F250
G1 X21.800 Y47.300 Z-0.500 F250
G1 X21.667 Y47.461 Z-0.500 F250
G1 X21.523 Y47.613 Z-0.500 F250
G1 X21.369 Y47.755 Z-0.500 F250
G1 X21.205 Y47.885 Z-0.500 F250
G1 X21.032 Y48.003 Z-0.500 F250
G1 X20.852 Y48.109 Z-0.500 F250
G1 X20.664 Y48.201 Z-0.500 F250
G1 X20.470 Y48.281 Z-0.500 F250
G1 X20.272 Y48.346 Z-0.500 F250
G1 X20.069 Y48.397 Z-0.500 F250
G1 X19.863 Y48.434 Z-0.500 F250
G1 X19.655 Y48.456 Z-0.500 F250
G1 X19.445 Y48.463 Z-0.500 F250
G1 X7.500 Y48.463 Z-0.500 F250
G1 X7.289 Y48.456 Z-0.500 F250
G1 X7.078 Y48.433 Z-0.500 F250
G1 X6.870 Y48.396 Z-0.500 F250
G1 X6.665 Y48.343 Z-0.500 F250
G1 X6.464 Y48.277 Z-0.500 F250
G1 X6.269 Y48.196 Z-0.500 F250
G1 X6.080 Y48.101 Z-0.500 F250
G1 X5.898 Y47.993 Z-0.500 F250
G1 X5.724 Y47.872 Z-0.500 F250
G1 X5.559 Y47.740 Z-0.500 F250
G1 X5.405 Y47.595 Z-0.500 F250
G1 X5.260 Y47.441 Z-0.500 F250
G1 X5.128 Y47.276 Z-0.500 F250
G1 X5.007 Y47.102 Z-0.500 F250
G1 X4.899 Y46.920 Z-0.500 F250
G1 X4.804 Y46.731 Z-0.500 F250
G1 X4.723 Y46.536 Z-0.500 F250
G1 X4.657 Y46.335 Z-0.500 F250
G1 X4.604 Y46.130 Z-0.500 F250
G1 X4.567 Y45.922 Z-0.500 F250
G1 X4.544 Y45.711 Z-0.500 F250
G1 X4.537 Y45.500 Z-0.500 F250
G1 X4.537 Y15.500 Z-0.500 F250
G1 X4.544 Y15.090 Z-0.500 F250
G1 X4.567 Y14.681 Z-0.500 F250
G1 X4.605 Y14.272 Z-0.500 F250
G1 X4.659 Y13.866 Z-0.500 F250
G1 X4.728 Y13.462 Z-0.500 F250
G1 X4.811 Y13.060 Z-0.500 F250
G1 X4.910 Y12.662 Z-0.500 F250
G1 X5.024 Y12.268 Z-0.500 F250
G1 X5.152 Y11.879 Z-0.500 F250
G1 X5.294 Y11.495 Z-0.500 F250
G1 X5.451 Y11.116 Z-0.500 F250
G1 X5.622 Y10.743 Z-0.500 F250
G1 X5.807 Y10.377 Z-0.500 F250
G1 X6.005 Y10.018 Z-0.500 F250
G1 X6.217 Y9.667 Z-0.500 F250
G1 X6.442 Y9.324 Z-0.500 F250
G1 X6.679 Y8.990 Z-0.500 F250
G1 X6.928 Y8.664 Z-0.500 F250
G1 X7.190 Y8.349 Z-0.500 F250
G1 X7.463 Y8.043 Z-0.500 F250
G1 X7.748 Y7.748 Z-0.500 F250
G1 X8.043 Y7.463 Z-0.500 F250
G1 X8.349 Y7.190 Z-0.500 F250
G1 X8.664 Y6.928 Z-0.500 F250
G1 X8.990 Y6.679 Z-0.500 F250
G1 X9.324 Y6.442 Z-0.500 F250
G1 X9.667 Y6.217 Z-0.500 F250
G1 X10.018 Y6.005 Z-0.500 F250
G1 X10.377 Y5.807 Z-0.500 F250
G1 X10.743 Y5.622 Z-0.500 F250
G1 X11.116 Y5.451 Z-0.500 F250
G1 X11.495 Y5.294 Z-0.500 F250
G1 X11.879 Y5.152 Z-0.500 F250
G1 X12.268 Y5.024 Z-0.500 F250
G1 X12.662 Y4.910 Z-0.500 F250
G1 X13.060 Y4.811 Z-0.500 F250
G1 X13.462 Y4.728 Z-0.500 F250
G1 X13.866 Y4.659 Z-0.500 F250
G1 X14.272 Y4.605 Z-0.500 F250
G1 X14.681 Y4.567 Z-0.500 F250
G1 X15.090 Y4.544 Z-0.500 F250
G1 X15.500 Y4.537 Z-0.500 F250
G1 X20.177 Y4.537 Z-0.500 F250
G1 X20.383 Y4.544 Z-0.500 F250
G1 X20.589 Y4.565 Z-0.500 F250
G1 X20.793 Y4.601 Z-0.500 F250
G1 X20.993 Y4.651 Z-0.500 F250
G1 X21.190 Y4.715 Z-0.500 F250
G1 X21.382 Y4.793 Z-0.500 F250
G1 X21.568 Y4.883 Z-0.500 F250
G1 X21.747 Y4.987 Z-0.500 F250
G1 X21.918 Y5.103 Z-0.500 F250
G1 X22.081 Y5.230 Z-0.500 F250
G1 X22.235 Y5.368 Z-0.500 F250
G1 X22.379 Y5.517 Z-0.500 F250
G1 X22.512 Y5.676 Z-0.500 F250
G1 X22.633 Y5.843 Z-0.500 F250
G1 X22.743 Y6.018 Z-0.500 F250
G1 X22.840 Y6.201 Z-0.500 F250
G1 X22.924 Y6.390 Z-0.500 F250
G1 X22.995 Y6.584 Z-0.500 F250
G1 X23.052 Y6.783 Z-0.500 F250
G1 X28.141 Y27.193 Z-0.500 F250
G1 X27.833 Y27.270 Z-0.500 F250
G1 X27.833 Y27.270 Z5.010 F250
G1 X27.915 Y70.668 Z5.010 F250
G1 X27.915 Y70.668 Z2.010 F83.3
G1 X27.915 Y70.668 Z-0.500 F83.3
G1 X28.158 Y70.463 Z-0.500 F250
G1 X28.569 Y70.940 Z-0.500 F250
G1 X28.991 Y71.408 Z-0.500 F250
G1 X29.423 Y71.866 Z-0.500 F250
G1 X29.865 Y72.315 Z-0.500 F250
G1 X30.317 Y72.753 Z-0.500 F250
G1 X30.780 Y73.181 Z-0.500 F250
G1 X31.251 Y73.598 Z-0.500 F250
G1 X31.732 Y74.005 Z-0.500 F250
G1 X32.222 Y74.401 Z-0.500 F250
G1 X32.721 Y74.785 Z-0.500 F250
G1 X33.229 Y75.158 Z-0.500 F250
G1 X33.399 Y75.291 Z-0.500 F250
G1 X33.560 Y75.435 Z-0.500 F250
G1 X33.710 Y75.591 Z-0.500 F250
G1 X33.848 Y75.757 Z-0.500 F250
G1 X33.973 Y75.933 Z-0.500 F250
G1 X34.086 Y76.117 Z-0.500 F250
G1 X34.184 Y76.310 Z-0.500 F250
G1 X34.269 Y76.509 Z-0.500 F250
G1 X34.338 Y76.713 Z-0.500 F250
G1 X34.393 Y76.922 Z-0.500 F250
G1 X34.432 Y77.135 Z-0.500 F250
G1 X34.456 Y77.349 Z-0.500 F250
G1 X34.463 Y77.565 Z-0.500 F250
G1 X34.463 Y89.500 Z-0.500 F250
G1 X34.456 Y89.711 Z-0.500 F250
G1 X34.433 Y89.922 Z-0.500 F250
G1 X34.396 Y90.130 Z-0.500 F250
G1 X34.343 Y90.335 Z-0.500 F250
G1 X34.277 Y90.536 Z-0.500 F250
G1 X34.196 Y90.731 Z-0.500 F250
G1 X34.101 Y90.920 Z-0.500 F250
G1 X33.993 Y91.102 Z-0.500 F250
G1 X33.872 Y91.276 Z-0.500 F250
G1 X33.740 Y91.441 Z-0.500 F250
G1 X33.595 Y91.595 Z-0.500 F250
G1 X33.441 Y91.740 Z-0.500 F250
G1 X33.276 Y91.872 Z-0.500 F250
G1 X33.102 Y91.993 Z-0.500 F250
G1 X32.920 Y92.101 Z-0.500 F250
G1 X32.731 Y92.196 Z-0.500 F250
G1 X32.536 Y92.277 Z-0.500 F250
G1 X32.335 Y92.343 Z-0.500 F250
G1 X32.130 Y92.396 Z-0.500 F250
G1 X31.922 Y92.433 Z-0.500 F250
G1 X31.711 Y92.456 Z-0.500 F250
G1 X31.500 Y92.463 Z-0.500 F250
G1 X16.500 Y92.463 Z-0.500 F250
G1 X16.063 Y92.455 Z-0.500 F250
G1 X15.627 Y92.432 Z-0.500 F250
G1 X15.192 Y92.392 Z-0.500 F250
G1 X14.758 Y92.336 Z-0.500 F250
G1 X14.327 Y92.264 Z-0.500 F250
G1 X13.899 Y92.177 Z-0.500 F250
G1 X13.474 Y92.074 Z-0.500 F250
G1 X13.053 Y91.956 Z-0.500 F250
G1 X12.637 Y91.823 Z-0.500 F250
G1 X12.226 Y91.674 Z-0.500 F250
G1 X11.821 Y91.511 Z-0.500 F250
G1 X11.422 Y91.332 Z-0.500 F250
G1 X11.030 Y91.140 Z-0.500 F250
G1 X10.645 Y90.933 Z-0.500 F250
G1 X10.268 Y90.712 Z-0.500 F250
G1 X9.899 Y90.477 Z-0.500 F250
G1 X9.539 Y90.230 Z-0.500 F250
G1 X9.188 Y89.969 Z-0.500 F250
G1 X8.847 Y89.696 Z-0.500 F250
G1 X8.517 Y89.410 Z-0.500 F250
G1 X8.196 Y89.113 Z-0.500 F250
G1 X7.887 Y88.804 Z-0.500 F250
G1 X7.590 Y88.483 Z-0.500 F250
G1 X7.304 Y88.153 Z-0.500 F250
G1 X7.031 Y87.812 Z-0.500 F250
G1 X6.770 Y87.461 Z-0.500 F250
G1 X6.523 Y87.101 Z-0.500 F250
G1 X6.288 Y86.732 Z-0.500 F250
G1 X6.067 Y86.355 Z-0.500 F250
G1 X5.860 Y85.970 Z-0.500 F250
G1 X5.668 Y85.578 Z-0.500 F250
G1 X5.489 Y85.179 Z-0.500 F250
G1 X5.326 Y84.774 Z-0.500 F250
G1 X5.177 Y84.363 Z-0.500 F250
G1 X5.044 Y83.947 Z-0.500 F250
G1 X4.926 Y83.526 Z-0.500 F250
G1 X4.823 Y83.101 Z-0.500 F250
G1 X4.736 Y82.673 Z-0.500 F250
G1 X4.664 Y82.242 Z-0.500 F250
G1 X4.608 Y81.808 Z-0.500 F250
G1 X4.568 Y81.373 Z-0.500 F250
G1 X4.545 Y80.937 Z-0.500 F250
G1 X4.537 Y80.500 Z-0.500 F250
G1 X4.537 Y54.100 Z-0.500 F250
G1 X4.544 Y53.889 Z-0.500 F250
G1 X4.567 Y53.678 Z-0.500 F250
G1 X4.604 Y53.470 Z-0.500 F250
G1 X4.657 Y53.265 Z-0.500 F250
G1 X4.723 Y53.064 Z-0.500 F250
G1 X4.804 Y52.869 Z-0.500 F250
G1 X4.899 Y52.680 Z-0.500 F250
G1 X5.007 Y52.498 Z-0.500 F250
G1 X5.128 Y52.324 Z-0.500 F250
G1 X5.260 Y52.159 Z-0.500 F250
G1 X5.405 Y52.005 Z-0.500 F250
G1 X5.559 Y51.860 Z-0.500 F250
G1 X5.724 Y51.728 Z-0.500 F250
G1 X5.898 Y51.607 Z-0.500 F250
G1 X6.080 Y51.499 Z-0.500 F250
G1 X6.269 Y51.404 Z-0.500 F250
G1 X6.464 Y51.323 Z-0.500 F250
G1 X6.665 Y51.257 Z-0.500 F250
G1 X6.870 Y51.204 Z-0.500 F250
G1 X7.078 Y51.167 Z-0.500 F250
G1 X7.289 Y51.144 Z-0.500 F250
G1 X7.500 Y51.137 Z-0.500 F250
G1 X18.683 Y51.137 Z-0.500 F250
G1 X18.897 Y51.144 Z-0.500 F250
G1 X19.110 Y51.168 Z-0.500 F250
G1 X19.321 Y51.206 Z-0.500 F250
G1 X19.528 Y51.260 Z-0.500 F250
G1 X19.731 Y51.328 Z-0.500 F250
G1 X19.929 Y51.411 Z-0.500 F250
G1 X20.120 Y51.508 Z-0.500 F250
G1 X20.303 Y51.619 Z-0.500 F250
G1 X20.478 Y51.743 Z-0.500 F250
G1 X20.644 Y51.879 Z-0.500 F250
G1 X20.799 Y52.026 Z-0.500 F250
G1 X20.944 Y52.184 Z-0.500 F250
G1 X21.076 Y52.353 Z-0.500 F250
G1 X21.196 Y52.530 Z-0.500 F250
G1 X21.303 Y52.716 Z-0.500 F250
G1 X21.396 Y52.909 Z-0.500 F250
G1 X21.475 Y53.108 Z-0.500 F250
G1 X21.539 Y53.313 Z-0.500 F250
G1 X21.589 Y53.521 Z-0.500 F250
G1 X21.623 Y53.733 Z-0.500 F250
G1 X21.642 Y53.946 Z-0.500 F250
G1 X21.683 Y54.590 Z-0.500 F250
G1 X21.739 Y55.233 Z-0.500 F250
G1 X21.809 Y55.875 Z-0.500 F250
G1 X21.895 Y56.514 Z-0.500 F250
G1 X21.995 Y57.152 Z-0.500 F250
G1 X22.110 Y57.787 Z-0.500 F250
G1 X22.240 Y58.419 Z-0.500 F250
G1 X22.384 Y59.048 Z-0.500 F250
G1 X22.543 Y59.674 Z-0.500 F250
G1 X22.716 Y60.295 Z-0.500 F250
G1 X22.903 Y60.913 Z-0.500 F250
G1 X23.105 Y61.526 Z-0.500 F250
G1 X23.321 Y62.134 Z-0.500 F250
G1 X23.551 Y62.737 Z-0.500 F250
G1 X23.794 Y63.335 Z-0.500 F250
G1 X24.052 Y63.926 Z-0.500 F250
G1 X24.323 Y64.512 Z-0.500 F250
G1 X24.608 Y65.091 Z-0.500 F250
G1 X24.906 Y65.664 Z-0.500 F250
G1 X25.217 Y66.229 Z-0.500 F250
G1 X25.541 Y66.787 Z-0.500 F250
G1 X25.878 Y67.337 Z-0.500 F250
G1 X26.227 Y67.880 Z-0.500 F250
G1 X26.589 Y68.414 Z-0.500 F250
G1 X26.964 Y68.940 Z-0.500 F250
G1 X27.350 Y69.457 Z-0.500 F250
G1 X27.748 Y69.965 Z-0.500 F250
G1 X28.158 Y70.463 Z-0.500 F250
G1 X27.915 Y70.668 Z-0.500 F250
G1 X27.915 Y70.668 Z5.010 F250
G1 X135.171 Y22.708 Z5.010 F250
G1 X135.171 Y22.708 Z2.010 F83.3
G1 X135.171 Y22.708 Z-0.500 F83.3
G1 X135.012 Y22.434 Z-0.500 F250
G1 X135.580 Y22.111 Z-0.500 F250
G1 X136.155 Y21.801 Z-0.500 F250
G1 X136.738 Y21.505 Z-0.500 F250
G1 X137.327 Y21.221 Z-0.500 F250
G1 X137.922 Y20.952 Z-0.500 F250
G1 X138.524 Y20.696 Z-0.500 F250
G1 X139.131 Y20.454 Z-0.500 F250
G1 X139.743 Y20.225 Z-0.500 F250
G1 X140.361 Y20.011 Z-0.500 F250
G1 X140.983 Y19.811 Z-0.500 F250
G1 X141.610 Y19.625 Z-0.500 F250
G1 X142.240 Y19.454 Z-0.500 F250
G1 X142.875 Y19.297 Z-0.500 F250
G1 X143.513 Y19.154 Z-0.500 F250
G1 X144.154 Y19.026 Z-0.500 F250
G1 X144.797 Y18.913 Z-0.500 F250
G1 X145.444 Y18.815 Z-0.500 F250
G1 X145.629 Y18.781 Z-0.500 F250
G1 X145.810 Y18.731 Z-0.500 F250
G1 X145.987 Y18.667 Z-0.500 F250
G1 X146.158 Y18.588 Z-0.500 F250
G1 X146.321 Y18.494 Z-0.500 F250
G1 X146.476 Y18.388 Z-0.500 F250
G1 X146.622 Y18.268 Z-0.500 F250
G1 X146.757 Y18.137 Z-0.500 F250
G1 X146.880 Y17.995 Z-0.500 F250
G1 X146.991 Y17.843 Z-0.500 F250
G1 X147.089 Y17.682 Z-0.500 F250
G1 X147.173 Y17.514 Z-0.500 F250
G1 X147.243 Y17.339 Z-0.500 F250
G1 X147.298 Y17.159 Z-0.500 F250
G1 X147.337 Y16.975 Z-0.500 F250
G1 X147.361 Y16.788 Z-0.500 F250
G1 X147.369 Y16.600 Z-0.500 F250
G1 X147.369 Y2.158 Z-0.500 F250
G1 X147.361 Y1.973 Z-0.500 F250
G1 X147.338 Y1.790 Z-0.500 F250
G1 X147.300 Y1.609 Z-0.500 F250
G1 X147.247 Y1.432 Z-0.500 F250
G1 X147.180 Y1.260 Z-0.500 F250
G1 X147.099 Y1.094 Z-0.500 F250
G1 X147.004 Y0.935 Z-0.500 F250
G1 X146.897 Y0.784 Z-0.500 F250
G1 X146.777 Y0.643 Z-0.500 F250
G1 X146.647 Y0.513 Z-0.500 F250
G1 X146.506 Y0.393 Z-0.500 F250
G1 X146.355 Y0.286 Z-0.500 F250
G1 X146.196 Y0.191 Z-0.500 F250
G1 X146.030 Y0.110 Z-0.500 F250
G1 X145.858 Y0.043 Z-0.500 F250
G1 X145.681 Y-0.010 Z-0.500 F250
G1 X145.500 Y-0.048 Z-0.500 F250
G1 X145.317 Y-0.071 Z-0.500 F250
G1 X145.132 Y-0.079 Z-0.500 F250
G1 X128.972 Y-0.079 Z-0.500 F250
G1 X128.788 Y-0.071 Z-0.500 F250
G1 X128.605 Y-0.048 Z-0.500 F250
G1 X128.424 Y-0.010 Z-0.500 F250
G1 X128.247 Y0.042 Z-0.500 F250
G1 X128.075 Y0.109 Z-0.500 F250
G1 X127.909 Y0.190 Z-0.500 F250
G1 X127.751 Y0.284 Z-0.500 F250
G1 X127.601 Y0.391 Z-0.500 F250
G1 X127.460 Y0.510 Z-0.500 F250
G1 X127.329 Y0.640 Z-0.500 F250
G1 X127.209 Y0.781 Z-0.500 F250
G1 X127.102 Y0.931 Z-0.500 F250
G1 X127.007 Y1.089 Z-0.500 F250
G1 X126.926 Y1.255 Z-0.500 F250
G1 X126.858 Y1.426 Z-0.500 F250
G1 X126.805 Y1.603 Z-0.500 F250
G1 X126.767 Y1.783 Z-0.500 F250
G1 X126.743 Y1.966 Z-0.500 F250
G1 X126.735 Y2.151 Z-0.500 F250
G1 X126.742 Y2.335 Z-0.500 F250
G1 X126.764 Y2.518 Z-0.500 F250
G1 X126.801 Y2.699 Z-0.500 F250
G1 X131.419 Y21.217 Z-0.500 F250
G1 X131.470 Y21.392 Z-0.500 F250
G1 X131.535 Y21.561 Z-0.500 F250
G1 X131.614 Y21.724 Z-0.500 F250
G1 X131.705 Y21.881 Z-0.500 F250
G1 X131.809 Y22.030 Z-0.500 F250
G1 X131.924 Y22.170 Z-0.500 F250
G1 X132.051 Y22.300 Z-0.500 F250
G1 X132.187 Y22.419 Z-0.500 F250
G1 X132.333 Y22.527 Z-0.500 F250
G1 X132.487 Y22.622 Z-0.500 F250
G1 X132.648 Y22.705 Z-0.500 F250
G1 X132.816 Y22.775 Z-0.500 F250
G1 X132.988 Y22.831 Z-0.500 F250
G1 X133.165 Y22.872 Z-0.500 F250
G1 X133.344 Y22.899 Z-0.500 F250
G1 X133.525 Y22.912 Z-0.500 F250
G1 X133.707 Y22.910 Z-0.500 F250
G1 X133.887 Y22.893 Z-0.500 F250
G1 X134.066 Y22.862 Z-0.500 F250
G1 X134.241 Y22.816 Z-0.500 F250
G1 X134.412 Y22.756 Z-0.500 F250
G1 X134.578 Y22.682 Z-0.500 F250
G1 X134.737 Y22.596 Z-0.500 F250
G1 X135.012 Y22.434 Z-0.500 F250
G1 X135.171 Y22.708 Z-0.500 F250
G1 X135.171 Y22.708 Z5.010 F250
G1 X151.178 Y16.600 Z5.010 F250
G1 X151.178 Y16.600 Z2.010 F83.3
G1 X151.178 Y16.600 Z-0.500 F83.3
G1 X151.495 Y16.600 Z-0.500 F250
G1 X151.503 Y16.788 Z-0.500 F250
G1 X151.527 Y16.975 Z-0.500 F250
G1 X151.566 Y17.159 Z-0.500 F250
G1 X151.621 Y17.339 Z-0.500 F250
G1 X151.691 Y17.514 Z-0.500 F250
G1 X151.775 Y17.682 Z-0.500 F250
G1 X151.873 Y17.843 Z-0.500 F250
G1 X151.984 Y17.995 Z-0.500 F250
G1 X152.107 Y18.137 Z-0.500 F250
G1 X152.242 Y18.268 Z-0.500 F250
G1 X152.388 Y18.388 Z-0.500 F250
G1 X152.543 Y18.494 Z-0.500 F250
G1 X152.706 Y18.587 Z-0.500 F250
G1 X152.877 Y18.667 Z-0.500 F250
G1 X153.054 Y18.731 Z-0.500 F250
G1 X153.235 Y18.781 Z-0.500 F250
G1 X153.420 Y18.815 Z-0.500 F250
G1 X154.085 Y18.916 Z-0.500 F250
G1 X154.747 Y19.033 Z-0.500 F250
G1 X155.406 Y19.166 Z-0.500 F250
G1 X156.062 Y19.314 Z-0.500 F250
G1 X156.714 Y19.477 Z-0.500 F250
G1 X157.362 Y19.656 Z-0.500 F250
G1 X158.006 Y19.850 Z-0.500 F250
G1 X158.645 Y20.059 Z-0.500 F250
G1 X159.279 Y20.283 Z-0.500 F250
G1 X159.908 Y20.522 Z-0.500 F250
G1 X160.530 Y20.775 Z-0.500 F250
G1 X161.147 Y21.043 Z-0.500 F250
G1 X161.757 Y21.325 Z-0.500 F250
G1 X162.361 Y21.622 Z-0.500 F250
G1 X162.957 Y21.933 Z-0.500 F250
G1 X163.546 Y22.257 Z-0.500 F250
G1 X164.127 Y22.596 Z-0.500 F250
G1 X164.286 Y22.682 Z-0.500 F250
G1 X164.452 Y22.756 Z-0.500 F250
G1 X164.623 Y22.816 Z-0.500 F250
G1 X164.798 Y22.862 Z-0.500 F250
G1 X164.977 Y22.893 Z-0.500 F250
G1 X165.157 Y22.910 Z-0.500 F250
G1 X165.339 Y22.912 Z-0.500 F250
G1 X165.520 Y22.899 Z-0.500 F250
G1 X165.699 Y22.872 Z-0.500 F250
G1 X165.876 Y22.831 Z-0.500 F250
G1 X166.048 Y22.775 Z-0.500 F250
G1 X166.216 Y22.705 Z-0.500 F250
G1 X166.377 Y22.622 Z-0.500 F250
G1 X166.531 Y22.527 Z-0.500 F250
G1 X166.677 Y22.419 Z-0.500 F250
G1 X166.813 Y22.300 Z-0.500 F250
G1 X166.940 Y22.170 Z-0.500 F250
G1 X167.055 Y22.030 Z-0.500 F250
G1 X167.159 Y21.881 Z-0.500 F250
G1 X167.250 Y21.724 Z-0.500 F250
G1 X167.329 Y21.561 Z-0.500 F250
G1 X167.394 Y21.392 Z-0.500 F250
G1 X167.445 Y21.217 Z-0.500 F250
G1 X172.063 Y2.699 Z-0.500 F250
G1 X172.100 Y2.518 Z-0.500 F250
G1 X172.122 Y2.335 Z-0.500 F250
G1 X172.129 Y2.151 Z-0.500 F250
G1 X172.121 Y1.967 Z-0.500 F250
G1 X172.097 Y1.784 Z-0.500 F250
G1 X172.059 Y1.603 Z-0.500 F250
G1 X172.006 Y1.426 Z-0.500 F250
G1 X171.938 Y1.255 Z-0.500 F250
G1 X171.857 Y1.089 Z-0.500 F250
G1 X171.762 Y0.931 Z-0.500 F250
G1 X171.655 Y0.781 Z-0.500 F250
G1 X171.535 Y0.640 Z-0.500 F250
G1 X171.404 Y0.510 Z-0.500 F250
G1 X171.264 Y0.391 Z-0.500 F250
G1 X171.113 Y0.284 Z-0.500 F250
G1 X170.955 Y0.190 Z-0.500 F250
G1 X170.789 Y0.109 Z-0.500 F250
G1 X170.617 Y0.042 Z-0.500 F250
G1 X170.440 Y-0.010 Z-0.500 F250
G1 X170.259 Y-0.048 Z-0.500 F250
G1 X170.076 Y-0.071 Z-0.500 F250
G1 X169.892 Y-0.079 Z-0.500 F250
G1 X153.732 Y-0.079 Z-0.500 F250
G1 X153.547 Y-0.071 Z-0.500 F250
G1 X153.364 Y-0.048 Z-0.500 F250
G1 X153.183 Y-0.010 Z-0.500 F250
G1 X153.006 Y0.043 Z-0.500 F250
G1 X152.834 Y0.110 Z-0.500 F250
G1 X152.668 Y0.191 Z-0.500 F250
G1 X152.509 Y0.286 Z-0.500 F250
G1 X152.358 Y0.393 Z-0.500 F250
G1 X152.217 Y0.513 Z-0.500 F250
G1 X152.087 Y0.643 Z-0.500 F250
G1 X151.967 Y0.784 Z-0.500 F250
G1 X151.860 Y0.935 Z-0.500 F250
G1 X151.765 Y1.094 Z-0.500 F250
G1 X151.684 Y1.260 Z-0.500 F250
G1 X151.617 Y1.432 Z-0.500 F250
G1 X151.564 Y1.609 Z-0.500 F250
G1 X151.526 Y1.790 Z-0.500 F250
G1 X151.503 Y1.973 Z-0.500 F250
G1 X151.495 Y2.158 Z-0.500 F250
G1 X151.495 Y16.600 Z-0.500 F250
G1 X151.178 Y16.600 Z-0.500 F250
G1 X151.178 Y16.600 Z5.010 F250
G1 X170.695 Y28.475 Z5.010 F250
G1 X170.695 Y28.475 Z2.010 F83.3
G1 X170.695 Y28.475 Z-0.500 F83.3
G1 X170.933 Y28.266 Z-0.500 F250
G1 X171.370 Y28.775 Z-0.500 F250
G1 X171.795 Y29.294 Z-0.500 F250
G1 X172.207 Y29.822 Z-0.500 F250
G1 X172.607 Y30.361 Z-0.500 F250
G1 X172.994 Y30.908 Z-0.500 F250
G1 X173.369 Y31.465 Z-0.500 F250
G1 X173.730 Y32.030 Z-0.500 F250
G1 X174.077 Y32.604 Z-0.500 F250
G1 X174.412 Y33.185 Z-0.500 F250
G1 X174.732 Y33.774 Z-0.500 F250
G1 X175.039 Y34.371 Z-0.500 F250
G1 X175.331 Y34.974 Z-0.500 F250
G1 X175.610 Y35.584 Z-0.500 F250
G1 X175.874 Y36.201 Z-0.500 F250
G1 X176.123 Y36.823 Z-0.500 F250
G1 X176.358 Y37.451 Z-0.500 F250
G1 X176.578 Y38.085 Z-0.500 F250
G1 X176.783 Y38.723 Z-0.500 F250
G1 X176.973 Y39.367 Z-0.500 F250
G1 X177.148 Y40.014 Z-0.500 F250
G1 X177.308 Y40.665 Z-0.500 F250
G1 X177.358 Y40.846 Z-0.500 F250
G1 X177.424 Y41.022 Z-0.500 F250
G1 X177.503 Y41.192 Z-0.500 F250
G1 X177.597 Y41.354 Z-0.500 F250
G1 X177.704 Y41.508 Z-0.500 F250
G1 X177.823 Y41.653 Z-0.500 F250
G1 X177.954 Y41.787 Z-0.500 F250
G1 X178.096 Y41.910 Z-0.500 F250
G1 X178.248 Y42.020 Z-0.500 F250
G1 X178.408 Y42.117 Z-0.500 F250
G1 X178.576 Y42.201 Z-0.500 F250
G1 X178.751 Y42.270 Z-0.500 F250
G1 X178.930 Y42.324 Z-0.500 F250
G1 X179.114 Y42.363 Z-0.500 F250
G1 X179.300 Y42.387 Z-0.500 F250
G1 X179.487 Y42.395 Z-0.500 F250
G1 X191.432 Y42.395 Z-0.500 F250
G1 X191.617 Y42.387 Z-0.500 F250
G1 X191.800 Y42.364 Z-0.500 F250
G1 X191.981 Y42.326 Z-0.500 F250
G1 X192.158 Y42.273 Z-0.500 F250
G1 X192.330 Y42.206 Z-0.500 F250
G1 X192.496 Y42.125 Z-0.500 F250
G1 X192.655 Y42.030 Z-0.500 F250
G1 X192.806 Y41.923 Z-0.500 F250
G1 X192.947 Y41.803 Z-0.500 F250
G1 X193.077 Y41.673 Z-0.500 F250
G1 X193.197 Y41.532 Z-0.500 F250
G1 X193.304 Y41.381 Z-0.500 F250
G1 X193.399 Y41.222 Z-0.500 F250
G1 X193.480 Y41.056 Z-0.500 F250
G1 X193.547 Y40.884 Z-0.500 F250
G1 X193.600 Y40.707 Z-0.500 F250
G1 X193.638 Y40.526 Z-0.500 F250
G1 X193.661 Y40.343 Z-0.500 F250
G1 X193.669 Y40.158 Z-0.500 F250
G1 X193.669 Y10.158 Z-0.500 F250
G1 X193.661 Y9.756 Z-0.500 F250
G1 X193.637 Y9.355 Z-0.500 F250
G1 X193.598 Y8.955 Z-0.500 F250
G1 X193.543 Y8.557 Z-0.500 F250
G1 X193.472 Y8.161 Z-0.500 F250
G1 X193.386 Y7.768 Z-0.500 F250
G1 X193.284 Y7.379 Z-0.500 F250
G1 X193.168 Y6.995 Z-0.500 F250
G1 X193.036 Y6.615 Z-0.500 F250
G1 X192.889 Y6.241 Z-0.500 F250
G1 X192.728 Y5.872 Z-0.500 F250
G1 X192.553 Y5.511 Z-0.500 F250
G1 X192.363 Y5.156 Z-0.500 F250
G1 X192.160 Y4.809 Z-0.500 F250
G1 X191.943 Y4.471 Z-0.500 F250
G1 X191.714 Y4.141 Z-0.500 F250
G1 X191.471 Y3.821 Z-0.500 F250
G1 X191.216 Y3.510 Z-0.500 F250
G1 X190.949 Y3.209 Z-0.500 F250
G1 X190.670 Y2.920 Z-0.500 F250
G1 X190.381 Y2.641 Z-0.500 F250
G1 X190.080 Y2.374 Z-0.500 F250
G1 X189.769 Y2.119 Z-0.500 F250
G1 X189.449 Y1.876 Z-0.500 F250
G1 X189.119 Y1.647 Z-0.500 F250
G1 X188.781 Y1.430 Z-0.500 F250
G1 X188.434 Y1.227 Z-0.500 F250
G1 X188.079 Y1.037 Z-0.500 F250
G1 X187.718 Y0.862 Z-0.500 F250
G1 X187.349 Y0.701 Z-0.500 F250
G1 X186.975 Y0.554 Z-0.500 F250
G1 X186.595 Y0.422 Z-0.500 F250
G1 X186.211 Y0.306 Z-0.500 F250
G1 X185.822 Y0.204 Z-0.500 F250
G1 X185.429 Y0.118 Z-0.500 F250
G1 X185.033 Y0.047 Z-0.500 F250
G1 X184.635 Y-0.008 Z-0.500 F250
G1 X184.235 Y-0.047 Z-0.500 F250
G1 X183.834 Y-0.071 Z-0.500 F250
G1 X183.432 Y-0.079 Z-0.500 F250
G1 X178.755 Y-0.079 Z-0.500 F250
G1 X178.570 Y-0.071 Z-0.500 F250
G1 X178.386 Y-0.048 Z-0.500 F250
G1 X178.205 Y-0.010 Z-0.500 F250
G1 X178.027 Y0.043 Z-0.500 F250
G1 X177.854 Y0.111 Z-0.500 F250
G1 X177.688 Y0.193 Z-0.500 F250
G1 X177.529 Y0.288 Z-0.500 F250
G1 X177.378 Y0.396 Z-0.500 F250
G1 X177.237 Y0.516 Z-0.500 F250
G1 X177.106 Y0.647 Z-0.500 F250
G1 X176.987 Y0.789 Z-0.500 F250
G1 X176.880 Y0.940 Z-0.500 F250
G1 X176.785 Y1.099 Z-0.500 F250
G1 X176.704 Y1.266 Z-0.500 F250
G1 X176.638 Y1.439 Z-0.500 F250
G1 X176.585 Y1.617 Z-0.500 F250
G1 X170.444 Y26.248 Z-0.500 F250
G1 X170.408 Y26.425 Z-0.500 F250
G1 X170.386 Y26.603 Z-0.500 F250
G1 X170.378 Y26.783 Z-0.500 F250
G1 X170.384 Y26.962 Z-0.500 F250
G1 X170.405 Y27.141 Z-0.500 F250
G1 X170.441 Y27.317 Z-0.500 F250
G1 X170.490 Y27.490 Z-0.500 F250
G1 X170.553 Y27.658 Z-0.500 F250
G1 X170.629 Y27.821 Z-0.500 F250
G1 X170.719 Y27.977 Z-0.500 F250
G1 X170.820 Y28.126 Z-0.500 F250
G1 X170.933 Y28.266 Z-0.500 F250
G1 X170.695 Y28.475 Z-0.500 F250
G1 X170.695 Y28.475 Z5.010 F250
G1 X177.535 Y49.789 Z5.010 F250
G1 X177.535 Y49.789 Z2.010 F83.3
G1 X177.535 Y49.789 Z-0.500 F83.3
G1 X177.851 Y49.810 Z-0.500 F250
G1 X177.798 Y50.471 Z-0.500 F250
G1 X177.730 Y51.130 Z-0.500 F250
G1 X177.647 Y51.787 Z-0.500 F250
G1 X177.548 Y52.442 Z-0.500 F250
G1 X177.435 Y53.095 Z-0.500 F250
G1 X177.306 Y53.745 Z-0.500 F250
G1 X177.162 Y54.392 Z-0.500 F250
G1 X177.003 Y55.035 Z-0.500 F250
G1 X176.830 Y55.675 Z-0.500 F250
G1 X176.641 Y56.310 Z-0.500 F250
G1 X176.438 Y56.941 Z-0.500 F250
G1 X176.221 Y57.567 Z-0.500 F250
G1 X175.989 Y58.187 Z-0.500 F250
G1 X175.743 Y58.802 Z-0.500 F250
G1 X175.482 Y59.412 Z-0.500 F250
G1 X175.208 Y60.015 Z-0.500 F250
G1 X174.919 Y60.611 Z-0.500 F250
G1 X174.617 Y61.201 Z-0.500 F250
G1 X174.301 Y61.784 Z-0.500 F250
G1 X173.972 Y62.359 Z-0.500 F250
G1 X173.630 Y62.926 Z-0.500 F250
G1 X173.275 Y63.485 Z-0.500 F250
G1 X172.907 Y64.036 Z-0.500 F250
G1 X172.526 Y64.578 Z-0.500 F250
G1 X172.132 Y65.112 Z-0.500 F250
G1 X171.727 Y65.636 Z-0.500 F250
G1 X171.309 Y66.150 Z-0.500 F250
G1 X170.880 Y66.655 Z-0.500 F250
G1 X170.439 Y67.149 Z-0.500 F250
G1 X169.987 Y67.634 Z-0.500 F250
G1 X169.523 Y68.107 Z-0.500 F250
G1 X169.049 Y68.570 Z-0.500 F250
G1 X168.564 Y69.022 Z-0.500 F250
G1 X168.069 Y69.462 Z-0.500 F250
G1 X167.564 Y69.891 Z-0.500 F250
G1 X167.049 Y70.308 Z-0.500 F250
G1 X166.525 Y70.713 Z-0.500 F250
G1 X165.991 Y71.106 Z-0.500 F250
G1 X165.852 Y71.214 Z-0.500 F250
G1 X165.722 Y71.334 Z-0.500 F250
G1 X165.601 Y71.463 Z-0.500 F250
G1 X165.491 Y71.601 Z-0.500 F250
G1 X165.393 Y71.748 Z-0.500 F250
G1 X165.306 Y71.902 Z-0.500 F250
G1 X165.232 Y72.062 Z-0.500 F250
G1 X165.170 Y72.227 Z-0.500 F250
G1 X165.122 Y72.397 Z-0.500 F250
G1 X165.087 Y72.570 Z-0.500 F250
G1 X165.066 Y72.746 Z-0.500 F250
G1 X165.059 Y72.922 Z-0.500 F250
G1 X165.059 Y84.857 Z-0.500 F250
G1 X165.067 Y85.042 Z-0.500 F250
G1 X165.090 Y85.225 Z-0.500 F250
G1 X165.128 Y85.406 Z-0.500 F250
G1 X165.181 Y85.583 Z-0.500 F250
G1 X165.248 Y85.755 Z-0.500 F250
G1 X165.329 Y85.921 Z-0.500 F250
G1 X165.424 Y86.080 Z-0.500 F250
G1 X165.531 Y86.231 Z-0.500 F250
G1 X165.651 Y86.372 Z-0.500 F250
G1 X165.781 Y86.502 Z-0.500 F250
G1 X165.922 Y86.622 Z-0.500 F250
G1 X166.073 Y86.729 Z-0.500 F250
G1 X166.232 Y86.824 Z-0.500 F250
G1 X166.398 Y86.905 Z-0.500 F250
G1 X166.570 Y86.972 Z-0.500 F250
G1 X166.747 Y87.025 Z-0.500 F250
G1 X166.928 Y87.063 Z-0.500 F250
G1 X167.111 Y87.086 Z-0.500 F250
G1 X167.296 Y87.093 Z-0.500 F250
G1 X182.296 Y87.093 Z-0.500 F250
G1 X182.716 Y87.086 Z-0.500 F250
G1 X183.136 Y87.062 Z-0.500 F250
G1 X183.554 Y87.023 Z-0.500 F250
G1 X183.971 Y86.968 Z-0.500 F250
G1 X184.385 Y86.898 Z-0.500 F250
G1 X184.796 Y86.812 Z-0.500 F250
G1 X185.204 Y86.711 Z-0.500 F250
G1 X185.608 Y86.594 Z-0.500 F250
G1 X186.007 Y86.463 Z-0.500 F250
G1 X186.401 Y86.317 Z-0.500 F250
G1 X186.789 Y86.156 Z-0.500 F250
G1 X187.171 Y85.981 Z-0.500 F250
G1 X187.546 Y85.791 Z-0.500 F250
G1 X187.914 Y85.588 Z-0.500 F250
G1 X188.274 Y85.371 Z-0.500 F250
G1 X188.626 Y85.141 Z-0.500 F250
G1 X188.968 Y84.898 Z-0.500 F250
G1 X189.302 Y84.642 Z-0.500 F250
G1 X189.625 Y84.374 Z-0.500 F250
G1 X189.939 Y84.094 Z-0.500 F250
G1 X190.241 Y83.802 Z-0.500 F250
G1 X190.533 Y83.500 Z-0.500 F250
G1 X190.813 Y83.186 Z-0.500 F250
G1 X191.081 Y82.863 Z-0.500 F250
G1 X191.337 Y82.529 Z-0.500 F250
G1 X191.580 Y82.187 Z-0.500 F250
G1 X191.810 Y81.835 Z-0.500 F250
G1 X192.027 Y81.475 Z-0.500 F250
G1 X192.230 Y81.107 Z-0.500 F250
G1 X192.420 Y80.732 Z-0.500 F250
G1 X192.595 Y80.350 Z-0.500 F250
G1 X192.756 Y79.962 Z-0.500 F250
G1 X192.902 Y79.568 Z-0.500 F250
G1 X193.033 Y79.169 Z-0.500 F250
G1 X193.150 Y78.765 Z-0.500 F250
G1 X193.251 Y78.357 Z-0.500 F250
G1 X193.337 Y77.946 Z-0.500 F250
G1 X193.407 Y77.532 Z-0.500 F250
G1 X193.462 Y77.115 Z-0.500 F250
G1 X193.501 Y76.697 Z-0.500 F250
G1 X193.525 Y76.277 Z-0.500 F250
G1 X193.533 Y75.857 Z-0.500 F250
G1 X193.533 Y49.457 Z-0.500 F250
G1 X193.525 Y49.272 Z-0.500 F250
G1 X193.502 Y49.089 Z-0.500 F250
G1 X193.464 Y48.908 Z-0.500 F250
G1 X193.411 Y48.731 Z-0.500 F250
G1 X193.344 Y48.558 Z-0.500 F250
G1 X193.263 Y48.392 Z-0.500 F250
G1 X193.168 Y48.234 Z-0.500 F250
G1 X193.061 Y48.083 Z-0.500 F250
G1 X192.941 Y47.942 Z-0.500 F250
G1 X192.811 Y47.811 Z-0.500 F250
G1 X192.670 Y47.692 Z-0.500 F250
G1 X192.519 Y47.585 Z-0.500 F250
G1 X192.360 Y47.490 Z-0.500 F250
G1 X192.194 Y47.409 Z-0.500 F250
G1 X192.022 Y47.342 Z-0.500 F250
G1 X191.845 Y47.289 Z-0.500 F250
G1 X191.664 Y47.251 Z-0.500 F250
G1 X191.481 Y47.228 Z-0.500 F250
G1 X191.296 Y47.220 Z-0.500 F250
G1 X180.113 Y47.220 Z-0.500 F250
G1 X179.925 Y47.228 Z-0.500 F250
G1 X179.737 Y47.252 Z-0.500 F250
G1 X179.553 Y47.292 Z-0.500 F250
G1 X179.372 Y47.347 Z-0.500 F250
G1 X179.197 Y47.417 Z-0.500 F250
G1 X179.028 Y47.501 Z-0.500 F250
G1 X178.867 Y47.599 Z-0.500 F250
G1 X178.715 Y47.711 Z-0.500 F250
G1 X178.573 Y47.835 Z-0.500 F250
G1 X178.442 Y47.971 Z-0.500 F250
G1 X178.323 Y48.117 Z-0.500 F250
G1 X178.216 Y48.272 Z-0.500 F250
G1 X178.123 Y48.436 Z-0.500 F250
G1 X178.044 Y48.608 Z-0.500 F250
G1 X177.980 Y48.785 Z-0.500 F250
G1 X177.931 Y48.967 Z-0.500 F250
G1 X177.897 Y49.153 Z-0.500 F250
G1 X177.880 Y49.341 Z-0.500 F250
G1 X177.851 Y49.810 Z-0.500 F250
G1 X177.535 Y49.789 Z-0.500 F250
G1 X177.535 Y49.789 Z15.010 F250
G0 X0.000 Y0.000
M5
