;Ploopy-Adept-Trackball-Profiles
;Machine
;vendor: Snapmaker
;model: Desktop CNC
;description: Generic Snapmaker Marlin v20180725
;Fusion exports M3 P100, but that would do 18000 rpm, and
;I want 10000 rpm, therefore, P55
M3 P55
G4 S2
G21
G90
;When using Fusion for Personal Use, the feedrate of rapid
;moves is reduced to match the feedrate of cutting moves,
;which can increase machining time. Unrestricted rapid moves
;are available with a Fusion Subscription.

;2D Contour2
G0 X101.540 Y44.986 Z15.010
G1 X101.540 Y44.986 Z15.010 F500
G1 X101.540 Y44.986 Z1.010 F500
G1 X101.540 Y44.986 Z0.645 F200
G1 X101.540 Y44.986 Z0.227 F200
G1 X101.532 Y44.986 Z0.157 F500
G1 X101.509 Y44.986 Z0.090 F500
G1 X101.471 Y44.986 Z0.030 F500
G1 X101.420 Y44.986 Z-0.021 F500
G1 X101.360 Y44.986 Z-0.059 F500
G1 X101.293 Y44.986 Z-0.082 F500
G1 X101.223 Y44.986 Z-0.090 F500
G1 X100.905 Y44.986 Z-0.090 F500
G1 X100.834 Y44.978 Z-0.090 F500
G1 X100.767 Y44.954 Z-0.090 F500
G1 X100.707 Y44.916 Z-0.090 F500
G1 X100.657 Y44.866 Z-0.090 F500
G1 X100.619 Y44.806 Z-0.090 F500
G1 X100.595 Y44.739 Z-0.090 F500
G1 X100.588 Y44.668 Z-0.090 F500
G1 X100.588 Y15.500 Z-0.090 F500
G1 X100.580 Y14.984 Z-0.090 F500
G1 X100.556 Y14.468 Z-0.090 F500
G1 X100.517 Y13.954 Z-0.090 F500
G1 X100.463 Y13.440 Z-0.090 F500
G1 X100.393 Y12.929 Z-0.090 F500
G1 X100.308 Y12.420 Z-0.090 F500
G1 X100.207 Y11.914 Z-0.090 F500
G1 X100.091 Y11.411 Z-0.090 F500
G1 X99.960 Y10.911 Z-0.090 F500
G1 X99.814 Y10.416 Z-0.090 F500
G1 X99.653 Y9.926 Z-0.090 F500
G1 X99.477 Y9.441 Z-0.090 F500
G1 X99.287 Y8.961 Z-0.090 F500
G1 X99.082 Y8.487 Z-0.090 F500
G1 X98.863 Y8.020 Z-0.090 F500
G1 X98.630 Y7.559 Z-0.090 F500
G1 X98.383 Y7.106 Z-0.090 F500
G1 X98.123 Y6.660 Z-0.090 F500
G1 X97.849 Y6.222 Z-0.090 F500
G1 X97.563 Y5.793 Z-0.090 F500
G1 X97.263 Y5.373 Z-0.090 F500
G1 X96.951 Y4.962 Z-0.090 F500
G1 X96.627 Y4.560 Z-0.090 F500
G1 X96.290 Y4.169 Z-0.090 F500
G1 X95.942 Y3.788 Z-0.090 F500
G1 X95.583 Y3.417 Z-0.090 F500
G1 X95.212 Y3.058 Z-0.090 F500
G1 X94.831 Y2.710 Z-0.090 F500
G1 X94.440 Y2.373 Z-0.090 F500
G1 X94.038 Y2.049 Z-0.090 F500
G1 X93.627 Y1.737 Z-0.090 F500
G1 X93.207 Y1.437 Z-0.090 F500
G1 X92.778 Y1.151 Z-0.090 F500
G1 X92.340 Y0.877 Z-0.090 F500
G1 X91.894 Y0.617 Z-0.090 F500
G1 X91.441 Y0.370 Z-0.090 F500
G1 X90.980 Y0.137 Z-0.090 F500
G1 X90.513 Y-0.082 Z-0.090 F500
G1 X90.039 Y-0.287 Z-0.090 F500
G1 X89.559 Y-0.477 Z-0.090 F500
G1 X89.074 Y-0.653 Z-0.090 F500
G1 X88.584 Y-0.814 Z-0.090 F500
G1 X88.089 Y-0.960 Z-0.090 F500
G1 X87.589 Y-1.091 Z-0.090 F500
G1 X87.086 Y-1.207 Z-0.090 F500
G1 X86.580 Y-1.308 Z-0.090 F500
G1 X86.071 Y-1.393 Z-0.090 F500
G1 X85.560 Y-1.463 Z-0.090 F500
G1 X85.046 Y-1.517 Z-0.090 F500
G1 X84.532 Y-1.556 Z-0.090 F500
G1 X84.016 Y-1.580 Z-0.090 F500
G1 X83.500 Y-1.587 Z-0.090 F500
G1 X15.500 Y-1.587 Z-0.090 F500
G1 X14.984 Y-1.580 Z-0.090 F500
G1 X14.468 Y-1.556 Z-0.090 F500
G1 X13.954 Y-1.517 Z-0.090 F500
G1 X13.440 Y-1.463 Z-0.090 F500
G1 X12.929 Y-1.393 Z-0.090 F500
G1 X12.420 Y-1.308 Z-0.090 F500
G1 X11.914 Y-1.207 Z-0.090 F500
G1 X11.411 Y-1.091 Z-0.090 F500
G1 X10.911 Y-0.960 Z-0.090 F500
G1 X10.416 Y-0.814 Z-0.090 F500
G1 X9.926 Y-0.653 Z-0.090 F500
G1 X9.441 Y-0.477 Z-0.090 F500
G1 X8.961 Y-0.287 Z-0.090 F500
G1 X8.487 Y-0.082 Z-0.090 F500
G1 X8.020 Y0.137 Z-0.090 F500
G1 X7.559 Y0.370 Z-0.090 F500
G1 X7.106 Y0.617 Z-0.090 F500
G1 X6.660 Y0.877 Z-0.090 F500
G1 X6.222 Y1.151 Z-0.090 F500
G1 X5.793 Y1.437 Z-0.090 F500
G1 X5.373 Y1.737 Z-0.090 F500
G1 X4.962 Y2.049 Z-0.090 F500
G1 X4.560 Y2.373 Z-0.090 F500
G1 X4.169 Y2.710 Z-0.090 F500
G1 X3.788 Y3.058 Z-0.090 F500
G1 X3.417 Y3.417 Z-0.090 F500
G1 X3.058 Y3.788 Z-0.090 F500
G1 X2.710 Y4.169 Z-0.090 F500
G1 X2.373 Y4.560 Z-0.090 F500
G1 X2.049 Y4.962 Z-0.090 F500
G1 X1.737 Y5.373 Z-0.090 F500
G1 X1.437 Y5.793 Z-0.090 F500
G1 X1.151 Y6.222 Z-0.090 F500
G1 X0.877 Y6.660 Z-0.090 F500
G1 X0.617 Y7.106 Z-0.090 F500
G1 X0.370 Y7.559 Z-0.090 F500
G1 X0.137 Y8.020 Z-0.090 F500
G1 X-0.082 Y8.487 Z-0.090 F500
G1 X-0.287 Y8.961 Z-0.090 F500
G1 X-0.477 Y9.441 Z-0.090 F500
G1 X-0.653 Y9.926 Z-0.090 F500
G1 X-0.814 Y10.416 Z-0.090 F500
G1 X-0.960 Y10.911 Z-0.090 F500
G1 X-1.091 Y11.411 Z-0.090 F500
G1 X-1.207 Y11.914 Z-0.090 F500
G1 X-1.308 Y12.420 Z-0.090 F500
G1 X-1.393 Y12.929 Z-0.090 F500
G1 X-1.463 Y13.440 Z-0.090 F500
G1 X-1.517 Y13.954 Z-0.090 F500
G1 X-1.556 Y14.468 Z-0.090 F500
G1 X-1.580 Y14.984 Z-0.090 F500
G1 X-1.587 Y15.500 Z-0.090 F500
G1 X-1.587 Y104.500 Z-0.090 F500
G1 X-1.580 Y104.915 Z-0.090 F500
G1 X-1.556 Y105.329 Z-0.090 F500
G1 X-1.518 Y105.741 Z-0.090 F500
G1 X-1.464 Y106.153 Z-0.090 F500
G1 X-1.394 Y106.561 Z-0.090 F500
G1 X-1.310 Y106.967 Z-0.090 F500
G1 X-1.210 Y107.370 Z-0.090 F500
G1 X-1.095 Y107.768 Z-0.090 F500
G1 X-0.965 Y108.162 Z-0.090 F500
G1 X-0.821 Y108.551 Z-0.090 F500
G1 X-0.662 Y108.934 Z-0.090 F500
G1 X-0.489 Y109.311 Z-0.090 F500
G1 X-0.303 Y109.681 Z-0.090 F500
G1 X-0.102 Y110.044 Z-0.090 F500
G1 X0.112 Y110.399 Z-0.090 F500
G1 X0.339 Y110.746 Z-0.090 F500
G1 X0.579 Y111.084 Z-0.090 F500
G1 X0.831 Y111.413 Z-0.090 F500
G1 X1.096 Y111.732 Z-0.090 F500
G1 X1.372 Y112.041 Z-0.090 F500
G1 X1.660 Y112.340 Z-0.090 F500
G1 X1.959 Y112.628 Z-0.090 F500
G1 X2.268 Y112.904 Z-0.090 F500
G1 X2.587 Y113.169 Z-0.090 F500
G1 X2.916 Y113.421 Z-0.090 F500
G1 X3.254 Y113.661 Z-0.090 F500
G1 X3.601 Y113.888 Z-0.090 F500
G1 X3.956 Y114.102 Z-0.090 F500
G1 X4.319 Y114.303 Z-0.090 F500
G1 X4.689 Y114.489 Z-0.090 F500
G1 X5.066 Y114.662 Z-0.090 F500
G1 X5.449 Y114.821 Z-0.090 F500
G1 X5.838 Y114.965 Z-0.090 F500
G1 X6.232 Y115.095 Z-0.090 F500
G1 X6.630 Y115.210 Z-0.090 F500
G1 X7.033 Y115.310 Z-0.090 F500
G1 X7.439 Y115.394 Z-0.090 F500
G1 X7.847 Y115.464 Z-0.090 F500
G1 X8.259 Y115.518 Z-0.090 F500
G1 X8.671 Y115.556 Z-0.090 F500
G1 X9.085 Y115.580 Z-0.090 F500
G1 X9.500 Y115.588 Z-0.090 F500
G1 X89.500 Y115.588 Z-0.090 F500
G1 X89.915 Y115.580 Z-0.090 F500
G1 X90.329 Y115.556 Z-0.090 F500
G1 X90.741 Y115.518 Z-0.090 F500
G1 X91.153 Y115.464 Z-0.090 F500
G1 X91.561 Y115.394 Z-0.090 F500
G1 X91.967 Y115.310 Z-0.090 F500
G1 X92.370 Y115.210 Z-0.090 F500
G1 X92.768 Y115.095 Z-0.090 F500
G1 X93.162 Y114.965 Z-0.090 F500
G1 X93.551 Y114.821 Z-0.090 F500
G1 X93.934 Y114.662 Z-0.090 F500
G1 X94.311 Y114.489 Z-0.090 F500
G1 X94.681 Y114.303 Z-0.090 F500
G1 X95.044 Y114.102 Z-0.090 F500
G1 X95.399 Y113.888 Z-0.090 F500
G1 X95.746 Y113.661 Z-0.090 F500
G1 X96.084 Y113.421 Z-0.090 F500
G1 X96.413 Y113.169 Z-0.090 F500
G1 X96.732 Y112.904 Z-0.090 F500
G1 X97.041 Y112.628 Z-0.090 F500
G1 X97.340 Y112.340 Z-0.090 F500
G1 X97.628 Y112.041 Z-0.090 F500
G1 X97.904 Y111.732 Z-0.090 F500
G1 X98.169 Y111.413 Z-0.090 F500
G1 X98.421 Y111.084 Z-0.090 F500
G1 X98.661 Y110.746 Z-0.090 F500
G1 X98.888 Y110.399 Z-0.090 F500
G1 X99.102 Y110.044 Z-0.090 F500
G1 X99.303 Y109.681 Z-0.090 F500
G1 X99.489 Y109.311 Z-0.090 F500
G1 X99.662 Y108.934 Z-0.090 F500
G1 X99.821 Y108.551 Z-0.090 F500
G1 X99.965 Y108.162 Z-0.090 F500
G1 X100.095 Y107.768 Z-0.090 F500
G1 X100.210 Y107.370 Z-0.090 F500
G1 X100.310 Y106.967 Z-0.090 F500
G1 X100.394 Y106.561 Z-0.090 F500
G1 X100.464 Y106.153 Z-0.090 F500
G1 X100.518 Y105.741 Z-0.090 F500
G1 X100.556 Y105.329 Z-0.090 F500
G1 X100.580 Y104.915 Z-0.090 F500
G1 X100.588 Y104.500 Z-0.090 F500
G1 X100.588 Y44.668 Z-0.090 F500
G1 X100.595 Y44.598 Z-0.090 F500
G1 X100.619 Y44.530 Z-0.090 F500
G1 X100.657 Y44.470 Z-0.090 F500
G1 X100.707 Y44.420 Z-0.090 F500
G1 X100.767 Y44.382 Z-0.090 F500
G1 X100.834 Y44.359 Z-0.090 F500
G1 X100.905 Y44.351 Z-0.090 F500
G1 X101.223 Y44.351 Z-0.090 F500
G1 X101.293 Y44.351 Z-0.082 F500
G1 X101.360 Y44.351 Z-0.059 F500
G1 X101.420 Y44.351 Z-0.021 F500
G1 X101.471 Y44.351 Z0.030 F500
G1 X101.509 Y44.351 Z0.090 F500
G1 X101.532 Y44.351 Z0.157 F500
G1 X101.540 Y44.351 Z0.227 F500
G1 X101.540 Y44.351 Z5.010 F500
G1 X103.910 Y43.346 Z5.010 F500
G1 X103.910 Y43.346 Z1.010 F500
G1 X103.910 Y43.346 Z0.645 F200
G1 X103.910 Y43.346 Z0.227 F200
G1 X103.915 Y43.340 Z0.157 F500
G1 X103.931 Y43.323 Z0.090 F500
G1 X103.958 Y43.296 Z0.030 F500
G1 X103.993 Y43.260 Z-0.021 F500
G1 X104.034 Y43.216 Z-0.059 F500
G1 X104.081 Y43.168 Z-0.082 F500
G1 X104.130 Y43.117 Z-0.090 F500
G1 X104.351 Y42.889 Z-0.090 F500
G1 X104.406 Y42.844 Z-0.090 F500
G1 X104.469 Y42.812 Z-0.090 F500
G1 X104.538 Y42.795 Z-0.090 F500
G1 X104.609 Y42.794 Z-0.090 F500
G1 X104.679 Y42.808 Z-0.090 F500
G1 X104.743 Y42.838 Z-0.090 F500
G1 X104.800 Y42.881 Z-0.090 F500
G1 X104.979 Y43.044 Z-0.090 F500
G1 X105.169 Y43.195 Z-0.090 F500
G1 X105.368 Y43.334 Z-0.090 F500
G1 X105.576 Y43.459 Z-0.090 F500
G1 X105.791 Y43.571 Z-0.090 F500
G1 X106.012 Y43.669 Z-0.090 F500
G1 X106.240 Y43.753 Z-0.090 F500
G1 X106.472 Y43.822 Z-0.090 F500
G1 X106.709 Y43.876 Z-0.090 F500
G1 X106.948 Y43.914 Z-0.090 F500
G1 X107.190 Y43.938 Z-0.090 F500
G1 X107.432 Y43.945 Z-0.090 F500
G1 X118.334 Y43.945 Z-0.090 F500
G1 X119.377 Y43.945 Z-0.090 F500
G1 X119.619 Y43.938 Z-0.090 F500
G1 X119.860 Y43.915 Z-0.090 F500
G1 X120.099 Y43.876 Z-0.090 F500
G1 X120.335 Y43.822 Z-0.090 F500
G1 X120.567 Y43.754 Z-0.090 F500
G1 X120.794 Y43.671 Z-0.090 F500
G1 X121.015 Y43.573 Z-0.090 F500
G1 X121.230 Y43.461 Z-0.090 F500
G1 X121.437 Y43.336 Z-0.090 F500
G1 X121.636 Y43.198 Z-0.090 F500
G1 X121.826 Y43.048 Z-0.090 F500
G1 X122.005 Y42.886 Z-0.090 F500
G1 X122.174 Y42.712 Z-0.090 F500
G1 X122.331 Y42.528 Z-0.090 F500
G1 X122.477 Y42.335 Z-0.090 F500
G1 X122.609 Y42.132 Z-0.090 F500
G1 X122.729 Y41.922 Z-0.090 F500
G1 X122.835 Y41.704 Z-0.090 F500
G1 X122.926 Y41.480 Z-0.090 F500
G1 X123.004 Y41.251 Z-0.090 F500
G1 X123.066 Y41.017 Z-0.090 F500
G1 X123.217 Y40.401 Z-0.090 F500
G1 X123.383 Y39.789 Z-0.090 F500
G1 X123.563 Y39.181 Z-0.090 F500
G1 X123.757 Y38.577 Z-0.090 F500
G1 X123.965 Y37.977 Z-0.090 F500
G1 X124.187 Y37.383 Z-0.090 F500
G1 X124.423 Y36.795 Z-0.090 F500
G1 X124.672 Y36.211 Z-0.090 F500
G1 X124.936 Y35.634 Z-0.090 F500
G1 X125.212 Y35.064 Z-0.090 F500
G1 X125.502 Y34.499 Z-0.090 F500
G1 X125.806 Y33.942 Z-0.090 F500
G1 X126.122 Y33.392 Z-0.090 F500
G1 X126.451 Y32.850 Z-0.090 F500
G1 X126.792 Y32.316 Z-0.090 F500
G1 X127.146 Y31.789 Z-0.090 F500
G1 X127.512 Y31.271 Z-0.090 F500
G1 X127.891 Y30.762 Z-0.090 F500
G1 X128.281 Y30.262 Z-0.090 F500
G1 X128.682 Y29.771 Z-0.090 F500
G1 X129.096 Y29.290 Z-0.090 F500
G1 X129.250 Y29.102 Z-0.090 F500
G1 X129.393 Y28.904 Z-0.090 F500
G1 X129.522 Y28.697 Z-0.090 F500
G1 X129.638 Y28.483 Z-0.090 F500
G1 X129.740 Y28.262 Z-0.090 F500
G1 X129.827 Y28.034 Z-0.090 F500
G1 X129.900 Y27.802 Z-0.090 F500
G1 X129.958 Y27.565 Z-0.090 F500
G1 X130.000 Y27.325 Z-0.090 F500
G1 X130.026 Y27.083 Z-0.090 F500
G1 X130.037 Y26.839 Z-0.090 F500
G1 X130.033 Y26.596 Z-0.090 F500
G1 X130.013 Y26.353 Z-0.090 F500
G1 X129.977 Y26.112 Z-0.090 F500
G1 X129.925 Y25.874 Z-0.090 F500
G1 X123.783 Y1.242 Z-0.090 F500
G1 X123.718 Y1.012 Z-0.090 F500
G1 X123.639 Y0.786 Z-0.090 F500
G1 X123.545 Y0.566 Z-0.090 F500
G1 X123.438 Y0.352 Z-0.090 F500
G1 X123.317 Y0.146 Z-0.090 F500
G1 X123.184 Y-0.053 Z-0.090 F500
G1 X123.038 Y-0.242 Z-0.090 F500
G1 X122.881 Y-0.423 Z-0.090 F500
G1 X122.712 Y-0.592 Z-0.090 F500
G1 X122.534 Y-0.751 Z-0.090 F500
G1 X122.345 Y-0.898 Z-0.090 F500
G1 X122.148 Y-1.034 Z-0.090 F500
G1 X121.942 Y-1.156 Z-0.090 F500
G1 X121.730 Y-1.265 Z-0.090 F500
G1 X121.510 Y-1.361 Z-0.090 F500
G1 X121.285 Y-1.442 Z-0.090 F500
G1 X121.056 Y-1.509 Z-0.090 F500
G1 X120.823 Y-1.562 Z-0.090 F500
G1 X120.586 Y-1.599 Z-0.090 F500
G1 X120.348 Y-1.622 Z-0.090 F500
G1 X120.109 Y-1.630 Z-0.090 F500
G1 X115.432 Y-1.630 Z-0.090 F500
G1 X115.001 Y-1.622 Z-0.090 F500
G1 X114.572 Y-1.598 Z-0.090 F500
G1 X114.143 Y-1.559 Z-0.090 F500
G1 X113.716 Y-1.504 Z-0.090 F500
G1 X113.291 Y-1.433 Z-0.090 F500
G1 X112.869 Y-1.347 Z-0.090 F500
G1 X112.451 Y-1.246 Z-0.090 F500
G1 X112.036 Y-1.130 Z-0.090 F500
G1 X111.626 Y-0.998 Z-0.090 F500
G1 X111.221 Y-0.852 Z-0.090 F500
G1 X110.822 Y-0.691 Z-0.090 F500
G1 X110.429 Y-0.515 Z-0.090 F500
G1 X110.042 Y-0.325 Z-0.090 F500
G1 X109.663 Y-0.121 Z-0.090 F500
G1 X109.291 Y0.096 Z-0.090 F500
G1 X108.928 Y0.327 Z-0.090 F500
G1 X108.573 Y0.571 Z-0.090 F500
G1 X108.228 Y0.828 Z-0.090 F500
G1 X107.892 Y1.098 Z-0.090 F500
G1 X107.566 Y1.379 Z-0.090 F500
G1 X107.251 Y1.672 Z-0.090 F500
G1 X106.946 Y1.977 Z-0.090 F500
G1 X106.653 Y2.292 Z-0.090 F500
G1 X106.372 Y2.618 Z-0.090 F500
G1 X106.102 Y2.954 Z-0.090 F500
G1 X105.845 Y3.299 Z-0.090 F500
G1 X105.601 Y3.654 Z-0.090 F500
G1 X105.370 Y4.017 Z-0.090 F500
G1 X105.153 Y4.389 Z-0.090 F500
G1 X104.949 Y4.768 Z-0.090 F500
G1 X104.759 Y5.155 Z-0.090 F500
G1 X104.583 Y5.548 Z-0.090 F500
G1 X104.422 Y5.947 Z-0.090 F500
G1 X104.276 Y6.352 Z-0.090 F500
G1 X104.144 Y6.762 Z-0.090 F500
G1 X104.028 Y7.177 Z-0.090 F500
G1 X103.927 Y7.595 Z-0.090 F500
G1 X103.841 Y8.017 Z-0.090 F500
G1 X103.770 Y8.442 Z-0.090 F500
G1 X103.715 Y8.869 Z-0.090 F500
G1 X103.676 Y9.298 Z-0.090 F500
G1 X103.652 Y9.727 Z-0.090 F500
G1 X103.645 Y10.158 Z-0.090 F500
G1 X103.645 Y40.158 Z-0.090 F500
G1 X103.652 Y40.392 Z-0.090 F500
G1 X103.673 Y40.624 Z-0.090 F500
G1 X103.709 Y40.855 Z-0.090 F500
G1 X103.759 Y41.084 Z-0.090 F500
G1 X103.823 Y41.308 Z-0.090 F500
G1 X103.901 Y41.529 Z-0.090 F500
G1 X103.993 Y41.744 Z-0.090 F500
G1 X104.097 Y41.953 Z-0.090 F500
G1 X104.214 Y42.155 Z-0.090 F500
G1 X104.343 Y42.350 Z-0.090 F500
G1 X104.484 Y42.536 Z-0.090 F500
G1 X104.637 Y42.714 Z-0.090 F500
G1 X104.800 Y42.881 Z-0.090 F500
G1 X104.845 Y42.936 Z-0.090 F500
G1 X104.877 Y43.000 Z-0.090 F500
G1 X104.894 Y43.069 Z-0.090 F500
G1 X104.895 Y43.140 Z-0.090 F500
G1 X104.881 Y43.209 Z-0.090 F500
G1 X104.851 Y43.274 Z-0.090 F500
G1 X104.807 Y43.330 Z-0.090 F500
G1 X104.587 Y43.559 Z-0.090 F500
G1 X104.538 Y43.609 Z-0.082 F500
G1 X104.491 Y43.658 Z-0.059 F500
G1 X104.449 Y43.701 Z-0.021 F500
G1 X104.414 Y43.737 Z0.030 F500
G1 X104.388 Y43.764 Z0.090 F500
G1 X104.372 Y43.781 Z0.157 F500
G1 X104.366 Y43.787 Z0.227 F500
G1 X104.366 Y43.787 Z5.010 F500
G1 X104.310 Y45.626 Z5.010 F500
G1 X104.310 Y45.626 Z1.010 F500
G1 X104.310 Y45.626 Z0.645 F200
G1 X104.310 Y45.626 Z0.227 F200
G1 X104.316 Y45.632 Z0.157 F500
G1 X104.331 Y45.650 Z0.090 F500
G1 X104.355 Y45.679 Z0.030 F500
G1 X104.388 Y45.717 Z-0.021 F500
G1 X104.427 Y45.763 Z-0.059 F500
G1 X104.471 Y45.814 Z-0.082 F500
G1 X104.517 Y45.867 Z-0.090 F500
G1 X104.723 Y46.109 Z-0.090 F500
G1 X104.763 Y46.168 Z-0.090 F500
G1 X104.789 Y46.234 Z-0.090 F500
G1 X104.799 Y46.304 Z-0.090 F500
G1 X104.794 Y46.375 Z-0.090 F500
G1 X104.773 Y46.443 Z-0.090 F500
G1 X104.737 Y46.504 Z-0.090 F500
G1 X104.688 Y46.556 Z-0.090 F500
G1 X104.516 Y46.714 Z-0.090 F500
G1 X104.353 Y46.881 Z-0.090 F500
G1 X104.201 Y47.058 Z-0.090 F500
G1 X104.061 Y47.244 Z-0.090 F500
G1 X103.932 Y47.439 Z-0.090 F500
G1 X103.815 Y47.641 Z-0.090 F500
G1 X103.711 Y47.850 Z-0.090 F500
G1 X103.620 Y48.065 Z-0.090 F500
G1 X103.542 Y48.285 Z-0.090 F500
G1 X103.478 Y48.510 Z-0.090 F500
G1 X103.428 Y48.738 Z-0.090 F500
G1 X103.392 Y48.968 Z-0.090 F500
G1 X103.371 Y49.201 Z-0.090 F500
G1 X103.364 Y49.434 Z-0.090 F500
G1 X103.364 Y75.834 Z-0.090 F500
G1 X103.371 Y76.280 Z-0.090 F500
G1 X103.395 Y76.726 Z-0.090 F500
G1 X103.434 Y77.171 Z-0.090 F500
G1 X103.488 Y77.614 Z-0.090 F500
G1 X103.558 Y78.055 Z-0.090 F500
G1 X103.643 Y78.493 Z-0.090 F500
G1 X103.743 Y78.928 Z-0.090 F500
G1 X103.859 Y79.359 Z-0.090 F500
G1 X103.989 Y79.786 Z-0.090 F500
G1 X104.135 Y80.208 Z-0.090 F500
G1 X104.295 Y80.624 Z-0.090 F500
G1 X104.469 Y81.035 Z-0.090 F500
G1 X104.658 Y81.440 Z-0.090 F500
G1 X104.860 Y81.837 Z-0.090 F500
G1 X105.077 Y82.228 Z-0.090 F500
G1 X105.307 Y82.610 Z-0.090 F500
G1 X105.550 Y82.985 Z-0.090 F500
G1 X105.806 Y83.350 Z-0.090 F500
G1 X106.074 Y83.707 Z-0.090 F500
G1 X106.355 Y84.054 Z-0.090 F500
G1 X106.648 Y84.391 Z-0.090 F500
G1 X106.952 Y84.717 Z-0.090 F500
G1 X107.268 Y85.033 Z-0.090 F500
G1 X107.594 Y85.337 Z-0.090 F500
G1 X107.931 Y85.630 Z-0.090 F500
G1 X108.278 Y85.911 Z-0.090 F500
G1 X108.635 Y86.179 Z-0.090 F500
G1 X109.000 Y86.435 Z-0.090 F500
G1 X109.375 Y86.678 Z-0.090 F500
G1 X109.757 Y86.908 Z-0.090 F500
G1 X110.148 Y87.125 Z-0.090 F500
G1 X110.545 Y87.327 Z-0.090 F500
G1 X110.950 Y87.516 Z-0.090 F500
G1 X111.361 Y87.690 Z-0.090 F500
G1 X111.777 Y87.850 Z-0.090 F500
G1 X112.199 Y87.996 Z-0.090 F500
G1 X112.626 Y88.126 Z-0.090 F500
G1 X113.057 Y88.242 Z-0.090 F500
G1 X113.492 Y88.342 Z-0.090 F500
G1 X113.930 Y88.427 Z-0.090 F500
G1 X114.371 Y88.497 Z-0.090 F500
G1 X114.814 Y88.551 Z-0.090 F500
G1 X115.259 Y88.590 Z-0.090 F500
G1 X115.705 Y88.614 Z-0.090 F500
G1 X116.151 Y88.621 Z-0.090 F500
G1 X131.151 Y88.621 Z-0.090 F500
G1 X131.389 Y88.614 Z-0.090 F500
G1 X131.626 Y88.592 Z-0.090 F500
G1 X131.861 Y88.554 Z-0.090 F500
G1 X132.093 Y88.503 Z-0.090 F500
G1 X132.321 Y88.436 Z-0.090 F500
G1 X132.545 Y88.356 Z-0.090 F500
G1 X132.764 Y88.261 Z-0.090 F500
G1 X132.976 Y88.153 Z-0.090 F500
G1 X133.180 Y88.032 Z-0.090 F500
G1 X133.377 Y87.898 Z-0.090 F500
G1 X133.565 Y87.752 Z-0.090 F500
G1 X133.744 Y87.595 Z-0.090 F500
G1 X133.912 Y87.427 Z-0.090 F500
G1 X134.069 Y87.248 Z-0.090 F500
G1 X134.215 Y87.060 Z-0.090 F500
G1 X134.349 Y86.863 Z-0.090 F500
G1 X134.470 Y86.659 Z-0.090 F500
G1 X134.578 Y86.447 Z-0.090 F500
G1 X134.673 Y86.228 Z-0.090 F500
G1 X134.753 Y86.004 Z-0.090 F500
G1 X134.820 Y85.776 Z-0.090 F500
G1 X134.871 Y85.544 Z-0.090 F500
G1 X134.909 Y85.309 Z-0.090 F500
G1 X134.931 Y85.072 Z-0.090 F500
G1 X134.939 Y84.834 Z-0.090 F500
G1 X134.939 Y72.899 Z-0.090 F500
G1 X134.931 Y72.660 Z-0.090 F500
G1 X134.908 Y72.422 Z-0.090 F500
G1 X134.871 Y72.186 Z-0.090 F500
G1 X134.818 Y71.952 Z-0.090 F500
G1 X134.751 Y71.722 Z-0.090 F500
G1 X134.669 Y71.497 Z-0.090 F500
G1 X134.574 Y71.278 Z-0.090 F500
G1 X134.464 Y71.065 Z-0.090 F500
G1 X134.342 Y70.859 Z-0.090 F500
G1 X134.207 Y70.662 Z-0.090 F500
G1 X134.059 Y70.473 Z-0.090 F500
G1 X133.900 Y70.294 Z-0.090 F500
G1 X133.730 Y70.126 Z-0.090 F500
G1 X133.550 Y69.969 Z-0.090 F500
G1 X133.360 Y69.823 Z-0.090 F500
G1 X132.832 Y69.434 Z-0.090 F500
G1 X132.314 Y69.033 Z-0.090 F500
G1 X131.805 Y68.619 Z-0.090 F500
G1 X131.307 Y68.192 Z-0.090 F500
G1 X130.819 Y67.754 Z-0.090 F500
G1 X130.342 Y67.305 Z-0.090 F500
G1 X129.876 Y66.843 Z-0.090 F500
G1 X129.422 Y66.371 Z-0.090 F500
G1 X128.978 Y65.888 Z-0.090 F500
G1 X128.547 Y65.394 Z-0.090 F500
G1 X128.128 Y64.890 Z-0.090 F500
G1 X127.721 Y64.376 Z-0.090 F500
G1 X127.327 Y63.852 Z-0.090 F500
G1 X126.945 Y63.319 Z-0.090 F500
G1 X126.577 Y62.776 Z-0.090 F500
G1 X126.222 Y62.225 Z-0.090 F500
G1 X125.880 Y61.666 Z-0.090 F500
G1 X125.552 Y61.098 Z-0.090 F500
G1 X125.237 Y60.523 Z-0.090 F500
G1 X124.937 Y59.940 Z-0.090 F500
G1 X124.651 Y59.350 Z-0.090 F500
G1 X124.379 Y58.753 Z-0.090 F500
G1 X124.122 Y58.150 Z-0.090 F500
G1 X123.880 Y57.541 Z-0.090 F500
G1 X123.652 Y56.926 Z-0.090 F500
G1 X123.440 Y56.306 Z-0.090 F500
G1 X123.242 Y55.681 Z-0.090 F500
G1 X123.060 Y55.051 Z-0.090 F500
G1 X122.892 Y54.417 Z-0.090 F500
G1 X122.741 Y53.779 Z-0.090 F500
G1 X122.604 Y53.138 Z-0.090 F500
G1 X122.484 Y52.493 Z-0.090 F500
G1 X122.379 Y51.846 Z-0.090 F500
G1 X122.290 Y51.197 Z-0.090 F500
G1 X122.216 Y50.545 Z-0.090 F500
G1 X122.158 Y49.892 Z-0.090 F500
G1 X122.116 Y49.238 Z-0.090 F500
G1 X122.096 Y48.999 Z-0.090 F500
G1 X122.061 Y48.762 Z-0.090 F500
G1 X122.011 Y48.527 Z-0.090 F500
G1 X121.947 Y48.297 Z-0.090 F500
G1 X121.867 Y48.070 Z-0.090 F500
G1 X121.774 Y47.850 Z-0.090 F500
G1 X121.667 Y47.635 Z-0.090 F500
G1 X121.547 Y47.428 Z-0.090 F500
G1 X121.413 Y47.229 Z-0.090 F500
G1 X121.268 Y47.038 Z-0.090 F500
G1 X121.110 Y46.858 Z-0.090 F500
G1 X120.942 Y46.687 Z-0.090 F500
G1 X120.763 Y46.528 Z-0.090 F500
G1 X120.574 Y46.380 Z-0.090 F500
G1 X120.377 Y46.244 Z-0.090 F500
G1 X120.171 Y46.122 Z-0.090 F500
G1 X119.958 Y46.012 Z-0.090 F500
G1 X119.738 Y45.916 Z-0.090 F500
G1 X119.513 Y45.835 Z-0.090 F500
G1 X119.283 Y45.767 Z-0.090 F500
G1 X119.049 Y45.715 Z-0.090 F500
G1 X118.812 Y45.677 Z-0.090 F500
G1 X118.574 Y45.654 Z-0.090 F500
G1 X118.334 Y45.646 Z-0.090 F500
G1 X107.151 Y45.646 Z-0.090 F500
G1 X106.907 Y45.654 Z-0.090 F500
G1 X106.665 Y45.678 Z-0.090 F500
G1 X106.424 Y45.717 Z-0.090 F500
G1 X106.187 Y45.771 Z-0.090 F500
G1 X105.953 Y45.841 Z-0.090 F500
G1 X105.725 Y45.925 Z-0.090 F500
G1 X105.502 Y46.024 Z-0.090 F500
G1 X105.286 Y46.137 Z-0.090 F500
G1 X105.078 Y46.264 Z-0.090 F500
G1 X104.879 Y46.404 Z-0.090 F500
G1 X104.688 Y46.556 Z-0.090 F500
G1 X104.630 Y46.596 Z-0.090 F500
G1 X104.563 Y46.622 Z-0.090 F500
G1 X104.493 Y46.632 Z-0.090 F500
G1 X104.422 Y46.627 Z-0.090 F500
G1 X104.354 Y46.606 Z-0.090 F500
G1 X104.293 Y46.570 Z-0.090 F500
G1 X104.241 Y46.522 Z-0.090 F500
G1 X104.034 Y46.280 Z-0.090 F500
G1 X103.988 Y46.227 Z-0.082 F500
G1 X103.945 Y46.176 Z-0.059 F500
G1 X103.906 Y46.130 Z-0.021 F500
G1 X103.873 Y46.092 Z0.030 F500
G1 X103.848 Y46.063 Z0.090 F500
G1 X103.833 Y46.045 Z0.157 F500
G1 X103.828 Y46.039 Z0.227 F500
G1 X103.828 Y46.039 Z5.010 F500
G1 X104.310 Y45.626 Z5.010 F500
G1 X104.310 Y45.626 Z1.010 F500
G1 X104.310 Y45.626 Z0.545 F200
G1 X104.310 Y45.626 Z0.127 F200
G1 X104.316 Y45.632 Z0.057 F500
G1 X104.331 Y45.650 Z-0.010 F500
G1 X104.355 Y45.679 Z-0.070 F500
G1 X104.388 Y45.717 Z-0.121 F500
G1 X104.427 Y45.763 Z-0.159 F500
G1 X104.471 Y45.814 Z-0.182 F500
G1 X104.517 Y45.867 Z-0.190 F500
G1 X104.723 Y46.109 Z-0.190 F500
G1 X104.763 Y46.168 Z-0.190 F500
G1 X104.789 Y46.234 Z-0.190 F500
G1 X104.799 Y46.304 Z-0.190 F500
G1 X104.794 Y46.375 Z-0.190 F500
G1 X104.773 Y46.443 Z-0.190 F500
G1 X104.737 Y46.504 Z-0.190 F500
G1 X104.688 Y46.556 Z-0.190 F500
G1 X104.516 Y46.714 Z-0.190 F500
G1 X104.353 Y46.881 Z-0.190 F500
G1 X104.201 Y47.058 Z-0.190 F500
G1 X104.061 Y47.244 Z-0.190 F500
G1 X103.932 Y47.439 Z-0.190 F500
G1 X103.815 Y47.641 Z-0.190 F500
G1 X103.711 Y47.850 Z-0.190 F500
G1 X103.620 Y48.065 Z-0.190 F500
G1 X103.542 Y48.285 Z-0.190 F500
G1 X103.478 Y48.510 Z-0.190 F500
G1 X103.428 Y48.738 Z-0.190 F500
G1 X103.392 Y48.968 Z-0.190 F500
G1 X103.371 Y49.201 Z-0.190 F500
G1 X103.364 Y49.434 Z-0.190 F500
G1 X103.364 Y75.834 Z-0.190 F500
G1 X103.371 Y76.280 Z-0.190 F500
G1 X103.395 Y76.726 Z-0.190 F500
G1 X103.434 Y77.171 Z-0.190 F500
G1 X103.488 Y77.614 Z-0.190 F500
G1 X103.558 Y78.055 Z-0.190 F500
G1 X103.643 Y78.493 Z-0.190 F500
G1 X103.743 Y78.928 Z-0.190 F500
G1 X103.859 Y79.359 Z-0.190 F500
G1 X103.989 Y79.786 Z-0.190 F500
G1 X104.135 Y80.208 Z-0.190 F500
G1 X104.295 Y80.624 Z-0.190 F500
G1 X104.469 Y81.035 Z-0.190 F500
G1 X104.658 Y81.440 Z-0.190 F500
G1 X104.860 Y81.837 Z-0.190 F500
G1 X105.077 Y82.228 Z-0.190 F500
G1 X105.307 Y82.610 Z-0.190 F500
G1 X105.550 Y82.985 Z-0.190 F500
G1 X105.806 Y83.350 Z-0.190 F500
G1 X106.074 Y83.707 Z-0.190 F500
G1 X106.355 Y84.054 Z-0.190 F500
G1 X106.648 Y84.391 Z-0.190 F500
G1 X106.952 Y84.717 Z-0.190 F500
G1 X107.268 Y85.033 Z-0.190 F500
G1 X107.594 Y85.337 Z-0.190 F500
G1 X107.931 Y85.630 Z-0.190 F500
G1 X108.278 Y85.911 Z-0.190 F500
G1 X108.635 Y86.179 Z-0.190 F500
G1 X109.000 Y86.435 Z-0.190 F500
G1 X109.375 Y86.678 Z-0.190 F500
G1 X109.757 Y86.908 Z-0.190 F500
G1 X110.148 Y87.125 Z-0.190 F500
G1 X110.545 Y87.327 Z-0.190 F500
G1 X110.950 Y87.516 Z-0.190 F500
G1 X111.361 Y87.690 Z-0.190 F500
G1 X111.777 Y87.850 Z-0.190 F500
G1 X112.199 Y87.996 Z-0.190 F500
G1 X112.626 Y88.126 Z-0.190 F500
G1 X113.057 Y88.242 Z-0.190 F500
G1 X113.492 Y88.342 Z-0.190 F500
G1 X113.930 Y88.427 Z-0.190 F500
G1 X114.371 Y88.497 Z-0.190 F500
G1 X114.814 Y88.551 Z-0.190 F500
G1 X115.259 Y88.590 Z-0.190 F500
G1 X115.705 Y88.614 Z-0.190 F500
G1 X116.151 Y88.621 Z-0.190 F500
G1 X131.151 Y88.621 Z-0.190 F500
G1 X131.389 Y88.614 Z-0.190 F500
G1 X131.626 Y88.592 Z-0.190 F500
G1 X131.861 Y88.554 Z-0.190 F500
G1 X132.093 Y88.503 Z-0.190 F500
G1 X132.321 Y88.436 Z-0.190 F500
G1 X132.545 Y88.356 Z-0.190 F500
G1 X132.764 Y88.261 Z-0.190 F500
G1 X132.976 Y88.153 Z-0.190 F500
G1 X133.180 Y88.032 Z-0.190 F500
G1 X133.377 Y87.898 Z-0.190 F500
G1 X133.565 Y87.752 Z-0.190 F500
G1 X133.744 Y87.595 Z-0.190 F500
G1 X133.912 Y87.427 Z-0.190 F500
G1 X134.069 Y87.248 Z-0.190 F500
G1 X134.215 Y87.060 Z-0.190 F500
G1 X134.349 Y86.863 Z-0.190 F500
G1 X134.470 Y86.659 Z-0.190 F500
G1 X134.578 Y86.447 Z-0.190 F500
G1 X134.673 Y86.228 Z-0.190 F500
G1 X134.753 Y86.004 Z-0.190 F500
G1 X134.820 Y85.776 Z-0.190 F500
G1 X134.871 Y85.544 Z-0.190 F500
G1 X134.909 Y85.309 Z-0.190 F500
G1 X134.931 Y85.072 Z-0.190 F500
G1 X134.939 Y84.834 Z-0.190 F500
G1 X134.939 Y72.899 Z-0.190 F500
G1 X134.931 Y72.660 Z-0.190 F500
G1 X134.908 Y72.422 Z-0.190 F500
G1 X134.871 Y72.186 Z-0.190 F500
G1 X134.818 Y71.952 Z-0.190 F500
G1 X134.751 Y71.722 Z-0.190 F500
G1 X134.669 Y71.497 Z-0.190 F500
G1 X134.574 Y71.278 Z-0.190 F500
G1 X134.464 Y71.065 Z-0.190 F500
G1 X134.342 Y70.859 Z-0.190 F500
G1 X134.207 Y70.662 Z-0.190 F500
G1 X134.059 Y70.473 Z-0.190 F500
G1 X133.900 Y70.294 Z-0.190 F500
G1 X133.730 Y70.126 Z-0.190 F500
G1 X133.550 Y69.969 Z-0.190 F500
G1 X133.360 Y69.823 Z-0.190 F500
G1 X132.832 Y69.434 Z-0.190 F500
G1 X132.314 Y69.033 Z-0.190 F500
G1 X131.805 Y68.619 Z-0.190 F500
G1 X131.307 Y68.192 Z-0.190 F500
G1 X130.819 Y67.754 Z-0.190 F500
G1 X130.342 Y67.305 Z-0.190 F500
G1 X129.876 Y66.843 Z-0.190 F500
G1 X129.422 Y66.371 Z-0.190 F500
G1 X128.978 Y65.888 Z-0.190 F500
G1 X128.547 Y65.394 Z-0.190 F500
G1 X128.128 Y64.890 Z-0.190 F500
G1 X127.721 Y64.376 Z-0.190 F500
G1 X127.327 Y63.852 Z-0.190 F500
G1 X126.945 Y63.319 Z-0.190 F500
G1 X126.577 Y62.776 Z-0.190 F500
G1 X126.222 Y62.225 Z-0.190 F500
G1 X125.880 Y61.666 Z-0.190 F500
G1 X125.552 Y61.098 Z-0.190 F500
G1 X125.237 Y60.523 Z-0.190 F500
G1 X124.937 Y59.940 Z-0.190 F500
G1 X124.651 Y59.350 Z-0.190 F500
G1 X124.379 Y58.753 Z-0.190 F500
G1 X124.122 Y58.150 Z-0.190 F500
G1 X123.880 Y57.541 Z-0.190 F500
G1 X123.652 Y56.926 Z-0.190 F500
G1 X123.440 Y56.306 Z-0.190 F500
G1 X123.242 Y55.681 Z-0.190 F500
G1 X123.060 Y55.051 Z-0.190 F500
G1 X122.892 Y54.417 Z-0.190 F500
G1 X122.741 Y53.779 Z-0.190 F500
G1 X122.604 Y53.138 Z-0.190 F500
G1 X122.484 Y52.493 Z-0.190 F500
G1 X122.379 Y51.846 Z-0.190 F500
G1 X122.290 Y51.197 Z-0.190 F500
G1 X122.216 Y50.545 Z-0.190 F500
G1 X122.158 Y49.892 Z-0.190 F500
G1 X122.116 Y49.238 Z-0.190 F500
G1 X122.096 Y48.999 Z-0.190 F500
G1 X122.061 Y48.762 Z-0.190 F500
G1 X122.011 Y48.527 Z-0.190 F500
G1 X121.947 Y48.297 Z-0.190 F500
G1 X121.867 Y48.070 Z-0.190 F500
G1 X121.774 Y47.850 Z-0.190 F500
G1 X121.667 Y47.635 Z-0.190 F500
G1 X121.547 Y47.428 Z-0.190 F500
G1 X121.413 Y47.229 Z-0.190 F500
G1 X121.268 Y47.038 Z-0.190 F500
G1 X121.110 Y46.858 Z-0.190 F500
G1 X120.942 Y46.687 Z-0.190 F500
G1 X120.763 Y46.528 Z-0.190 F500
G1 X120.574 Y46.380 Z-0.190 F500
G1 X120.377 Y46.244 Z-0.190 F500
G1 X120.171 Y46.122 Z-0.190 F500
G1 X119.958 Y46.012 Z-0.190 F500
G1 X119.738 Y45.916 Z-0.190 F500
G1 X119.513 Y45.835 Z-0.190 F500
G1 X119.283 Y45.767 Z-0.190 F500
G1 X119.049 Y45.715 Z-0.190 F500
G1 X118.812 Y45.677 Z-0.190 F500
G1 X118.574 Y45.654 Z-0.190 F500
G1 X118.334 Y45.646 Z-0.190 F500
G1 X107.151 Y45.646 Z-0.190 F500
G1 X106.907 Y45.654 Z-0.190 F500
G1 X106.665 Y45.678 Z-0.190 F500
G1 X106.424 Y45.717 Z-0.190 F500
G1 X106.187 Y45.771 Z-0.190 F500
G1 X105.953 Y45.841 Z-0.190 F500
G1 X105.725 Y45.925 Z-0.190 F500
G1 X105.502 Y46.024 Z-0.190 F500
G1 X105.286 Y46.137 Z-0.190 F500
G1 X105.078 Y46.264 Z-0.190 F500
G1 X104.879 Y46.404 Z-0.190 F500
G1 X104.688 Y46.556 Z-0.190 F500
G1 X104.630 Y46.596 Z-0.190 F500
G1 X104.563 Y46.622 Z-0.190 F500
G1 X104.493 Y46.632 Z-0.190 F500
G1 X104.422 Y46.627 Z-0.190 F500
G1 X104.354 Y46.606 Z-0.190 F500
G1 X104.293 Y46.570 Z-0.190 F500
G1 X104.241 Y46.522 Z-0.190 F500
G1 X104.034 Y46.280 Z-0.190 F500
G1 X103.988 Y46.227 Z-0.182 F500
G1 X103.945 Y46.176 Z-0.159 F500
G1 X103.906 Y46.130 Z-0.121 F500
G1 X103.873 Y46.092 Z-0.070 F500
G1 X103.848 Y46.063 Z-0.010 F500
G1 X103.833 Y46.045 Z0.057 F500
G1 X103.828 Y46.039 Z0.127 F500
G1 X103.828 Y46.039 Z5.010 F500
G1 X101.540 Y44.986 Z5.010 F500
G1 X101.540 Y44.986 Z1.010 F500
G1 X101.540 Y44.986 Z0.545 F200
G1 X101.540 Y44.986 Z0.127 F200
G1 X101.532 Y44.986 Z0.057 F500
G1 X101.509 Y44.986 Z-0.010 F500
G1 X101.471 Y44.986 Z-0.070 F500
G1 X101.420 Y44.986 Z-0.121 F500
G1 X101.360 Y44.986 Z-0.159 F500
G1 X101.293 Y44.986 Z-0.182 F500
G1 X101.223 Y44.986 Z-0.190 F500
G1 X100.905 Y44.986 Z-0.190 F500
G1 X100.834 Y44.978 Z-0.190 F500
G1 X100.767 Y44.954 Z-0.190 F500
G1 X100.707 Y44.916 Z-0.190 F500
G1 X100.657 Y44.866 Z-0.190 F500
G1 X100.619 Y44.806 Z-0.190 F500
G1 X100.595 Y44.739 Z-0.190 F500
G1 X100.588 Y44.668 Z-0.190 F500
G1 X100.588 Y15.500 Z-0.190 F500
G1 X100.580 Y14.984 Z-0.190 F500
G1 X100.556 Y14.468 Z-0.190 F500
G1 X100.517 Y13.954 Z-0.190 F500
G1 X100.463 Y13.440 Z-0.190 F500
G1 X100.393 Y12.929 Z-0.190 F500
G1 X100.308 Y12.420 Z-0.190 F500
G1 X100.207 Y11.914 Z-0.190 F500
G1 X100.091 Y11.411 Z-0.190 F500
G1 X99.960 Y10.911 Z-0.190 F500
G1 X99.814 Y10.416 Z-0.190 F500
G1 X99.653 Y9.926 Z-0.190 F500
G1 X99.477 Y9.441 Z-0.190 F500
G1 X99.287 Y8.961 Z-0.190 F500
G1 X99.082 Y8.487 Z-0.190 F500
G1 X98.863 Y8.020 Z-0.190 F500
G1 X98.630 Y7.559 Z-0.190 F500
G1 X98.383 Y7.106 Z-0.190 F500
G1 X98.123 Y6.660 Z-0.190 F500
G1 X97.849 Y6.222 Z-0.190 F500
G1 X97.563 Y5.793 Z-0.190 F500
G1 X97.263 Y5.373 Z-0.190 F500
G1 X96.951 Y4.962 Z-0.190 F500
G1 X96.627 Y4.560 Z-0.190 F500
G1 X96.290 Y4.169 Z-0.190 F500
G1 X95.942 Y3.788 Z-0.190 F500
G1 X95.583 Y3.417 Z-0.190 F500
G1 X95.212 Y3.058 Z-0.190 F500
G1 X94.831 Y2.710 Z-0.190 F500
G1 X94.440 Y2.373 Z-0.190 F500
G1 X94.038 Y2.049 Z-0.190 F500
G1 X93.627 Y1.737 Z-0.190 F500
G1 X93.207 Y1.437 Z-0.190 F500
G1 X92.778 Y1.151 Z-0.190 F500
G1 X92.340 Y0.877 Z-0.190 F500
G1 X91.894 Y0.617 Z-0.190 F500
G1 X91.441 Y0.370 Z-0.190 F500
G1 X90.980 Y0.137 Z-0.190 F500
G1 X90.513 Y-0.082 Z-0.190 F500
G1 X90.039 Y-0.287 Z-0.190 F500
G1 X89.559 Y-0.477 Z-0.190 F500
G1 X89.074 Y-0.653 Z-0.190 F500
G1 X88.584 Y-0.814 Z-0.190 F500
G1 X88.089 Y-0.960 Z-0.190 F500
G1 X87.589 Y-1.091 Z-0.190 F500
G1 X87.086 Y-1.207 Z-0.190 F500
G1 X86.580 Y-1.308 Z-0.190 F500
G1 X86.071 Y-1.393 Z-0.190 F500
G1 X85.560 Y-1.463 Z-0.190 F500
G1 X85.046 Y-1.517 Z-0.190 F500
G1 X84.532 Y-1.556 Z-0.190 F500
G1 X84.016 Y-1.580 Z-0.190 F500
G1 X83.500 Y-1.587 Z-0.190 F500
G1 X15.500 Y-1.587 Z-0.190 F500
G1 X14.984 Y-1.580 Z-0.190 F500
G1 X14.468 Y-1.556 Z-0.190 F500
G1 X13.954 Y-1.517 Z-0.190 F500
G1 X13.440 Y-1.463 Z-0.190 F500
G1 X12.929 Y-1.393 Z-0.190 F500
G1 X12.420 Y-1.308 Z-0.190 F500
G1 X11.914 Y-1.207 Z-0.190 F500
G1 X11.411 Y-1.091 Z-0.190 F500
G1 X10.911 Y-0.960 Z-0.190 F500
G1 X10.416 Y-0.814 Z-0.190 F500
G1 X9.926 Y-0.653 Z-0.190 F500
G1 X9.441 Y-0.477 Z-0.190 F500
G1 X8.961 Y-0.287 Z-0.190 F500
G1 X8.487 Y-0.082 Z-0.190 F500
G1 X8.020 Y0.137 Z-0.190 F500
G1 X7.559 Y0.370 Z-0.190 F500
G1 X7.106 Y0.617 Z-0.190 F500
G1 X6.660 Y0.877 Z-0.190 F500
G1 X6.222 Y1.151 Z-0.190 F500
G1 X5.793 Y1.437 Z-0.190 F500
G1 X5.373 Y1.737 Z-0.190 F500
G1 X4.962 Y2.049 Z-0.190 F500
G1 X4.560 Y2.373 Z-0.190 F500
G1 X4.169 Y2.710 Z-0.190 F500
G1 X3.788 Y3.058 Z-0.190 F500
G1 X3.417 Y3.417 Z-0.190 F500
G1 X3.058 Y3.788 Z-0.190 F500
G1 X2.710 Y4.169 Z-0.190 F500
G1 X2.373 Y4.560 Z-0.190 F500
G1 X2.049 Y4.962 Z-0.190 F500
G1 X1.737 Y5.373 Z-0.190 F500
G1 X1.437 Y5.793 Z-0.190 F500
G1 X1.151 Y6.222 Z-0.190 F500
G1 X0.877 Y6.660 Z-0.190 F500
G1 X0.617 Y7.106 Z-0.190 F500
G1 X0.370 Y7.559 Z-0.190 F500
G1 X0.137 Y8.020 Z-0.190 F500
G1 X-0.082 Y8.487 Z-0.190 F500
G1 X-0.287 Y8.961 Z-0.190 F500
G1 X-0.477 Y9.441 Z-0.190 F500
G1 X-0.653 Y9.926 Z-0.190 F500
G1 X-0.814 Y10.416 Z-0.190 F500
G1 X-0.960 Y10.911 Z-0.190 F500
G1 X-1.091 Y11.411 Z-0.190 F500
G1 X-1.207 Y11.914 Z-0.190 F500
G1 X-1.308 Y12.420 Z-0.190 F500
G1 X-1.393 Y12.929 Z-0.190 F500
G1 X-1.463 Y13.440 Z-0.190 F500
G1 X-1.517 Y13.954 Z-0.190 F500
G1 X-1.556 Y14.468 Z-0.190 F500
G1 X-1.580 Y14.984 Z-0.190 F500
G1 X-1.587 Y15.500 Z-0.190 F500
G1 X-1.587 Y104.500 Z-0.190 F500
G1 X-1.580 Y104.915 Z-0.190 F500
G1 X-1.556 Y105.329 Z-0.190 F500
G1 X-1.518 Y105.741 Z-0.190 F500
G1 X-1.464 Y106.153 Z-0.190 F500
G1 X-1.394 Y106.561 Z-0.190 F500
G1 X-1.310 Y106.967 Z-0.190 F500
G1 X-1.210 Y107.370 Z-0.190 F500
G1 X-1.095 Y107.768 Z-0.190 F500
G1 X-0.965 Y108.162 Z-0.190 F500
G1 X-0.821 Y108.551 Z-0.190 F500
G1 X-0.662 Y108.934 Z-0.190 F500
G1 X-0.489 Y109.311 Z-0.190 F500
G1 X-0.303 Y109.681 Z-0.190 F500
G1 X-0.102 Y110.044 Z-0.190 F500
G1 X0.112 Y110.399 Z-0.190 F500
G1 X0.339 Y110.746 Z-0.190 F500
G1 X0.579 Y111.084 Z-0.190 F500
G1 X0.831 Y111.413 Z-0.190 F500
G1 X1.096 Y111.732 Z-0.190 F500
G1 X1.372 Y112.041 Z-0.190 F500
G1 X1.660 Y112.340 Z-0.190 F500
G1 X1.959 Y112.628 Z-0.190 F500
G1 X2.268 Y112.904 Z-0.190 F500
G1 X2.587 Y113.169 Z-0.190 F500
G1 X2.916 Y113.421 Z-0.190 F500
G1 X3.254 Y113.661 Z-0.190 F500
G1 X3.601 Y113.888 Z-0.190 F500
G1 X3.956 Y114.102 Z-0.190 F500
G1 X4.319 Y114.303 Z-0.190 F500
G1 X4.689 Y114.489 Z-0.190 F500
G1 X5.066 Y114.662 Z-0.190 F500
G1 X5.449 Y114.821 Z-0.190 F500
G1 X5.838 Y114.965 Z-0.190 F500
G1 X6.232 Y115.095 Z-0.190 F500
G1 X6.630 Y115.210 Z-0.190 F500
G1 X7.033 Y115.310 Z-0.190 F500
G1 X7.439 Y115.394 Z-0.190 F500
G1 X7.847 Y115.464 Z-0.190 F500
G1 X8.259 Y115.518 Z-0.190 F500
G1 X8.671 Y115.556 Z-0.190 F500
G1 X9.085 Y115.580 Z-0.190 F500
G1 X9.500 Y115.588 Z-0.190 F500
G1 X89.500 Y115.588 Z-0.190 F500
G1 X89.915 Y115.580 Z-0.190 F500
G1 X90.329 Y115.556 Z-0.190 F500
G1 X90.741 Y115.518 Z-0.190 F500
G1 X91.153 Y115.464 Z-0.190 F500
G1 X91.561 Y115.394 Z-0.190 F500
G1 X91.967 Y115.310 Z-0.190 F500
G1 X92.370 Y115.210 Z-0.190 F500
G1 X92.768 Y115.095 Z-0.190 F500
G1 X93.162 Y114.965 Z-0.190 F500
G1 X93.551 Y114.821 Z-0.190 F500
G1 X93.934 Y114.662 Z-0.190 F500
G1 X94.311 Y114.489 Z-0.190 F500
G1 X94.681 Y114.303 Z-0.190 F500
G1 X95.044 Y114.102 Z-0.190 F500
G1 X95.399 Y113.888 Z-0.190 F500
G1 X95.746 Y113.661 Z-0.190 F500
G1 X96.084 Y113.421 Z-0.190 F500
G1 X96.413 Y113.169 Z-0.190 F500
G1 X96.732 Y112.904 Z-0.190 F500
G1 X97.041 Y112.628 Z-0.190 F500
G1 X97.340 Y112.340 Z-0.190 F500
G1 X97.628 Y112.041 Z-0.190 F500
G1 X97.904 Y111.732 Z-0.190 F500
G1 X98.169 Y111.413 Z-0.190 F500
G1 X98.421 Y111.084 Z-0.190 F500
G1 X98.661 Y110.746 Z-0.190 F500
G1 X98.888 Y110.399 Z-0.190 F500
G1 X99.102 Y110.044 Z-0.190 F500
G1 X99.303 Y109.681 Z-0.190 F500
G1 X99.489 Y109.311 Z-0.190 F500
G1 X99.662 Y108.934 Z-0.190 F500
G1 X99.821 Y108.551 Z-0.190 F500
G1 X99.965 Y108.162 Z-0.190 F500
G1 X100.095 Y107.768 Z-0.190 F500
G1 X100.210 Y107.370 Z-0.190 F500
G1 X100.310 Y106.967 Z-0.190 F500
G1 X100.394 Y106.561 Z-0.190 F500
G1 X100.464 Y106.153 Z-0.190 F500
G1 X100.518 Y105.741 Z-0.190 F500
G1 X100.556 Y105.329 Z-0.190 F500
G1 X100.580 Y104.915 Z-0.190 F500
G1 X100.588 Y104.500 Z-0.190 F500
G1 X100.588 Y44.668 Z-0.190 F500
G1 X100.595 Y44.598 Z-0.190 F500
G1 X100.619 Y44.530 Z-0.190 F500
G1 X100.657 Y44.470 Z-0.190 F500
G1 X100.707 Y44.420 Z-0.190 F500
G1 X100.767 Y44.382 Z-0.190 F500
G1 X100.834 Y44.359 Z-0.190 F500
G1 X100.905 Y44.351 Z-0.190 F500
G1 X101.223 Y44.351 Z-0.190 F500
G1 X101.293 Y44.351 Z-0.182 F500
G1 X101.360 Y44.351 Z-0.159 F500
G1 X101.420 Y44.351 Z-0.121 F500
G1 X101.471 Y44.351 Z-0.070 F500
G1 X101.509 Y44.351 Z-0.010 F500
G1 X101.532 Y44.351 Z0.057 F500
G1 X101.540 Y44.351 Z0.127 F500
G1 X101.540 Y44.351 Z5.010 F500
G1 X91.960 Y29.774 Z5.010 F500
G1 X91.960 Y29.774 Z1.010 F500
G1 X91.960 Y29.774 Z0.645 F200
G1 X91.960 Y29.774 Z0.227 F200
G1 X91.968 Y29.774 Z0.157 F500
G1 X91.991 Y29.774 Z0.090 F500
G1 X92.029 Y29.774 Z0.030 F500
G1 X92.080 Y29.774 Z-0.021 F500
G1 X92.140 Y29.774 Z-0.059 F500
G1 X92.207 Y29.774 Z-0.082 F500
G1 X92.277 Y29.774 Z-0.090 F500
G1 X92.595 Y29.774 Z-0.090 F500
G1 X92.666 Y29.782 Z-0.090 F500
G1 X92.733 Y29.805 Z-0.090 F500
G1 X92.793 Y29.843 Z-0.090 F500
G1 X92.843 Y29.893 Z-0.090 F500
G1 X92.881 Y29.954 Z-0.090 F500
G1 X92.905 Y30.021 Z-0.090 F500
G1 X92.912 Y30.091 Z-0.090 F500
G1 X92.912 Y45.500 Z-0.090 F500
G1 X92.905 Y45.648 Z-0.090 F500
G1 X92.882 Y45.794 Z-0.090 F500
G1 X92.843 Y45.936 Z-0.090 F500
G1 X92.790 Y46.075 Z-0.090 F500
G1 X92.723 Y46.206 Z-0.090 F500
G1 X92.643 Y46.330 Z-0.090 F500
G1 X92.550 Y46.445 Z-0.090 F500
G1 X92.445 Y46.550 Z-0.090 F500
G1 X92.330 Y46.643 Z-0.090 F500
G1 X92.206 Y46.723 Z-0.090 F500
G1 X92.075 Y46.790 Z-0.090 F500
G1 X91.936 Y46.843 Z-0.090 F500
G1 X91.794 Y46.882 Z-0.090 F500
G1 X91.648 Y46.905 Z-0.090 F500
G1 X91.500 Y46.912 Z-0.090 F500
G1 X79.554 Y46.912 Z-0.090 F500
G1 X79.409 Y46.905 Z-0.090 F500
G1 X79.265 Y46.883 Z-0.090 F500
G1 X79.124 Y46.845 Z-0.090 F500
G1 X78.988 Y46.794 Z-0.090 F500
G1 X78.857 Y46.728 Z-0.090 F500
G1 X78.735 Y46.650 Z-0.090 F500
G1 X78.620 Y46.560 Z-0.090 F500
G1 X78.516 Y46.458 Z-0.090 F500
G1 X78.423 Y46.346 Z-0.090 F500
G1 X78.342 Y46.224 Z-0.090 F500
G1 X78.274 Y46.096 Z-0.090 F500
G1 X78.219 Y45.960 Z-0.090 F500
G1 X78.179 Y45.820 Z-0.090 F500
G1 X78.022 Y45.181 Z-0.090 F500
G1 X77.851 Y44.545 Z-0.090 F500
G1 X77.666 Y43.913 Z-0.090 F500
G1 X77.467 Y43.285 Z-0.090 F500
G1 X77.254 Y42.662 Z-0.090 F500
G1 X77.027 Y42.043 Z-0.090 F500
G1 X76.787 Y41.430 Z-0.090 F500
G1 X76.532 Y40.823 Z-0.090 F500
G1 X76.264 Y40.221 Z-0.090 F500
G1 X75.983 Y39.626 Z-0.090 F500
G1 X75.688 Y39.037 Z-0.090 F500
G1 X75.381 Y38.455 Z-0.090 F500
G1 X75.060 Y37.879 Z-0.090 F500
G1 X74.727 Y37.311 Z-0.090 F500
G1 X74.381 Y36.751 Z-0.090 F500
G1 X74.022 Y36.198 Z-0.090 F500
G1 X73.652 Y35.654 Z-0.090 F500
G1 X73.269 Y35.118 Z-0.090 F500
G1 X72.874 Y34.591 Z-0.090 F500
G1 X72.468 Y34.073 Z-0.090 F500
G1 X72.050 Y33.564 Z-0.090 F500
G1 X71.621 Y33.064 Z-0.090 F500
G1 X71.536 Y32.957 Z-0.090 F500
G1 X71.462 Y32.843 Z-0.090 F500
G1 X71.399 Y32.722 Z-0.090 F500
G1 X71.348 Y32.596 Z-0.090 F500
G1 X71.309 Y32.465 Z-0.090 F500
G1 X71.284 Y32.331 Z-0.090 F500
G1 X71.271 Y32.196 Z-0.090 F500
G1 X71.271 Y32.059 Z-0.090 F500
G1 X71.285 Y31.924 Z-0.090 F500
G1 X71.312 Y31.790 Z-0.090 F500
G1 X77.453 Y7.158 Z-0.090 F500
G1 X77.495 Y7.020 Z-0.090 F500
G1 X77.551 Y6.888 Z-0.090 F500
G1 X77.620 Y6.761 Z-0.090 F500
G1 X77.701 Y6.642 Z-0.090 F500
G1 X77.794 Y6.533 Z-0.090 F500
G1 X77.898 Y6.433 Z-0.090 F500
G1 X78.012 Y6.344 Z-0.090 F500
G1 X78.134 Y6.267 Z-0.090 F500
G1 X78.263 Y6.204 Z-0.090 F500
G1 X78.398 Y6.153 Z-0.090 F500
G1 X78.537 Y6.117 Z-0.090 F500
G1 X78.680 Y6.095 Z-0.090 F500
G1 X78.823 Y6.088 Z-0.090 F500
G1 X83.500 Y6.088 Z-0.090 F500
G1 X83.879 Y6.095 Z-0.090 F500
G1 X84.257 Y6.118 Z-0.090 F500
G1 X84.635 Y6.156 Z-0.090 F500
G1 X85.010 Y6.209 Z-0.090 F500
G1 X85.383 Y6.278 Z-0.090 F500
G1 X85.753 Y6.361 Z-0.090 F500
G1 X86.119 Y6.459 Z-0.090 F500
G1 X86.481 Y6.572 Z-0.090 F500
G1 X86.838 Y6.699 Z-0.090 F500
G1 X87.189 Y6.841 Z-0.090 F500
G1 X87.535 Y6.996 Z-0.090 F500
G1 X87.874 Y7.166 Z-0.090 F500
G1 X88.206 Y7.349 Z-0.090 F500
G1 X88.531 Y7.545 Z-0.090 F500
G1 X88.847 Y7.754 Z-0.090 F500
G1 X89.154 Y7.975 Z-0.090 F500
G1 X89.453 Y8.209 Z-0.090 F500
G1 X89.742 Y8.455 Z-0.090 F500
G1 X90.020 Y8.712 Z-0.090 F500
G1 X90.288 Y8.980 Z-0.090 F500
G1 X90.545 Y9.258 Z-0.090 F500
G1 X90.791 Y9.547 Z-0.090 F500
G1 X91.025 Y9.846 Z-0.090 F500
G1 X91.246 Y10.153 Z-0.090 F500
G1 X91.455 Y10.469 Z-0.090 F500
G1 X91.651 Y10.794 Z-0.090 F500
G1 X91.834 Y11.126 Z-0.090 F500
G1 X92.004 Y11.465 Z-0.090 F500
G1 X92.159 Y11.811 Z-0.090 F500
G1 X92.301 Y12.162 Z-0.090 F500
G1 X92.428 Y12.519 Z-0.090 F500
G1 X92.541 Y12.881 Z-0.090 F500
G1 X92.639 Y13.247 Z-0.090 F500
G1 X92.722 Y13.617 Z-0.090 F500
G1 X92.791 Y13.990 Z-0.090 F500
G1 X92.844 Y14.365 Z-0.090 F500
G1 X92.882 Y14.743 Z-0.090 F500
G1 X92.905 Y15.121 Z-0.090 F500
G1 X92.912 Y15.500 Z-0.090 F500
G1 X92.912 Y30.091 Z-0.090 F500
G1 X92.905 Y30.162 Z-0.090 F500
G1 X92.881 Y30.229 Z-0.090 F500
G1 X92.843 Y30.289 Z-0.090 F500
G1 X92.793 Y30.340 Z-0.090 F500
G1 X92.733 Y30.377 Z-0.090 F500
G1 X92.666 Y30.401 Z-0.090 F500
G1 X92.595 Y30.409 Z-0.090 F500
G1 X92.277 Y30.409 Z-0.090 F500
G1 X92.207 Y30.409 Z-0.082 F500
G1 X92.140 Y30.409 Z-0.059 F500
G1 X92.080 Y30.409 Z-0.021 F500
G1 X92.029 Y30.409 Z0.030 F500
G1 X91.991 Y30.409 Z0.090 F500
G1 X91.968 Y30.409 Z0.157 F500
G1 X91.960 Y30.409 Z0.227 F500
G1 X91.960 Y30.409 Z5.010 F500
G1 X91.960 Y29.774 Z5.010 F500
G1 X91.960 Y29.774 Z1.010 F500
G1 X91.960 Y29.774 Z0.545 F200
G1 X91.960 Y29.774 Z0.127 F200
G1 X91.968 Y29.774 Z0.057 F500
G1 X91.991 Y29.774 Z-0.010 F500
G1 X92.029 Y29.774 Z-0.070 F500
G1 X92.080 Y29.774 Z-0.121 F500
G1 X92.140 Y29.774 Z-0.159 F500
G1 X92.207 Y29.774 Z-0.182 F500
G1 X92.277 Y29.774 Z-0.190 F500
G1 X92.595 Y29.774 Z-0.190 F500
G1 X92.666 Y29.782 Z-0.190 F500
G1 X92.733 Y29.805 Z-0.190 F500
G1 X92.793 Y29.843 Z-0.190 F500
G1 X92.843 Y29.893 Z-0.190 F500
G1 X92.881 Y29.954 Z-0.190 F500
G1 X92.905 Y30.021 Z-0.190 F500
G1 X92.912 Y30.091 Z-0.190 F500
G1 X92.912 Y45.500 Z-0.190 F500
G1 X92.905 Y45.648 Z-0.190 F500
G1 X92.882 Y45.794 Z-0.190 F500
G1 X92.843 Y45.936 Z-0.190 F500
G1 X92.790 Y46.075 Z-0.190 F500
G1 X92.723 Y46.206 Z-0.190 F500
G1 X92.643 Y46.330 Z-0.190 F500
G1 X92.550 Y46.445 Z-0.190 F500
G1 X92.445 Y46.550 Z-0.190 F500
G1 X92.330 Y46.643 Z-0.190 F500
G1 X92.206 Y46.723 Z-0.190 F500
G1 X92.075 Y46.790 Z-0.190 F500
G1 X91.936 Y46.843 Z-0.190 F500
G1 X91.794 Y46.882 Z-0.190 F500
G1 X91.648 Y46.905 Z-0.190 F500
G1 X91.500 Y46.912 Z-0.190 F500
G1 X79.554 Y46.912 Z-0.190 F500
G1 X79.409 Y46.905 Z-0.190 F500
G1 X79.265 Y46.883 Z-0.190 F500
G1 X79.124 Y46.845 Z-0.190 F500
G1 X78.988 Y46.794 Z-0.190 F500
G1 X78.857 Y46.728 Z-0.190 F500
G1 X78.735 Y46.650 Z-0.190 F500
G1 X78.620 Y46.560 Z-0.190 F500
G1 X78.516 Y46.458 Z-0.190 F500
G1 X78.423 Y46.346 Z-0.190 F500
G1 X78.342 Y46.224 Z-0.190 F500
G1 X78.274 Y46.096 Z-0.190 F500
G1 X78.219 Y45.960 Z-0.190 F500
G1 X78.179 Y45.820 Z-0.190 F500
G1 X78.022 Y45.181 Z-0.190 F500
G1 X77.851 Y44.545 Z-0.190 F500
G1 X77.666 Y43.913 Z-0.190 F500
G1 X77.467 Y43.285 Z-0.190 F500
G1 X77.254 Y42.662 Z-0.190 F500
G1 X77.027 Y42.043 Z-0.190 F500
G1 X76.787 Y41.430 Z-0.190 F500
G1 X76.532 Y40.823 Z-0.190 F500
G1 X76.264 Y40.221 Z-0.190 F500
G1 X75.983 Y39.626 Z-0.190 F500
G1 X75.688 Y39.037 Z-0.190 F500
G1 X75.381 Y38.455 Z-0.190 F500
G1 X75.060 Y37.879 Z-0.190 F500
G1 X74.727 Y37.311 Z-0.190 F500
G1 X74.381 Y36.751 Z-0.190 F500
G1 X74.022 Y36.198 Z-0.190 F500
G1 X73.652 Y35.654 Z-0.190 F500
G1 X73.269 Y35.118 Z-0.190 F500
G1 X72.874 Y34.591 Z-0.190 F500
G1 X72.468 Y34.073 Z-0.190 F500
G1 X72.050 Y33.564 Z-0.190 F500
G1 X71.621 Y33.064 Z-0.190 F500
G1 X71.536 Y32.957 Z-0.190 F500
G1 X71.462 Y32.843 Z-0.190 F500
G1 X71.399 Y32.722 Z-0.190 F500
G1 X71.348 Y32.596 Z-0.190 F500
G1 X71.309 Y32.465 Z-0.190 F500
G1 X71.284 Y32.331 Z-0.190 F500
G1 X71.271 Y32.196 Z-0.190 F500
G1 X71.271 Y32.059 Z-0.190 F500
G1 X71.285 Y31.924 Z-0.190 F500
G1 X71.312 Y31.790 Z-0.190 F500
G1 X77.453 Y7.158 Z-0.190 F500
G1 X77.495 Y7.020 Z-0.190 F500
G1 X77.551 Y6.888 Z-0.190 F500
G1 X77.620 Y6.761 Z-0.190 F500
G1 X77.701 Y6.642 Z-0.190 F500
G1 X77.794 Y6.533 Z-0.190 F500
G1 X77.898 Y6.433 Z-0.190 F500
G1 X78.012 Y6.344 Z-0.190 F500
G1 X78.134 Y6.267 Z-0.190 F500
G1 X78.263 Y6.204 Z-0.190 F500
G1 X78.398 Y6.153 Z-0.190 F500
G1 X78.537 Y6.117 Z-0.190 F500
G1 X78.680 Y6.095 Z-0.190 F500
G1 X78.823 Y6.088 Z-0.190 F500
G1 X83.500 Y6.088 Z-0.190 F500
G1 X83.879 Y6.095 Z-0.190 F500
G1 X84.257 Y6.118 Z-0.190 F500
G1 X84.635 Y6.156 Z-0.190 F500
G1 X85.010 Y6.209 Z-0.190 F500
G1 X85.383 Y6.278 Z-0.190 F500
G1 X85.753 Y6.361 Z-0.190 F500
G1 X86.119 Y6.459 Z-0.190 F500
G1 X86.481 Y6.572 Z-0.190 F500
G1 X86.838 Y6.699 Z-0.190 F500
G1 X87.189 Y6.841 Z-0.190 F500
G1 X87.535 Y6.996 Z-0.190 F500
G1 X87.874 Y7.166 Z-0.190 F500
G1 X88.206 Y7.349 Z-0.190 F500
G1 X88.531 Y7.545 Z-0.190 F500
G1 X88.847 Y7.754 Z-0.190 F500
G1 X89.154 Y7.975 Z-0.190 F500
G1 X89.453 Y8.209 Z-0.190 F500
G1 X89.742 Y8.455 Z-0.190 F500
G1 X90.020 Y8.712 Z-0.190 F500
G1 X90.288 Y8.980 Z-0.190 F500
G1 X90.545 Y9.258 Z-0.190 F500
G1 X90.791 Y9.547 Z-0.190 F500
G1 X91.025 Y9.846 Z-0.190 F500
G1 X91.246 Y10.153 Z-0.190 F500
G1 X91.455 Y10.469 Z-0.190 F500
G1 X91.651 Y10.794 Z-0.190 F500
G1 X91.834 Y11.126 Z-0.190 F500
G1 X92.004 Y11.465 Z-0.190 F500
G1 X92.159 Y11.811 Z-0.190 F500
G1 X92.301 Y12.162 Z-0.190 F500
G1 X92.428 Y12.519 Z-0.190 F500
G1 X92.541 Y12.881 Z-0.190 F500
G1 X92.639 Y13.247 Z-0.190 F500
G1 X92.722 Y13.617 Z-0.190 F500
G1 X92.791 Y13.990 Z-0.190 F500
G1 X92.844 Y14.365 Z-0.190 F500
G1 X92.882 Y14.743 Z-0.190 F500
G1 X92.905 Y15.121 Z-0.190 F500
G1 X92.912 Y15.500 Z-0.190 F500
G1 X92.912 Y30.091 Z-0.190 F500
G1 X92.905 Y30.162 Z-0.190 F500
G1 X92.881 Y30.229 Z-0.190 F500
G1 X92.843 Y30.289 Z-0.190 F500
G1 X92.793 Y30.340 Z-0.190 F500
G1 X92.733 Y30.377 Z-0.190 F500
G1 X92.666 Y30.401 Z-0.190 F500
G1 X92.595 Y30.409 Z-0.190 F500
G1 X92.277 Y30.409 Z-0.190 F500
G1 X92.207 Y30.409 Z-0.182 F500
G1 X92.140 Y30.409 Z-0.159 F500
G1 X92.080 Y30.409 Z-0.121 F500
G1 X92.029 Y30.409 Z-0.070 F500
G1 X91.991 Y30.409 Z-0.010 F500
G1 X91.968 Y30.409 Z0.057 F500
G1 X91.960 Y30.409 Z0.127 F500
G1 X91.960 Y30.409 Z5.010 F500
G1 X91.960 Y29.774 Z5.010 F500
G1 X91.960 Y29.774 Z1.010 F500
G1 X91.960 Y29.774 Z0.445 F200
G1 X91.960 Y29.774 Z0.027 F200
G1 X91.968 Y29.774 Z-0.043 F500
G1 X91.991 Y29.774 Z-0.110 F500
G1 X92.029 Y29.774 Z-0.170 F500
G1 X92.080 Y29.774 Z-0.221 F500
G1 X92.140 Y29.774 Z-0.259 F500
G1 X92.207 Y29.774 Z-0.282 F500
G1 X92.277 Y29.774 Z-0.290 F500
G1 X92.595 Y29.774 Z-0.290 F500
G1 X92.666 Y29.782 Z-0.290 F500
G1 X92.733 Y29.805 Z-0.290 F500
G1 X92.793 Y29.843 Z-0.290 F500
G1 X92.843 Y29.893 Z-0.290 F500
G1 X92.881 Y29.954 Z-0.290 F500
G1 X92.905 Y30.021 Z-0.290 F500
G1 X92.912 Y30.091 Z-0.290 F500
G1 X92.912 Y45.500 Z-0.290 F500
G1 X92.905 Y45.648 Z-0.290 F500
G1 X92.882 Y45.794 Z-0.290 F500
G1 X92.843 Y45.936 Z-0.290 F500
G1 X92.790 Y46.075 Z-0.290 F500
G1 X92.723 Y46.206 Z-0.290 F500
G1 X92.643 Y46.330 Z-0.290 F500
G1 X92.550 Y46.445 Z-0.290 F500
G1 X92.445 Y46.550 Z-0.290 F500
G1 X92.330 Y46.643 Z-0.290 F500
G1 X92.206 Y46.723 Z-0.290 F500
G1 X92.075 Y46.790 Z-0.290 F500
G1 X91.936 Y46.843 Z-0.290 F500
G1 X91.794 Y46.882 Z-0.290 F500
G1 X91.648 Y46.905 Z-0.290 F500
G1 X91.500 Y46.912 Z-0.290 F500
G1 X79.554 Y46.912 Z-0.290 F500
G1 X79.409 Y46.905 Z-0.290 F500
G1 X79.265 Y46.883 Z-0.290 F500
G1 X79.124 Y46.845 Z-0.290 F500
G1 X78.988 Y46.794 Z-0.290 F500
G1 X78.857 Y46.728 Z-0.290 F500
G1 X78.735 Y46.650 Z-0.290 F500
G1 X78.620 Y46.560 Z-0.290 F500
G1 X78.516 Y46.458 Z-0.290 F500
G1 X78.423 Y46.346 Z-0.290 F500
G1 X78.342 Y46.224 Z-0.290 F500
G1 X78.274 Y46.096 Z-0.290 F500
G1 X78.219 Y45.960 Z-0.290 F500
G1 X78.179 Y45.820 Z-0.290 F500
G1 X78.022 Y45.181 Z-0.290 F500
G1 X77.851 Y44.545 Z-0.290 F500
G1 X77.666 Y43.913 Z-0.290 F500
G1 X77.467 Y43.285 Z-0.290 F500
G1 X77.254 Y42.662 Z-0.290 F500
G1 X77.027 Y42.043 Z-0.290 F500
G1 X76.787 Y41.430 Z-0.290 F500
G1 X76.532 Y40.823 Z-0.290 F500
G1 X76.264 Y40.221 Z-0.290 F500
G1 X75.983 Y39.626 Z-0.290 F500
G1 X75.688 Y39.037 Z-0.290 F500
G1 X75.381 Y38.455 Z-0.290 F500
G1 X75.060 Y37.879 Z-0.290 F500
G1 X74.727 Y37.311 Z-0.290 F500
G1 X74.381 Y36.751 Z-0.290 F500
G1 X74.022 Y36.198 Z-0.290 F500
G1 X73.652 Y35.654 Z-0.290 F500
G1 X73.269 Y35.118 Z-0.290 F500
G1 X72.874 Y34.591 Z-0.290 F500
G1 X72.468 Y34.073 Z-0.290 F500
G1 X72.050 Y33.564 Z-0.290 F500
G1 X71.621 Y33.064 Z-0.290 F500
G1 X71.536 Y32.957 Z-0.290 F500
G1 X71.462 Y32.843 Z-0.290 F500
G1 X71.399 Y32.722 Z-0.290 F500
G1 X71.348 Y32.596 Z-0.290 F500
G1 X71.309 Y32.465 Z-0.290 F500
G1 X71.284 Y32.331 Z-0.290 F500
G1 X71.271 Y32.196 Z-0.290 F500
G1 X71.271 Y32.059 Z-0.290 F500
G1 X71.285 Y31.924 Z-0.290 F500
G1 X71.312 Y31.790 Z-0.290 F500
G1 X77.453 Y7.158 Z-0.290 F500
G1 X77.495 Y7.020 Z-0.290 F500
G1 X77.551 Y6.888 Z-0.290 F500
G1 X77.620 Y6.761 Z-0.290 F500
G1 X77.701 Y6.642 Z-0.290 F500
G1 X77.794 Y6.533 Z-0.290 F500
G1 X77.898 Y6.433 Z-0.290 F500
G1 X78.012 Y6.344 Z-0.290 F500
G1 X78.134 Y6.267 Z-0.290 F500
G1 X78.263 Y6.204 Z-0.290 F500
G1 X78.398 Y6.153 Z-0.290 F500
G1 X78.537 Y6.117 Z-0.290 F500
G1 X78.680 Y6.095 Z-0.290 F500
G1 X78.823 Y6.088 Z-0.290 F500
G1 X83.500 Y6.088 Z-0.290 F500
G1 X83.879 Y6.095 Z-0.290 F500
G1 X84.257 Y6.118 Z-0.290 F500
G1 X84.635 Y6.156 Z-0.290 F500
G1 X85.010 Y6.209 Z-0.290 F500
G1 X85.383 Y6.278 Z-0.290 F500
G1 X85.753 Y6.361 Z-0.290 F500
G1 X86.119 Y6.459 Z-0.290 F500
G1 X86.481 Y6.572 Z-0.290 F500
G1 X86.838 Y6.699 Z-0.290 F500
G1 X87.189 Y6.841 Z-0.290 F500
G1 X87.535 Y6.996 Z-0.290 F500
G1 X87.874 Y7.166 Z-0.290 F500
G1 X88.206 Y7.349 Z-0.290 F500
G1 X88.531 Y7.545 Z-0.290 F500
G1 X88.847 Y7.754 Z-0.290 F500
G1 X89.154 Y7.975 Z-0.290 F500
G1 X89.453 Y8.209 Z-0.290 F500
G1 X89.742 Y8.455 Z-0.290 F500
G1 X90.020 Y8.712 Z-0.290 F500
G1 X90.288 Y8.980 Z-0.290 F500
G1 X90.545 Y9.258 Z-0.290 F500
G1 X90.791 Y9.547 Z-0.290 F500
G1 X91.025 Y9.846 Z-0.290 F500
G1 X91.246 Y10.153 Z-0.290 F500
G1 X91.455 Y10.469 Z-0.290 F500
G1 X91.651 Y10.794 Z-0.290 F500
G1 X91.834 Y11.126 Z-0.290 F500
G1 X92.004 Y11.465 Z-0.290 F500
G1 X92.159 Y11.811 Z-0.290 F500
G1 X92.301 Y12.162 Z-0.290 F500
G1 X92.428 Y12.519 Z-0.290 F500
G1 X92.541 Y12.881 Z-0.290 F500
G1 X92.639 Y13.247 Z-0.290 F500
G1 X92.722 Y13.617 Z-0.290 F500
G1 X92.791 Y13.990 Z-0.290 F500
G1 X92.844 Y14.365 Z-0.290 F500
G1 X92.882 Y14.743 Z-0.290 F500
G1 X92.905 Y15.121 Z-0.290 F500
G1 X92.912 Y15.500 Z-0.290 F500
G1 X92.912 Y30.091 Z-0.290 F500
G1 X92.905 Y30.162 Z-0.290 F500
G1 X92.881 Y30.229 Z-0.290 F500
G1 X92.843 Y30.289 Z-0.290 F500
G1 X92.793 Y30.340 Z-0.290 F500
G1 X92.733 Y30.377 Z-0.290 F500
G1 X92.666 Y30.401 Z-0.290 F500
G1 X92.595 Y30.409 Z-0.290 F500
G1 X92.277 Y30.409 Z-0.290 F500
G1 X92.207 Y30.409 Z-0.282 F500
G1 X92.140 Y30.409 Z-0.259 F500
G1 X92.080 Y30.409 Z-0.221 F500
G1 X92.029 Y30.409 Z-0.170 F500
G1 X91.991 Y30.409 Z-0.110 F500
G1 X91.968 Y30.409 Z-0.043 F500
G1 X91.960 Y30.409 Z0.027 F500
G1 X91.960 Y30.409 Z5.010 F500
G1 X91.960 Y29.774 Z5.010 F500
G1 X91.960 Y29.774 Z1.010 F500
G1 X91.960 Y29.774 Z0.345 F200
G1 X91.960 Y29.774 Z-0.073 F200
G1 X91.968 Y29.774 Z-0.143 F500
G1 X91.991 Y29.774 Z-0.210 F500
G1 X92.029 Y29.774 Z-0.270 F500
G1 X92.080 Y29.774 Z-0.321 F500
G1 X92.140 Y29.774 Z-0.359 F500
G1 X92.207 Y29.774 Z-0.382 F500
G1 X92.277 Y29.774 Z-0.390 F500
G1 X92.595 Y29.774 Z-0.390 F500
G1 X92.666 Y29.782 Z-0.390 F500
G1 X92.733 Y29.805 Z-0.390 F500
G1 X92.793 Y29.843 Z-0.390 F500
G1 X92.843 Y29.893 Z-0.390 F500
G1 X92.881 Y29.954 Z-0.390 F500
G1 X92.905 Y30.021 Z-0.390 F500
G1 X92.912 Y30.091 Z-0.390 F500
G1 X92.912 Y45.500 Z-0.390 F500
G1 X92.905 Y45.648 Z-0.390 F500
G1 X92.882 Y45.794 Z-0.390 F500
G1 X92.843 Y45.936 Z-0.390 F500
G1 X92.790 Y46.075 Z-0.390 F500
G1 X92.723 Y46.206 Z-0.390 F500
G1 X92.643 Y46.330 Z-0.390 F500
G1 X92.550 Y46.445 Z-0.390 F500
G1 X92.445 Y46.550 Z-0.390 F500
G1 X92.330 Y46.643 Z-0.390 F500
G1 X92.206 Y46.723 Z-0.390 F500
G1 X92.075 Y46.790 Z-0.390 F500
G1 X91.936 Y46.843 Z-0.390 F500
G1 X91.794 Y46.882 Z-0.390 F500
G1 X91.648 Y46.905 Z-0.390 F500
G1 X91.500 Y46.912 Z-0.390 F500
G1 X79.554 Y46.912 Z-0.390 F500
G1 X79.409 Y46.905 Z-0.390 F500
G1 X79.265 Y46.883 Z-0.390 F500
G1 X79.124 Y46.845 Z-0.390 F500
G1 X78.988 Y46.794 Z-0.390 F500
G1 X78.857 Y46.728 Z-0.390 F500
G1 X78.735 Y46.650 Z-0.390 F500
G1 X78.620 Y46.560 Z-0.390 F500
G1 X78.516 Y46.458 Z-0.390 F500
G1 X78.423 Y46.346 Z-0.390 F500
G1 X78.342 Y46.224 Z-0.390 F500
G1 X78.274 Y46.096 Z-0.390 F500
G1 X78.219 Y45.960 Z-0.390 F500
G1 X78.179 Y45.820 Z-0.390 F500
G1 X78.022 Y45.181 Z-0.390 F500
G1 X77.851 Y44.545 Z-0.390 F500
G1 X77.666 Y43.913 Z-0.390 F500
G1 X77.467 Y43.285 Z-0.390 F500
G1 X77.254 Y42.662 Z-0.390 F500
G1 X77.027 Y42.043 Z-0.390 F500
G1 X76.787 Y41.430 Z-0.390 F500
G1 X76.532 Y40.823 Z-0.390 F500
G1 X76.264 Y40.221 Z-0.390 F500
G1 X75.983 Y39.626 Z-0.390 F500
G1 X75.688 Y39.037 Z-0.390 F500
G1 X75.381 Y38.455 Z-0.390 F500
G1 X75.060 Y37.879 Z-0.390 F500
G1 X74.727 Y37.311 Z-0.390 F500
G1 X74.381 Y36.751 Z-0.390 F500
G1 X74.022 Y36.198 Z-0.390 F500
G1 X73.652 Y35.654 Z-0.390 F500
G1 X73.269 Y35.118 Z-0.390 F500
G1 X72.874 Y34.591 Z-0.390 F500
G1 X72.468 Y34.073 Z-0.390 F500
G1 X72.050 Y33.564 Z-0.390 F500
G1 X71.621 Y33.064 Z-0.390 F500
G1 X71.536 Y32.957 Z-0.390 F500
G1 X71.462 Y32.843 Z-0.390 F500
G1 X71.399 Y32.722 Z-0.390 F500
G1 X71.348 Y32.596 Z-0.390 F500
G1 X71.309 Y32.465 Z-0.390 F500
G1 X71.284 Y32.331 Z-0.390 F500
G1 X71.271 Y32.196 Z-0.390 F500
G1 X71.271 Y32.059 Z-0.390 F500
G1 X71.285 Y31.924 Z-0.390 F500
G1 X71.312 Y31.790 Z-0.390 F500
G1 X77.453 Y7.158 Z-0.390 F500
G1 X77.495 Y7.020 Z-0.390 F500
G1 X77.551 Y6.888 Z-0.390 F500
G1 X77.620 Y6.761 Z-0.390 F500
G1 X77.701 Y6.642 Z-0.390 F500
G1 X77.794 Y6.533 Z-0.390 F500
G1 X77.898 Y6.433 Z-0.390 F500
G1 X78.012 Y6.344 Z-0.390 F500
G1 X78.134 Y6.267 Z-0.390 F500
G1 X78.263 Y6.204 Z-0.390 F500
G1 X78.398 Y6.153 Z-0.390 F500
G1 X78.537 Y6.117 Z-0.390 F500
G1 X78.680 Y6.095 Z-0.390 F500
G1 X78.823 Y6.088 Z-0.390 F500
G1 X83.500 Y6.088 Z-0.390 F500
G1 X83.879 Y6.095 Z-0.390 F500
G1 X84.257 Y6.118 Z-0.390 F500
G1 X84.635 Y6.156 Z-0.390 F500
G1 X85.010 Y6.209 Z-0.390 F500
G1 X85.383 Y6.278 Z-0.390 F500
G1 X85.753 Y6.361 Z-0.390 F500
G1 X86.119 Y6.459 Z-0.390 F500
G1 X86.481 Y6.572 Z-0.390 F500
G1 X86.838 Y6.699 Z-0.390 F500
G1 X87.189 Y6.841 Z-0.390 F500
G1 X87.535 Y6.996 Z-0.390 F500
G1 X87.874 Y7.166 Z-0.390 F500
G1 X88.206 Y7.349 Z-0.390 F500
G1 X88.531 Y7.545 Z-0.390 F500
G1 X88.847 Y7.754 Z-0.390 F500
G1 X89.154 Y7.975 Z-0.390 F500
G1 X89.453 Y8.209 Z-0.390 F500
G1 X89.742 Y8.455 Z-0.390 F500
G1 X90.020 Y8.712 Z-0.390 F500
G1 X90.288 Y8.980 Z-0.390 F500
G1 X90.545 Y9.258 Z-0.390 F500
G1 X90.791 Y9.547 Z-0.390 F500
G1 X91.025 Y9.846 Z-0.390 F500
G1 X91.246 Y10.153 Z-0.390 F500
G1 X91.455 Y10.469 Z-0.390 F500
G1 X91.651 Y10.794 Z-0.390 F500
G1 X91.834 Y11.126 Z-0.390 F500
G1 X92.004 Y11.465 Z-0.390 F500
G1 X92.159 Y11.811 Z-0.390 F500
G1 X92.301 Y12.162 Z-0.390 F500
G1 X92.428 Y12.519 Z-0.390 F500
G1 X92.541 Y12.881 Z-0.390 F500
G1 X92.639 Y13.247 Z-0.390 F500
G1 X92.722 Y13.617 Z-0.390 F500
G1 X92.791 Y13.990 Z-0.390 F500
G1 X92.844 Y14.365 Z-0.390 F500
G1 X92.882 Y14.743 Z-0.390 F500
G1 X92.905 Y15.121 Z-0.390 F500
G1 X92.912 Y15.500 Z-0.390 F500
G1 X92.912 Y30.091 Z-0.390 F500
G1 X92.905 Y30.162 Z-0.390 F500
G1 X92.881 Y30.229 Z-0.390 F500
G1 X92.843 Y30.289 Z-0.390 F500
G1 X92.793 Y30.340 Z-0.390 F500
G1 X92.733 Y30.377 Z-0.390 F500
G1 X92.666 Y30.401 Z-0.390 F500
G1 X92.595 Y30.409 Z-0.390 F500
G1 X92.277 Y30.409 Z-0.390 F500
G1 X92.207 Y30.409 Z-0.382 F500
G1 X92.140 Y30.409 Z-0.359 F500
G1 X92.080 Y30.409 Z-0.321 F500
G1 X92.029 Y30.409 Z-0.270 F500
G1 X91.991 Y30.409 Z-0.210 F500
G1 X91.968 Y30.409 Z-0.143 F500
G1 X91.960 Y30.409 Z-0.073 F500
G1 X91.960 Y30.409 Z5.010 F500
G1 X91.960 Y29.774 Z5.010 F500
G1 X91.960 Y29.774 Z1.010 F500
G1 X91.960 Y29.774 Z0.245 F200
G1 X91.960 Y29.774 Z-0.173 F200
G1 X91.968 Y29.774 Z-0.243 F500
G1 X91.991 Y29.774 Z-0.310 F500
G1 X92.029 Y29.774 Z-0.370 F500
G1 X92.080 Y29.774 Z-0.421 F500
G1 X92.140 Y29.774 Z-0.459 F500
G1 X92.207 Y29.774 Z-0.482 F500
G1 X92.277 Y29.774 Z-0.490 F500
G1 X92.595 Y29.774 Z-0.490 F500
G1 X92.666 Y29.782 Z-0.490 F500
G1 X92.733 Y29.805 Z-0.490 F500
G1 X92.793 Y29.843 Z-0.490 F500
G1 X92.843 Y29.893 Z-0.490 F500
G1 X92.881 Y29.954 Z-0.490 F500
G1 X92.905 Y30.021 Z-0.490 F500
G1 X92.912 Y30.091 Z-0.490 F500
G1 X92.912 Y45.500 Z-0.490 F500
G1 X92.905 Y45.648 Z-0.490 F500
G1 X92.882 Y45.794 Z-0.490 F500
G1 X92.843 Y45.936 Z-0.490 F500
G1 X92.790 Y46.075 Z-0.490 F500
G1 X92.723 Y46.206 Z-0.490 F500
G1 X92.643 Y46.330 Z-0.490 F500
G1 X92.550 Y46.445 Z-0.490 F500
G1 X92.445 Y46.550 Z-0.490 F500
G1 X92.330 Y46.643 Z-0.490 F500
G1 X92.206 Y46.723 Z-0.490 F500
G1 X92.075 Y46.790 Z-0.490 F500
G1 X91.936 Y46.843 Z-0.490 F500
G1 X91.794 Y46.882 Z-0.490 F500
G1 X91.648 Y46.905 Z-0.490 F500
G1 X91.500 Y46.912 Z-0.490 F500
G1 X79.554 Y46.912 Z-0.490 F500
G1 X79.409 Y46.905 Z-0.490 F500
G1 X79.265 Y46.883 Z-0.490 F500
G1 X79.124 Y46.845 Z-0.490 F500
G1 X78.988 Y46.794 Z-0.490 F500
G1 X78.857 Y46.728 Z-0.490 F500
G1 X78.735 Y46.650 Z-0.490 F500
G1 X78.620 Y46.560 Z-0.490 F500
G1 X78.516 Y46.458 Z-0.490 F500
G1 X78.423 Y46.346 Z-0.490 F500
G1 X78.342 Y46.224 Z-0.490 F500
G1 X78.274 Y46.096 Z-0.490 F500
G1 X78.219 Y45.960 Z-0.490 F500
G1 X78.179 Y45.820 Z-0.490 F500
G1 X78.022 Y45.181 Z-0.490 F500
G1 X77.851 Y44.545 Z-0.490 F500
G1 X77.666 Y43.913 Z-0.490 F500
G1 X77.467 Y43.285 Z-0.490 F500
G1 X77.254 Y42.662 Z-0.490 F500
G1 X77.027 Y42.043 Z-0.490 F500
G1 X76.787 Y41.430 Z-0.490 F500
G1 X76.532 Y40.823 Z-0.490 F500
G1 X76.264 Y40.221 Z-0.490 F500
G1 X75.983 Y39.626 Z-0.490 F500
G1 X75.688 Y39.037 Z-0.490 F500
G1 X75.381 Y38.455 Z-0.490 F500
G1 X75.060 Y37.879 Z-0.490 F500
G1 X74.727 Y37.311 Z-0.490 F500
G1 X74.381 Y36.751 Z-0.490 F500
G1 X74.022 Y36.198 Z-0.490 F500
G1 X73.652 Y35.654 Z-0.490 F500
G1 X73.269 Y35.118 Z-0.490 F500
G1 X72.874 Y34.591 Z-0.490 F500
G1 X72.468 Y34.073 Z-0.490 F500
G1 X72.050 Y33.564 Z-0.490 F500
G1 X71.621 Y33.064 Z-0.490 F500
G1 X71.536 Y32.957 Z-0.490 F500
G1 X71.462 Y32.843 Z-0.490 F500
G1 X71.399 Y32.722 Z-0.490 F500
G1 X71.348 Y32.596 Z-0.490 F500
G1 X71.309 Y32.465 Z-0.490 F500
G1 X71.284 Y32.331 Z-0.490 F500
G1 X71.271 Y32.196 Z-0.490 F500
G1 X71.271 Y32.059 Z-0.490 F500
G1 X71.285 Y31.924 Z-0.490 F500
G1 X71.312 Y31.790 Z-0.490 F500
G1 X77.453 Y7.158 Z-0.490 F500
G1 X77.495 Y7.020 Z-0.490 F500
G1 X77.551 Y6.888 Z-0.490 F500
G1 X77.620 Y6.761 Z-0.490 F500
G1 X77.701 Y6.642 Z-0.490 F500
G1 X77.794 Y6.533 Z-0.490 F500
G1 X77.898 Y6.433 Z-0.490 F500
G1 X78.012 Y6.344 Z-0.490 F500
G1 X78.134 Y6.267 Z-0.490 F500
G1 X78.263 Y6.204 Z-0.490 F500
G1 X78.398 Y6.153 Z-0.490 F500
G1 X78.537 Y6.117 Z-0.490 F500
G1 X78.680 Y6.095 Z-0.490 F500
G1 X78.823 Y6.088 Z-0.490 F500
G1 X83.500 Y6.088 Z-0.490 F500
G1 X83.879 Y6.095 Z-0.490 F500
G1 X84.257 Y6.118 Z-0.490 F500
G1 X84.635 Y6.156 Z-0.490 F500
G1 X85.010 Y6.209 Z-0.490 F500
G1 X85.383 Y6.278 Z-0.490 F500
G1 X85.753 Y6.361 Z-0.490 F500
G1 X86.119 Y6.459 Z-0.490 F500
G1 X86.481 Y6.572 Z-0.490 F500
G1 X86.838 Y6.699 Z-0.490 F500
G1 X87.189 Y6.841 Z-0.490 F500
G1 X87.535 Y6.996 Z-0.490 F500
G1 X87.874 Y7.166 Z-0.490 F500
G1 X88.206 Y7.349 Z-0.490 F500
G1 X88.531 Y7.545 Z-0.490 F500
G1 X88.847 Y7.754 Z-0.490 F500
G1 X89.154 Y7.975 Z-0.490 F500
G1 X89.453 Y8.209 Z-0.490 F500
G1 X89.742 Y8.455 Z-0.490 F500
G1 X90.020 Y8.712 Z-0.490 F500
G1 X90.288 Y8.980 Z-0.490 F500
G1 X90.545 Y9.258 Z-0.490 F500
G1 X90.791 Y9.547 Z-0.490 F500
G1 X91.025 Y9.846 Z-0.490 F500
G1 X91.246 Y10.153 Z-0.490 F500
G1 X91.455 Y10.469 Z-0.490 F500
G1 X91.651 Y10.794 Z-0.490 F500
G1 X91.834 Y11.126 Z-0.490 F500
G1 X92.004 Y11.465 Z-0.490 F500
G1 X92.159 Y11.811 Z-0.490 F500
G1 X92.301 Y12.162 Z-0.490 F500
G1 X92.428 Y12.519 Z-0.490 F500
G1 X92.541 Y12.881 Z-0.490 F500
G1 X92.639 Y13.247 Z-0.490 F500
G1 X92.722 Y13.617 Z-0.490 F500
G1 X92.791 Y13.990 Z-0.490 F500
G1 X92.844 Y14.365 Z-0.490 F500
G1 X92.882 Y14.743 Z-0.490 F500
G1 X92.905 Y15.121 Z-0.490 F500
G1 X92.912 Y15.500 Z-0.490 F500
G1 X92.912 Y30.091 Z-0.490 F500
G1 X92.905 Y30.162 Z-0.490 F500
G1 X92.881 Y30.229 Z-0.490 F500
G1 X92.843 Y30.289 Z-0.490 F500
G1 X92.793 Y30.340 Z-0.490 F500
G1 X92.733 Y30.377 Z-0.490 F500
G1 X92.666 Y30.401 Z-0.490 F500
G1 X92.595 Y30.409 Z-0.490 F500
G1 X92.277 Y30.409 Z-0.490 F500
G1 X92.207 Y30.409 Z-0.482 F500
G1 X92.140 Y30.409 Z-0.459 F500
G1 X92.080 Y30.409 Z-0.421 F500
G1 X92.029 Y30.409 Z-0.370 F500
G1 X91.991 Y30.409 Z-0.310 F500
G1 X91.968 Y30.409 Z-0.243 F500
G1 X91.960 Y30.409 Z-0.173 F500
G1 X91.960 Y30.409 Z5.010 F500
G1 X91.960 Y29.774 Z5.010 F500
G1 X91.960 Y29.774 Z1.010 F500
G1 X91.960 Y29.774 Z0.145 F200
G1 X91.960 Y29.774 Z-0.273 F200
G1 X91.968 Y29.774 Z-0.343 F500
G1 X91.991 Y29.774 Z-0.410 F500
G1 X92.029 Y29.774 Z-0.470 F500
G1 X92.080 Y29.774 Z-0.521 F500
G1 X92.140 Y29.774 Z-0.559 F500
G1 X92.207 Y29.774 Z-0.582 F500
G1 X92.277 Y29.774 Z-0.590 F500
G1 X92.595 Y29.774 Z-0.590 F500
G1 X92.666 Y29.782 Z-0.590 F500
G1 X92.733 Y29.805 Z-0.590 F500
G1 X92.793 Y29.843 Z-0.590 F500
G1 X92.843 Y29.893 Z-0.590 F500
G1 X92.881 Y29.954 Z-0.590 F500
G1 X92.905 Y30.021 Z-0.590 F500
G1 X92.912 Y30.091 Z-0.590 F500
G1 X92.912 Y45.500 Z-0.590 F500
G1 X92.905 Y45.648 Z-0.590 F500
G1 X92.882 Y45.794 Z-0.590 F500
G1 X92.843 Y45.936 Z-0.590 F500
G1 X92.790 Y46.075 Z-0.590 F500
G1 X92.723 Y46.206 Z-0.590 F500
G1 X92.643 Y46.330 Z-0.590 F500
G1 X92.550 Y46.445 Z-0.590 F500
G1 X92.445 Y46.550 Z-0.590 F500
G1 X92.330 Y46.643 Z-0.590 F500
G1 X92.206 Y46.723 Z-0.590 F500
G1 X92.075 Y46.790 Z-0.590 F500
G1 X91.936 Y46.843 Z-0.590 F500
G1 X91.794 Y46.882 Z-0.590 F500
G1 X91.648 Y46.905 Z-0.590 F500
G1 X91.500 Y46.912 Z-0.590 F500
G1 X79.554 Y46.912 Z-0.590 F500
G1 X79.409 Y46.905 Z-0.590 F500
G1 X79.265 Y46.883 Z-0.590 F500
G1 X79.124 Y46.845 Z-0.590 F500
G1 X78.988 Y46.794 Z-0.590 F500
G1 X78.857 Y46.728 Z-0.590 F500
G1 X78.735 Y46.650 Z-0.590 F500
G1 X78.620 Y46.560 Z-0.590 F500
G1 X78.516 Y46.458 Z-0.590 F500
G1 X78.423 Y46.346 Z-0.590 F500
G1 X78.342 Y46.224 Z-0.590 F500
G1 X78.274 Y46.096 Z-0.590 F500
G1 X78.219 Y45.960 Z-0.590 F500
G1 X78.179 Y45.820 Z-0.590 F500
G1 X78.022 Y45.181 Z-0.590 F500
G1 X77.851 Y44.545 Z-0.590 F500
G1 X77.666 Y43.913 Z-0.590 F500
G1 X77.467 Y43.285 Z-0.590 F500
G1 X77.254 Y42.662 Z-0.590 F500
G1 X77.027 Y42.043 Z-0.590 F500
G1 X76.787 Y41.430 Z-0.590 F500
G1 X76.532 Y40.823 Z-0.590 F500
G1 X76.264 Y40.221 Z-0.590 F500
G1 X75.983 Y39.626 Z-0.590 F500
G1 X75.688 Y39.037 Z-0.590 F500
G1 X75.381 Y38.455 Z-0.590 F500
G1 X75.060 Y37.879 Z-0.590 F500
G1 X74.727 Y37.311 Z-0.590 F500
G1 X74.381 Y36.751 Z-0.590 F500
G1 X74.022 Y36.198 Z-0.590 F500
G1 X73.652 Y35.654 Z-0.590 F500
G1 X73.269 Y35.118 Z-0.590 F500
G1 X72.874 Y34.591 Z-0.590 F500
G1 X72.468 Y34.073 Z-0.590 F500
G1 X72.050 Y33.564 Z-0.590 F500
G1 X71.621 Y33.064 Z-0.590 F500
G1 X71.536 Y32.957 Z-0.590 F500
G1 X71.462 Y32.843 Z-0.590 F500
G1 X71.399 Y32.722 Z-0.590 F500
G1 X71.348 Y32.596 Z-0.590 F500
G1 X71.309 Y32.465 Z-0.590 F500
G1 X71.284 Y32.331 Z-0.590 F500
G1 X71.271 Y32.196 Z-0.590 F500
G1 X71.271 Y32.059 Z-0.590 F500
G1 X71.285 Y31.924 Z-0.590 F500
G1 X71.312 Y31.790 Z-0.590 F500
G1 X77.453 Y7.158 Z-0.590 F500
G1 X77.495 Y7.020 Z-0.590 F500
G1 X77.551 Y6.888 Z-0.590 F500
G1 X77.620 Y6.761 Z-0.590 F500
G1 X77.701 Y6.642 Z-0.590 F500
G1 X77.794 Y6.533 Z-0.590 F500
G1 X77.898 Y6.433 Z-0.590 F500
G1 X78.012 Y6.344 Z-0.590 F500
G1 X78.134 Y6.267 Z-0.590 F500
G1 X78.263 Y6.204 Z-0.590 F500
G1 X78.398 Y6.153 Z-0.590 F500
G1 X78.537 Y6.117 Z-0.590 F500
G1 X78.680 Y6.095 Z-0.590 F500
G1 X78.823 Y6.088 Z-0.590 F500
G1 X83.500 Y6.088 Z-0.590 F500
G1 X83.879 Y6.095 Z-0.590 F500
G1 X84.257 Y6.118 Z-0.590 F500
G1 X84.635 Y6.156 Z-0.590 F500
G1 X85.010 Y6.209 Z-0.590 F500
G1 X85.383 Y6.278 Z-0.590 F500
G1 X85.753 Y6.361 Z-0.590 F500
G1 X86.119 Y6.459 Z-0.590 F500
G1 X86.481 Y6.572 Z-0.590 F500
G1 X86.838 Y6.699 Z-0.590 F500
G1 X87.189 Y6.841 Z-0.590 F500
G1 X87.535 Y6.996 Z-0.590 F500
G1 X87.874 Y7.166 Z-0.590 F500
G1 X88.206 Y7.349 Z-0.590 F500
G1 X88.531 Y7.545 Z-0.590 F500
G1 X88.847 Y7.754 Z-0.590 F500
G1 X89.154 Y7.975 Z-0.590 F500
G1 X89.453 Y8.209 Z-0.590 F500
G1 X89.742 Y8.455 Z-0.590 F500
G1 X90.020 Y8.712 Z-0.590 F500
G1 X90.288 Y8.980 Z-0.590 F500
G1 X90.545 Y9.258 Z-0.590 F500
G1 X90.791 Y9.547 Z-0.590 F500
G1 X91.025 Y9.846 Z-0.590 F500
G1 X91.246 Y10.153 Z-0.590 F500
G1 X91.455 Y10.469 Z-0.590 F500
G1 X91.651 Y10.794 Z-0.590 F500
G1 X91.834 Y11.126 Z-0.590 F500
G1 X92.004 Y11.465 Z-0.590 F500
G1 X92.159 Y11.811 Z-0.590 F500
G1 X92.301 Y12.162 Z-0.590 F500
G1 X92.428 Y12.519 Z-0.590 F500
G1 X92.541 Y12.881 Z-0.590 F500
G1 X92.639 Y13.247 Z-0.590 F500
G1 X92.722 Y13.617 Z-0.590 F500
G1 X92.791 Y13.990 Z-0.590 F500
G1 X92.844 Y14.365 Z-0.590 F500
G1 X92.882 Y14.743 Z-0.590 F500
G1 X92.905 Y15.121 Z-0.590 F500
G1 X92.912 Y15.500 Z-0.590 F500
G1 X92.912 Y30.091 Z-0.590 F500
G1 X92.905 Y30.162 Z-0.590 F500
G1 X92.881 Y30.229 Z-0.590 F500
G1 X92.843 Y30.289 Z-0.590 F500
G1 X92.793 Y30.340 Z-0.590 F500
G1 X92.733 Y30.377 Z-0.590 F500
G1 X92.666 Y30.401 Z-0.590 F500
G1 X92.595 Y30.409 Z-0.590 F500
G1 X92.277 Y30.409 Z-0.590 F500
G1 X92.207 Y30.409 Z-0.582 F500
G1 X92.140 Y30.409 Z-0.559 F500
G1 X92.080 Y30.409 Z-0.521 F500
G1 X92.029 Y30.409 Z-0.470 F500
G1 X91.991 Y30.409 Z-0.410 F500
G1 X91.968 Y30.409 Z-0.343 F500
G1 X91.960 Y30.409 Z-0.273 F500
G1 X91.960 Y30.409 Z5.010 F500
G1 X91.960 Y29.774 Z5.010 F500
G1 X91.960 Y29.774 Z1.010 F500
G1 X91.960 Y29.774 Z0.045 F200
G1 X91.960 Y29.774 Z-0.373 F200
G1 X91.968 Y29.774 Z-0.443 F500
G1 X91.991 Y29.774 Z-0.510 F500
G1 X92.029 Y29.774 Z-0.570 F500
G1 X92.080 Y29.774 Z-0.621 F500
G1 X92.140 Y29.774 Z-0.659 F500
G1 X92.207 Y29.774 Z-0.682 F500
G1 X92.277 Y29.774 Z-0.690 F500
G1 X92.595 Y29.774 Z-0.690 F500
G1 X92.666 Y29.782 Z-0.690 F500
G1 X92.733 Y29.805 Z-0.690 F500
G1 X92.793 Y29.843 Z-0.690 F500
G1 X92.843 Y29.893 Z-0.690 F500
G1 X92.881 Y29.954 Z-0.690 F500
G1 X92.905 Y30.021 Z-0.690 F500
G1 X92.912 Y30.091 Z-0.690 F500
G1 X92.912 Y45.500 Z-0.690 F500
G1 X92.905 Y45.648 Z-0.690 F500
G1 X92.882 Y45.794 Z-0.690 F500
G1 X92.843 Y45.936 Z-0.690 F500
G1 X92.790 Y46.075 Z-0.690 F500
G1 X92.723 Y46.206 Z-0.690 F500
G1 X92.643 Y46.330 Z-0.690 F500
G1 X92.550 Y46.445 Z-0.690 F500
G1 X92.445 Y46.550 Z-0.690 F500
G1 X92.330 Y46.643 Z-0.690 F500
G1 X92.206 Y46.723 Z-0.690 F500
G1 X92.075 Y46.790 Z-0.690 F500
G1 X91.936 Y46.843 Z-0.690 F500
G1 X91.794 Y46.882 Z-0.690 F500
G1 X91.648 Y46.905 Z-0.690 F500
G1 X91.500 Y46.912 Z-0.690 F500
G1 X79.554 Y46.912 Z-0.690 F500
G1 X79.409 Y46.905 Z-0.690 F500
G1 X79.265 Y46.883 Z-0.690 F500
G1 X79.124 Y46.845 Z-0.690 F500
G1 X78.988 Y46.794 Z-0.690 F500
G1 X78.857 Y46.728 Z-0.690 F500
G1 X78.735 Y46.650 Z-0.690 F500
G1 X78.620 Y46.560 Z-0.690 F500
G1 X78.516 Y46.458 Z-0.690 F500
G1 X78.423 Y46.346 Z-0.690 F500
G1 X78.342 Y46.224 Z-0.690 F500
G1 X78.274 Y46.096 Z-0.690 F500
G1 X78.219 Y45.960 Z-0.690 F500
G1 X78.179 Y45.820 Z-0.690 F500
G1 X78.022 Y45.181 Z-0.690 F500
G1 X77.851 Y44.545 Z-0.690 F500
G1 X77.666 Y43.913 Z-0.690 F500
G1 X77.467 Y43.285 Z-0.690 F500
G1 X77.254 Y42.662 Z-0.690 F500
G1 X77.027 Y42.043 Z-0.690 F500
G1 X76.787 Y41.430 Z-0.690 F500
G1 X76.532 Y40.823 Z-0.690 F500
G1 X76.264 Y40.221 Z-0.690 F500
G1 X75.983 Y39.626 Z-0.690 F500
G1 X75.688 Y39.037 Z-0.690 F500
G1 X75.381 Y38.455 Z-0.690 F500
G1 X75.060 Y37.879 Z-0.690 F500
G1 X74.727 Y37.311 Z-0.690 F500
G1 X74.381 Y36.751 Z-0.690 F500
G1 X74.022 Y36.198 Z-0.690 F500
G1 X73.652 Y35.654 Z-0.690 F500
G1 X73.269 Y35.118 Z-0.690 F500
G1 X72.874 Y34.591 Z-0.690 F500
G1 X72.468 Y34.073 Z-0.690 F500
G1 X72.050 Y33.564 Z-0.690 F500
G1 X71.621 Y33.064 Z-0.690 F500
G1 X71.536 Y32.957 Z-0.690 F500
G1 X71.462 Y32.843 Z-0.690 F500
G1 X71.399 Y32.722 Z-0.690 F500
G1 X71.348 Y32.596 Z-0.690 F500
G1 X71.309 Y32.465 Z-0.690 F500
G1 X71.284 Y32.331 Z-0.690 F500
G1 X71.271 Y32.196 Z-0.690 F500
G1 X71.271 Y32.059 Z-0.690 F500
G1 X71.285 Y31.924 Z-0.690 F500
G1 X71.312 Y31.790 Z-0.690 F500
G1 X77.453 Y7.158 Z-0.690 F500
G1 X77.495 Y7.020 Z-0.690 F500
G1 X77.551 Y6.888 Z-0.690 F500
G1 X77.620 Y6.761 Z-0.690 F500
G1 X77.701 Y6.642 Z-0.690 F500
G1 X77.794 Y6.533 Z-0.690 F500
G1 X77.898 Y6.433 Z-0.690 F500
G1 X78.012 Y6.344 Z-0.690 F500
G1 X78.134 Y6.267 Z-0.690 F500
G1 X78.263 Y6.204 Z-0.690 F500
G1 X78.398 Y6.153 Z-0.690 F500
G1 X78.537 Y6.117 Z-0.690 F500
G1 X78.680 Y6.095 Z-0.690 F500
G1 X78.823 Y6.088 Z-0.690 F500
G1 X83.500 Y6.088 Z-0.690 F500
G1 X83.879 Y6.095 Z-0.690 F500
G1 X84.257 Y6.118 Z-0.690 F500
G1 X84.635 Y6.156 Z-0.690 F500
G1 X85.010 Y6.209 Z-0.690 F500
G1 X85.383 Y6.278 Z-0.690 F500
G1 X85.753 Y6.361 Z-0.690 F500
G1 X86.119 Y6.459 Z-0.690 F500
G1 X86.481 Y6.572 Z-0.690 F500
G1 X86.838 Y6.699 Z-0.690 F500
G1 X87.189 Y6.841 Z-0.690 F500
G1 X87.535 Y6.996 Z-0.690 F500
G1 X87.874 Y7.166 Z-0.690 F500
G1 X88.206 Y7.349 Z-0.690 F500
G1 X88.531 Y7.545 Z-0.690 F500
G1 X88.847 Y7.754 Z-0.690 F500
G1 X89.154 Y7.975 Z-0.690 F500
G1 X89.453 Y8.209 Z-0.690 F500
G1 X89.742 Y8.455 Z-0.690 F500
G1 X90.020 Y8.712 Z-0.690 F500
G1 X90.288 Y8.980 Z-0.690 F500
G1 X90.545 Y9.258 Z-0.690 F500
G1 X90.791 Y9.547 Z-0.690 F500
G1 X91.025 Y9.846 Z-0.690 F500
G1 X91.246 Y10.153 Z-0.690 F500
G1 X91.455 Y10.469 Z-0.690 F500
G1 X91.651 Y10.794 Z-0.690 F500
G1 X91.834 Y11.126 Z-0.690 F500
G1 X92.004 Y11.465 Z-0.690 F500
G1 X92.159 Y11.811 Z-0.690 F500
G1 X92.301 Y12.162 Z-0.690 F500
G1 X92.428 Y12.519 Z-0.690 F500
G1 X92.541 Y12.881 Z-0.690 F500
G1 X92.639 Y13.247 Z-0.690 F500
G1 X92.722 Y13.617 Z-0.690 F500
G1 X92.791 Y13.990 Z-0.690 F500
G1 X92.844 Y14.365 Z-0.690 F500
G1 X92.882 Y14.743 Z-0.690 F500
G1 X92.905 Y15.121 Z-0.690 F500
G1 X92.912 Y15.500 Z-0.690 F500
G1 X92.912 Y30.091 Z-0.690 F500
G1 X92.905 Y30.162 Z-0.690 F500
G1 X92.881 Y30.229 Z-0.690 F500
G1 X92.843 Y30.289 Z-0.690 F500
G1 X92.793 Y30.340 Z-0.690 F500
G1 X92.733 Y30.377 Z-0.690 F500
G1 X92.666 Y30.401 Z-0.690 F500
G1 X92.595 Y30.409 Z-0.690 F500
G1 X92.277 Y30.409 Z-0.690 F500
G1 X92.207 Y30.409 Z-0.682 F500
G1 X92.140 Y30.409 Z-0.659 F500
G1 X92.080 Y30.409 Z-0.621 F500
G1 X92.029 Y30.409 Z-0.570 F500
G1 X91.991 Y30.409 Z-0.510 F500
G1 X91.968 Y30.409 Z-0.443 F500
G1 X91.960 Y30.409 Z-0.373 F500
G1 X91.960 Y30.409 Z5.010 F500
G1 X91.960 Y29.774 Z5.010 F500
G1 X91.960 Y29.774 Z1.010 F500
G1 X91.960 Y29.774 Z-0.055 F200
G1 X91.960 Y29.774 Z-0.473 F200
G1 X91.968 Y29.774 Z-0.543 F500
G1 X91.991 Y29.774 Z-0.610 F500
G1 X92.029 Y29.774 Z-0.670 F500
G1 X92.080 Y29.774 Z-0.721 F500
G1 X92.140 Y29.774 Z-0.759 F500
G1 X92.207 Y29.774 Z-0.782 F500
G1 X92.277 Y29.774 Z-0.790 F500
G1 X92.595 Y29.774 Z-0.790 F500
G1 X92.666 Y29.782 Z-0.790 F500
G1 X92.733 Y29.805 Z-0.790 F500
G1 X92.793 Y29.843 Z-0.790 F500
G1 X92.843 Y29.893 Z-0.790 F500
G1 X92.881 Y29.954 Z-0.790 F500
G1 X92.905 Y30.021 Z-0.790 F500
G1 X92.912 Y30.091 Z-0.790 F500
G1 X92.912 Y45.500 Z-0.790 F500
G1 X92.905 Y45.648 Z-0.790 F500
G1 X92.882 Y45.794 Z-0.790 F500
G1 X92.843 Y45.936 Z-0.790 F500
G1 X92.790 Y46.075 Z-0.790 F500
G1 X92.723 Y46.206 Z-0.790 F500
G1 X92.643 Y46.330 Z-0.790 F500
G1 X92.550 Y46.445 Z-0.790 F500
G1 X92.445 Y46.550 Z-0.790 F500
G1 X92.330 Y46.643 Z-0.790 F500
G1 X92.206 Y46.723 Z-0.790 F500
G1 X92.075 Y46.790 Z-0.790 F500
G1 X91.936 Y46.843 Z-0.790 F500
G1 X91.794 Y46.882 Z-0.790 F500
G1 X91.648 Y46.905 Z-0.790 F500
G1 X91.500 Y46.912 Z-0.790 F500
G1 X79.554 Y46.912 Z-0.790 F500
G1 X79.409 Y46.905 Z-0.790 F500
G1 X79.265 Y46.883 Z-0.790 F500
G1 X79.124 Y46.845 Z-0.790 F500
G1 X78.988 Y46.794 Z-0.790 F500
G1 X78.857 Y46.728 Z-0.790 F500
G1 X78.735 Y46.650 Z-0.790 F500
G1 X78.620 Y46.560 Z-0.790 F500
G1 X78.516 Y46.458 Z-0.790 F500
G1 X78.423 Y46.346 Z-0.790 F500
G1 X78.342 Y46.224 Z-0.790 F500
G1 X78.274 Y46.096 Z-0.790 F500
G1 X78.219 Y45.960 Z-0.790 F500
G1 X78.179 Y45.820 Z-0.790 F500
G1 X78.022 Y45.181 Z-0.790 F500
G1 X77.851 Y44.545 Z-0.790 F500
G1 X77.666 Y43.913 Z-0.790 F500
G1 X77.467 Y43.285 Z-0.790 F500
G1 X77.254 Y42.662 Z-0.790 F500
G1 X77.027 Y42.043 Z-0.790 F500
G1 X76.787 Y41.430 Z-0.790 F500
G1 X76.532 Y40.823 Z-0.790 F500
G1 X76.264 Y40.221 Z-0.790 F500
G1 X75.983 Y39.626 Z-0.790 F500
G1 X75.688 Y39.037 Z-0.790 F500
G1 X75.381 Y38.455 Z-0.790 F500
G1 X75.060 Y37.879 Z-0.790 F500
G1 X74.727 Y37.311 Z-0.790 F500
G1 X74.381 Y36.751 Z-0.790 F500
G1 X74.022 Y36.198 Z-0.790 F500
G1 X73.652 Y35.654 Z-0.790 F500
G1 X73.269 Y35.118 Z-0.790 F500
G1 X72.874 Y34.591 Z-0.790 F500
G1 X72.468 Y34.073 Z-0.790 F500
G1 X72.050 Y33.564 Z-0.790 F500
G1 X71.621 Y33.064 Z-0.790 F500
G1 X71.536 Y32.957 Z-0.790 F500
G1 X71.462 Y32.843 Z-0.790 F500
G1 X71.399 Y32.722 Z-0.790 F500
G1 X71.348 Y32.596 Z-0.790 F500
G1 X71.309 Y32.465 Z-0.790 F500
G1 X71.284 Y32.331 Z-0.790 F500
G1 X71.271 Y32.196 Z-0.790 F500
G1 X71.271 Y32.059 Z-0.790 F500
G1 X71.285 Y31.924 Z-0.790 F500
G1 X71.312 Y31.790 Z-0.790 F500
G1 X77.453 Y7.158 Z-0.790 F500
G1 X77.495 Y7.020 Z-0.790 F500
G1 X77.551 Y6.888 Z-0.790 F500
G1 X77.620 Y6.761 Z-0.790 F500
G1 X77.701 Y6.642 Z-0.790 F500
G1 X77.794 Y6.533 Z-0.790 F500
G1 X77.898 Y6.433 Z-0.790 F500
G1 X78.012 Y6.344 Z-0.790 F500
G1 X78.134 Y6.267 Z-0.790 F500
G1 X78.263 Y6.204 Z-0.790 F500
G1 X78.398 Y6.153 Z-0.790 F500
G1 X78.537 Y6.117 Z-0.790 F500
G1 X78.680 Y6.095 Z-0.790 F500
G1 X78.823 Y6.088 Z-0.790 F500
G1 X83.500 Y6.088 Z-0.790 F500
G1 X83.879 Y6.095 Z-0.790 F500
G1 X84.257 Y6.118 Z-0.790 F500
G1 X84.635 Y6.156 Z-0.790 F500
G1 X85.010 Y6.209 Z-0.790 F500
G1 X85.383 Y6.278 Z-0.790 F500
G1 X85.753 Y6.361 Z-0.790 F500
G1 X86.119 Y6.459 Z-0.790 F500
G1 X86.481 Y6.572 Z-0.790 F500
G1 X86.838 Y6.699 Z-0.790 F500
G1 X87.189 Y6.841 Z-0.790 F500
G1 X87.535 Y6.996 Z-0.790 F500
G1 X87.874 Y7.166 Z-0.790 F500
G1 X88.206 Y7.349 Z-0.790 F500
G1 X88.531 Y7.545 Z-0.790 F500
G1 X88.847 Y7.754 Z-0.790 F500
G1 X89.154 Y7.975 Z-0.790 F500
G1 X89.453 Y8.209 Z-0.790 F500
G1 X89.742 Y8.455 Z-0.790 F500
G1 X90.020 Y8.712 Z-0.790 F500
G1 X90.288 Y8.980 Z-0.790 F500
G1 X90.545 Y9.258 Z-0.790 F500
G1 X90.791 Y9.547 Z-0.790 F500
G1 X91.025 Y9.846 Z-0.790 F500
G1 X91.246 Y10.153 Z-0.790 F500
G1 X91.455 Y10.469 Z-0.790 F500
G1 X91.651 Y10.794 Z-0.790 F500
G1 X91.834 Y11.126 Z-0.790 F500
G1 X92.004 Y11.465 Z-0.790 F500
G1 X92.159 Y11.811 Z-0.790 F500
G1 X92.301 Y12.162 Z-0.790 F500
G1 X92.428 Y12.519 Z-0.790 F500
G1 X92.541 Y12.881 Z-0.790 F500
G1 X92.639 Y13.247 Z-0.790 F500
G1 X92.722 Y13.617 Z-0.790 F500
G1 X92.791 Y13.990 Z-0.790 F500
G1 X92.844 Y14.365 Z-0.790 F500
G1 X92.882 Y14.743 Z-0.790 F500
G1 X92.905 Y15.121 Z-0.790 F500
G1 X92.912 Y15.500 Z-0.790 F500
G1 X92.912 Y30.091 Z-0.790 F500
G1 X92.905 Y30.162 Z-0.790 F500
G1 X92.881 Y30.229 Z-0.790 F500
G1 X92.843 Y30.289 Z-0.790 F500
G1 X92.793 Y30.340 Z-0.790 F500
G1 X92.733 Y30.377 Z-0.790 F500
G1 X92.666 Y30.401 Z-0.790 F500
G1 X92.595 Y30.409 Z-0.790 F500
G1 X92.277 Y30.409 Z-0.790 F500
G1 X92.207 Y30.409 Z-0.782 F500
G1 X92.140 Y30.409 Z-0.759 F500
G1 X92.080 Y30.409 Z-0.721 F500
G1 X92.029 Y30.409 Z-0.670 F500
G1 X91.991 Y30.409 Z-0.610 F500
G1 X91.968 Y30.409 Z-0.543 F500
G1 X91.960 Y30.409 Z-0.473 F500
G1 X91.960 Y30.409 Z5.010 F500
G1 X91.960 Y29.774 Z5.010 F500
G1 X91.960 Y29.774 Z1.010 F500
G1 X91.960 Y29.774 Z-0.155 F200
G1 X91.960 Y29.774 Z-0.573 F200
G1 X91.968 Y29.774 Z-0.643 F500
G1 X91.991 Y29.774 Z-0.710 F500
G1 X92.029 Y29.774 Z-0.770 F500
G1 X92.080 Y29.774 Z-0.821 F500
G1 X92.140 Y29.774 Z-0.859 F500
G1 X92.207 Y29.774 Z-0.882 F500
G1 X92.277 Y29.774 Z-0.890 F500
G1 X92.595 Y29.774 Z-0.890 F500
G1 X92.666 Y29.782 Z-0.890 F500
G1 X92.733 Y29.805 Z-0.890 F500
G1 X92.793 Y29.843 Z-0.890 F500
G1 X92.843 Y29.893 Z-0.890 F500
G1 X92.881 Y29.954 Z-0.890 F500
G1 X92.905 Y30.021 Z-0.890 F500
G1 X92.912 Y30.091 Z-0.890 F500
G1 X92.912 Y45.500 Z-0.890 F500
G1 X92.905 Y45.648 Z-0.890 F500
G1 X92.882 Y45.794 Z-0.890 F500
G1 X92.843 Y45.936 Z-0.890 F500
G1 X92.790 Y46.075 Z-0.890 F500
G1 X92.723 Y46.206 Z-0.890 F500
G1 X92.643 Y46.330 Z-0.890 F500
G1 X92.550 Y46.445 Z-0.890 F500
G1 X92.445 Y46.550 Z-0.890 F500
G1 X92.330 Y46.643 Z-0.890 F500
G1 X92.206 Y46.723 Z-0.890 F500
G1 X92.075 Y46.790 Z-0.890 F500
G1 X91.936 Y46.843 Z-0.890 F500
G1 X91.794 Y46.882 Z-0.890 F500
G1 X91.648 Y46.905 Z-0.890 F500
G1 X91.500 Y46.912 Z-0.890 F500
G1 X79.554 Y46.912 Z-0.890 F500
G1 X79.409 Y46.905 Z-0.890 F500
G1 X79.265 Y46.883 Z-0.890 F500
G1 X79.124 Y46.845 Z-0.890 F500
G1 X78.988 Y46.794 Z-0.890 F500
G1 X78.857 Y46.728 Z-0.890 F500
G1 X78.735 Y46.650 Z-0.890 F500
G1 X78.620 Y46.560 Z-0.890 F500
G1 X78.516 Y46.458 Z-0.890 F500
G1 X78.423 Y46.346 Z-0.890 F500
G1 X78.342 Y46.224 Z-0.890 F500
G1 X78.274 Y46.096 Z-0.890 F500
G1 X78.219 Y45.960 Z-0.890 F500
G1 X78.179 Y45.820 Z-0.890 F500
G1 X78.022 Y45.181 Z-0.890 F500
G1 X77.851 Y44.545 Z-0.890 F500
G1 X77.666 Y43.913 Z-0.890 F500
G1 X77.467 Y43.285 Z-0.890 F500
G1 X77.254 Y42.662 Z-0.890 F500
G1 X77.027 Y42.043 Z-0.890 F500
G1 X76.787 Y41.430 Z-0.890 F500
G1 X76.532 Y40.823 Z-0.890 F500
G1 X76.264 Y40.221 Z-0.890 F500
G1 X75.983 Y39.626 Z-0.890 F500
G1 X75.688 Y39.037 Z-0.890 F500
G1 X75.381 Y38.455 Z-0.890 F500
G1 X75.060 Y37.879 Z-0.890 F500
G1 X74.727 Y37.311 Z-0.890 F500
G1 X74.381 Y36.751 Z-0.890 F500
G1 X74.022 Y36.198 Z-0.890 F500
G1 X73.652 Y35.654 Z-0.890 F500
G1 X73.269 Y35.118 Z-0.890 F500
G1 X72.874 Y34.591 Z-0.890 F500
G1 X72.468 Y34.073 Z-0.890 F500
G1 X72.050 Y33.564 Z-0.890 F500
G1 X71.621 Y33.064 Z-0.890 F500
G1 X71.536 Y32.957 Z-0.890 F500
G1 X71.462 Y32.843 Z-0.890 F500
G1 X71.399 Y32.722 Z-0.890 F500
G1 X71.348 Y32.596 Z-0.890 F500
G1 X71.309 Y32.465 Z-0.890 F500
G1 X71.284 Y32.331 Z-0.890 F500
G1 X71.271 Y32.196 Z-0.890 F500
G1 X71.271 Y32.059 Z-0.890 F500
G1 X71.285 Y31.924 Z-0.890 F500
G1 X71.312 Y31.790 Z-0.890 F500
G1 X77.453 Y7.158 Z-0.890 F500
G1 X77.495 Y7.020 Z-0.890 F500
G1 X77.551 Y6.888 Z-0.890 F500
G1 X77.620 Y6.761 Z-0.890 F500
G1 X77.701 Y6.642 Z-0.890 F500
G1 X77.794 Y6.533 Z-0.890 F500
G1 X77.898 Y6.433 Z-0.890 F500
G1 X78.012 Y6.344 Z-0.890 F500
G1 X78.134 Y6.267 Z-0.890 F500
G1 X78.263 Y6.204 Z-0.890 F500
G1 X78.398 Y6.153 Z-0.890 F500
G1 X78.537 Y6.117 Z-0.890 F500
G1 X78.680 Y6.095 Z-0.890 F500
G1 X78.823 Y6.088 Z-0.890 F500
G1 X83.500 Y6.088 Z-0.890 F500
G1 X83.879 Y6.095 Z-0.890 F500
G1 X84.257 Y6.118 Z-0.890 F500
G1 X84.635 Y6.156 Z-0.890 F500
G1 X85.010 Y6.209 Z-0.890 F500
G1 X85.383 Y6.278 Z-0.890 F500
G1 X85.753 Y6.361 Z-0.890 F500
G1 X86.119 Y6.459 Z-0.890 F500
G1 X86.481 Y6.572 Z-0.890 F500
G1 X86.838 Y6.699 Z-0.890 F500
G1 X87.189 Y6.841 Z-0.890 F500
G1 X87.535 Y6.996 Z-0.890 F500
G1 X87.874 Y7.166 Z-0.890 F500
G1 X88.206 Y7.349 Z-0.890 F500
G1 X88.531 Y7.545 Z-0.890 F500
G1 X88.847 Y7.754 Z-0.890 F500
G1 X89.154 Y7.975 Z-0.890 F500
G1 X89.453 Y8.209 Z-0.890 F500
G1 X89.742 Y8.455 Z-0.890 F500
G1 X90.020 Y8.712 Z-0.890 F500
G1 X90.288 Y8.980 Z-0.890 F500
G1 X90.545 Y9.258 Z-0.890 F500
G1 X90.791 Y9.547 Z-0.890 F500
G1 X91.025 Y9.846 Z-0.890 F500
G1 X91.246 Y10.153 Z-0.890 F500
G1 X91.455 Y10.469 Z-0.890 F500
G1 X91.651 Y10.794 Z-0.890 F500
G1 X91.834 Y11.126 Z-0.890 F500
G1 X92.004 Y11.465 Z-0.890 F500
G1 X92.159 Y11.811 Z-0.890 F500
G1 X92.301 Y12.162 Z-0.890 F500
G1 X92.428 Y12.519 Z-0.890 F500
G1 X92.541 Y12.881 Z-0.890 F500
G1 X92.639 Y13.247 Z-0.890 F500
G1 X92.722 Y13.617 Z-0.890 F500
G1 X92.791 Y13.990 Z-0.890 F500
G1 X92.844 Y14.365 Z-0.890 F500
G1 X92.882 Y14.743 Z-0.890 F500
G1 X92.905 Y15.121 Z-0.890 F500
G1 X92.912 Y15.500 Z-0.890 F500
G1 X92.912 Y30.091 Z-0.890 F500
G1 X92.905 Y30.162 Z-0.890 F500
G1 X92.881 Y30.229 Z-0.890 F500
G1 X92.843 Y30.289 Z-0.890 F500
G1 X92.793 Y30.340 Z-0.890 F500
G1 X92.733 Y30.377 Z-0.890 F500
G1 X92.666 Y30.401 Z-0.890 F500
G1 X92.595 Y30.409 Z-0.890 F500
G1 X92.277 Y30.409 Z-0.890 F500
G1 X92.207 Y30.409 Z-0.882 F500
G1 X92.140 Y30.409 Z-0.859 F500
G1 X92.080 Y30.409 Z-0.821 F500
G1 X92.029 Y30.409 Z-0.770 F500
G1 X91.991 Y30.409 Z-0.710 F500
G1 X91.968 Y30.409 Z-0.643 F500
G1 X91.960 Y30.409 Z-0.573 F500
G1 X91.960 Y30.409 Z5.010 F500
G1 X91.960 Y29.774 Z5.010 F500
G1 X91.960 Y29.774 Z1.010 F500
G1 X91.960 Y29.774 Z-0.255 F200
G1 X91.960 Y29.774 Z-0.673 F200
G1 X91.968 Y29.774 Z-0.743 F500
G1 X91.991 Y29.774 Z-0.810 F500
G1 X92.029 Y29.774 Z-0.870 F500
G1 X92.080 Y29.774 Z-0.921 F500
G1 X92.140 Y29.774 Z-0.959 F500
G1 X92.207 Y29.774 Z-0.982 F500
G1 X92.277 Y29.774 Z-0.990 F500
G1 X92.595 Y29.774 Z-0.990 F500
G1 X92.666 Y29.782 Z-0.990 F500
G1 X92.733 Y29.805 Z-0.990 F500
G1 X92.793 Y29.843 Z-0.990 F500
G1 X92.843 Y29.893 Z-0.990 F500
G1 X92.881 Y29.954 Z-0.990 F500
G1 X92.905 Y30.021 Z-0.990 F500
G1 X92.912 Y30.091 Z-0.990 F500
G1 X92.912 Y45.500 Z-0.990 F500
G1 X92.905 Y45.648 Z-0.990 F500
G1 X92.882 Y45.794 Z-0.990 F500
G1 X92.843 Y45.936 Z-0.990 F500
G1 X92.790 Y46.075 Z-0.990 F500
G1 X92.723 Y46.206 Z-0.990 F500
G1 X92.643 Y46.330 Z-0.990 F500
G1 X92.550 Y46.445 Z-0.990 F500
G1 X92.445 Y46.550 Z-0.990 F500
G1 X92.330 Y46.643 Z-0.990 F500
G1 X92.206 Y46.723 Z-0.990 F500
G1 X92.075 Y46.790 Z-0.990 F500
G1 X91.936 Y46.843 Z-0.990 F500
G1 X91.794 Y46.882 Z-0.990 F500
G1 X91.648 Y46.905 Z-0.990 F500
G1 X91.500 Y46.912 Z-0.990 F500
G1 X79.554 Y46.912 Z-0.990 F500
G1 X79.409 Y46.905 Z-0.990 F500
G1 X79.265 Y46.883 Z-0.990 F500
G1 X79.124 Y46.845 Z-0.990 F500
G1 X78.988 Y46.794 Z-0.990 F500
G1 X78.857 Y46.728 Z-0.990 F500
G1 X78.735 Y46.650 Z-0.990 F500
G1 X78.620 Y46.560 Z-0.990 F500
G1 X78.516 Y46.458 Z-0.990 F500
G1 X78.423 Y46.346 Z-0.990 F500
G1 X78.342 Y46.224 Z-0.990 F500
G1 X78.274 Y46.096 Z-0.990 F500
G1 X78.219 Y45.960 Z-0.990 F500
G1 X78.179 Y45.820 Z-0.990 F500
G1 X78.022 Y45.181 Z-0.990 F500
G1 X77.851 Y44.545 Z-0.990 F500
G1 X77.666 Y43.913 Z-0.990 F500
G1 X77.467 Y43.285 Z-0.990 F500
G1 X77.254 Y42.662 Z-0.990 F500
G1 X77.027 Y42.043 Z-0.990 F500
G1 X76.787 Y41.430 Z-0.990 F500
G1 X76.532 Y40.823 Z-0.990 F500
G1 X76.264 Y40.221 Z-0.990 F500
G1 X75.983 Y39.626 Z-0.990 F500
G1 X75.688 Y39.037 Z-0.990 F500
G1 X75.381 Y38.455 Z-0.990 F500
G1 X75.060 Y37.879 Z-0.990 F500
G1 X74.727 Y37.311 Z-0.990 F500
G1 X74.381 Y36.751 Z-0.990 F500
G1 X74.022 Y36.198 Z-0.990 F500
G1 X73.652 Y35.654 Z-0.990 F500
G1 X73.269 Y35.118 Z-0.990 F500
G1 X72.874 Y34.591 Z-0.990 F500
G1 X72.468 Y34.073 Z-0.990 F500
G1 X72.050 Y33.564 Z-0.990 F500
G1 X71.621 Y33.064 Z-0.990 F500
G1 X71.536 Y32.957 Z-0.990 F500
G1 X71.462 Y32.843 Z-0.990 F500
G1 X71.399 Y32.722 Z-0.990 F500
G1 X71.348 Y32.596 Z-0.990 F500
G1 X71.309 Y32.465 Z-0.990 F500
G1 X71.284 Y32.331 Z-0.990 F500
G1 X71.271 Y32.196 Z-0.990 F500
G1 X71.271 Y32.059 Z-0.990 F500
G1 X71.285 Y31.924 Z-0.990 F500
G1 X71.312 Y31.790 Z-0.990 F500
G1 X77.453 Y7.158 Z-0.990 F500
G1 X77.495 Y7.020 Z-0.990 F500
G1 X77.551 Y6.888 Z-0.990 F500
G1 X77.620 Y6.761 Z-0.990 F500
G1 X77.701 Y6.642 Z-0.990 F500
G1 X77.794 Y6.533 Z-0.990 F500
G1 X77.898 Y6.433 Z-0.990 F500
G1 X78.012 Y6.344 Z-0.990 F500
G1 X78.134 Y6.267 Z-0.990 F500
G1 X78.263 Y6.204 Z-0.990 F500
G1 X78.398 Y6.153 Z-0.990 F500
G1 X78.537 Y6.117 Z-0.990 F500
G1 X78.680 Y6.095 Z-0.990 F500
G1 X78.823 Y6.088 Z-0.990 F500
G1 X83.500 Y6.088 Z-0.990 F500
G1 X83.879 Y6.095 Z-0.990 F500
G1 X84.257 Y6.118 Z-0.990 F500
G1 X84.635 Y6.156 Z-0.990 F500
G1 X85.010 Y6.209 Z-0.990 F500
G1 X85.383 Y6.278 Z-0.990 F500
G1 X85.753 Y6.361 Z-0.990 F500
G1 X86.119 Y6.459 Z-0.990 F500
G1 X86.481 Y6.572 Z-0.990 F500
G1 X86.838 Y6.699 Z-0.990 F500
G1 X87.189 Y6.841 Z-0.990 F500
G1 X87.535 Y6.996 Z-0.990 F500
G1 X87.874 Y7.166 Z-0.990 F500
G1 X88.206 Y7.349 Z-0.990 F500
G1 X88.531 Y7.545 Z-0.990 F500
G1 X88.847 Y7.754 Z-0.990 F500
G1 X89.154 Y7.975 Z-0.990 F500
G1 X89.453 Y8.209 Z-0.990 F500
G1 X89.742 Y8.455 Z-0.990 F500
G1 X90.020 Y8.712 Z-0.990 F500
G1 X90.288 Y8.980 Z-0.990 F500
G1 X90.545 Y9.258 Z-0.990 F500
G1 X90.791 Y9.547 Z-0.990 F500
G1 X91.025 Y9.846 Z-0.990 F500
G1 X91.246 Y10.153 Z-0.990 F500
G1 X91.455 Y10.469 Z-0.990 F500
G1 X91.651 Y10.794 Z-0.990 F500
G1 X91.834 Y11.126 Z-0.990 F500
G1 X92.004 Y11.465 Z-0.990 F500
G1 X92.159 Y11.811 Z-0.990 F500
G1 X92.301 Y12.162 Z-0.990 F500
G1 X92.428 Y12.519 Z-0.990 F500
G1 X92.541 Y12.881 Z-0.990 F500
G1 X92.639 Y13.247 Z-0.990 F500
G1 X92.722 Y13.617 Z-0.990 F500
G1 X92.791 Y13.990 Z-0.990 F500
G1 X92.844 Y14.365 Z-0.990 F500
G1 X92.882 Y14.743 Z-0.990 F500
G1 X92.905 Y15.121 Z-0.990 F500
G1 X92.912 Y15.500 Z-0.990 F500
G1 X92.912 Y30.091 Z-0.990 F500
G1 X92.905 Y30.162 Z-0.990 F500
G1 X92.881 Y30.229 Z-0.990 F500
G1 X92.843 Y30.289 Z-0.990 F500
G1 X92.793 Y30.340 Z-0.990 F500
G1 X92.733 Y30.377 Z-0.990 F500
G1 X92.666 Y30.401 Z-0.990 F500
G1 X92.595 Y30.409 Z-0.990 F500
G1 X92.277 Y30.409 Z-0.990 F500
G1 X92.207 Y30.409 Z-0.982 F500
G1 X92.140 Y30.409 Z-0.959 F500
G1 X92.080 Y30.409 Z-0.921 F500
G1 X92.029 Y30.409 Z-0.870 F500
G1 X91.991 Y30.409 Z-0.810 F500
G1 X91.968 Y30.409 Z-0.743 F500
G1 X91.960 Y30.409 Z-0.673 F500
G1 X91.960 Y30.409 Z5.010 F500
G1 X91.960 Y29.774 Z5.010 F500
G1 X91.960 Y29.774 Z1.010 F500
G1 X91.960 Y29.774 Z-0.355 F200
G1 X91.960 Y29.774 Z-0.773 F200
G1 X91.968 Y29.774 Z-0.843 F500
G1 X91.991 Y29.774 Z-0.910 F500
G1 X92.029 Y29.774 Z-0.970 F500
G1 X92.080 Y29.774 Z-1.021 F500
G1 X92.140 Y29.774 Z-1.059 F500
G1 X92.207 Y29.774 Z-1.082 F500
G1 X92.277 Y29.774 Z-1.090 F500
G1 X92.595 Y29.774 Z-1.090 F500
G1 X92.666 Y29.782 Z-1.090 F500
G1 X92.733 Y29.805 Z-1.090 F500
G1 X92.793 Y29.843 Z-1.090 F500
G1 X92.843 Y29.893 Z-1.090 F500
G1 X92.881 Y29.954 Z-1.090 F500
G1 X92.905 Y30.021 Z-1.090 F500
G1 X92.912 Y30.091 Z-1.090 F500
G1 X92.912 Y45.500 Z-1.090 F500
G1 X92.905 Y45.648 Z-1.090 F500
G1 X92.882 Y45.794 Z-1.090 F500
G1 X92.843 Y45.936 Z-1.090 F500
G1 X92.790 Y46.075 Z-1.090 F500
G1 X92.723 Y46.206 Z-1.090 F500
G1 X92.643 Y46.330 Z-1.090 F500
G1 X92.550 Y46.445 Z-1.090 F500
G1 X92.445 Y46.550 Z-1.090 F500
G1 X92.330 Y46.643 Z-1.090 F500
G1 X92.206 Y46.723 Z-1.090 F500
G1 X92.075 Y46.790 Z-1.090 F500
G1 X91.936 Y46.843 Z-1.090 F500
G1 X91.794 Y46.882 Z-1.090 F500
G1 X91.648 Y46.905 Z-1.090 F500
G1 X91.500 Y46.912 Z-1.090 F500
G1 X79.554 Y46.912 Z-1.090 F500
G1 X79.409 Y46.905 Z-1.090 F500
G1 X79.265 Y46.883 Z-1.090 F500
G1 X79.124 Y46.845 Z-1.090 F500
G1 X78.988 Y46.794 Z-1.090 F500
G1 X78.857 Y46.728 Z-1.090 F500
G1 X78.735 Y46.650 Z-1.090 F500
G1 X78.620 Y46.560 Z-1.090 F500
G1 X78.516 Y46.458 Z-1.090 F500
G1 X78.423 Y46.346 Z-1.090 F500
G1 X78.342 Y46.224 Z-1.090 F500
G1 X78.274 Y46.096 Z-1.090 F500
G1 X78.219 Y45.960 Z-1.090 F500
G1 X78.179 Y45.820 Z-1.090 F500
G1 X78.022 Y45.181 Z-1.090 F500
G1 X77.851 Y44.545 Z-1.090 F500
G1 X77.666 Y43.913 Z-1.090 F500
G1 X77.467 Y43.285 Z-1.090 F500
G1 X77.254 Y42.662 Z-1.090 F500
G1 X77.027 Y42.043 Z-1.090 F500
G1 X76.787 Y41.430 Z-1.090 F500
G1 X76.532 Y40.823 Z-1.090 F500
G1 X76.264 Y40.221 Z-1.090 F500
G1 X75.983 Y39.626 Z-1.090 F500
G1 X75.688 Y39.037 Z-1.090 F500
G1 X75.381 Y38.455 Z-1.090 F500
G1 X75.060 Y37.879 Z-1.090 F500
G1 X74.727 Y37.311 Z-1.090 F500
G1 X74.381 Y36.751 Z-1.090 F500
G1 X74.022 Y36.198 Z-1.090 F500
G1 X73.652 Y35.654 Z-1.090 F500
G1 X73.269 Y35.118 Z-1.090 F500
G1 X72.874 Y34.591 Z-1.090 F500
G1 X72.468 Y34.073 Z-1.090 F500
G1 X72.050 Y33.564 Z-1.090 F500
G1 X71.621 Y33.064 Z-1.090 F500
G1 X71.536 Y32.957 Z-1.090 F500
G1 X71.462 Y32.843 Z-1.090 F500
G1 X71.399 Y32.722 Z-1.090 F500
G1 X71.348 Y32.596 Z-1.090 F500
G1 X71.309 Y32.465 Z-1.090 F500
G1 X71.284 Y32.331 Z-1.090 F500
G1 X71.271 Y32.196 Z-1.090 F500
G1 X71.271 Y32.059 Z-1.090 F500
G1 X71.285 Y31.924 Z-1.090 F500
G1 X71.312 Y31.790 Z-1.090 F500
G1 X77.453 Y7.158 Z-1.090 F500
G1 X77.495 Y7.020 Z-1.090 F500
G1 X77.551 Y6.888 Z-1.090 F500
G1 X77.620 Y6.761 Z-1.090 F500
G1 X77.701 Y6.642 Z-1.090 F500
G1 X77.794 Y6.533 Z-1.090 F500
G1 X77.898 Y6.433 Z-1.090 F500
G1 X78.012 Y6.344 Z-1.090 F500
G1 X78.134 Y6.267 Z-1.090 F500
G1 X78.263 Y6.204 Z-1.090 F500
G1 X78.398 Y6.153 Z-1.090 F500
G1 X78.537 Y6.117 Z-1.090 F500
G1 X78.680 Y6.095 Z-1.090 F500
G1 X78.823 Y6.088 Z-1.090 F500
G1 X83.500 Y6.088 Z-1.090 F500
G1 X83.879 Y6.095 Z-1.090 F500
G1 X84.257 Y6.118 Z-1.090 F500
G1 X84.635 Y6.156 Z-1.090 F500
G1 X85.010 Y6.209 Z-1.090 F500
G1 X85.383 Y6.278 Z-1.090 F500
G1 X85.753 Y6.361 Z-1.090 F500
G1 X86.119 Y6.459 Z-1.090 F500
G1 X86.481 Y6.572 Z-1.090 F500
G1 X86.838 Y6.699 Z-1.090 F500
G1 X87.189 Y6.841 Z-1.090 F500
G1 X87.535 Y6.996 Z-1.090 F500
G1 X87.874 Y7.166 Z-1.090 F500
G1 X88.206 Y7.349 Z-1.090 F500
G1 X88.531 Y7.545 Z-1.090 F500
G1 X88.847 Y7.754 Z-1.090 F500
G1 X89.154 Y7.975 Z-1.090 F500
G1 X89.453 Y8.209 Z-1.090 F500
G1 X89.742 Y8.455 Z-1.090 F500
G1 X90.020 Y8.712 Z-1.090 F500
G1 X90.288 Y8.980 Z-1.090 F500
G1 X90.545 Y9.258 Z-1.090 F500
G1 X90.791 Y9.547 Z-1.090 F500
G1 X91.025 Y9.846 Z-1.090 F500
G1 X91.246 Y10.153 Z-1.090 F500
G1 X91.455 Y10.469 Z-1.090 F500
G1 X91.651 Y10.794 Z-1.090 F500
G1 X91.834 Y11.126 Z-1.090 F500
G1 X92.004 Y11.465 Z-1.090 F500
G1 X92.159 Y11.811 Z-1.090 F500
G1 X92.301 Y12.162 Z-1.090 F500
G1 X92.428 Y12.519 Z-1.090 F500
G1 X92.541 Y12.881 Z-1.090 F500
G1 X92.639 Y13.247 Z-1.090 F500
G1 X92.722 Y13.617 Z-1.090 F500
G1 X92.791 Y13.990 Z-1.090 F500
G1 X92.844 Y14.365 Z-1.090 F500
G1 X92.882 Y14.743 Z-1.090 F500
G1 X92.905 Y15.121 Z-1.090 F500
G1 X92.912 Y15.500 Z-1.090 F500
G1 X92.912 Y30.091 Z-1.090 F500
G1 X92.905 Y30.162 Z-1.090 F500
G1 X92.881 Y30.229 Z-1.090 F500
G1 X92.843 Y30.289 Z-1.090 F500
G1 X92.793 Y30.340 Z-1.090 F500
G1 X92.733 Y30.377 Z-1.090 F500
G1 X92.666 Y30.401 Z-1.090 F500
G1 X92.595 Y30.409 Z-1.090 F500
G1 X92.277 Y30.409 Z-1.090 F500
G1 X92.207 Y30.409 Z-1.082 F500
G1 X92.140 Y30.409 Z-1.059 F500
G1 X92.080 Y30.409 Z-1.021 F500
G1 X92.029 Y30.409 Z-0.970 F500
G1 X91.991 Y30.409 Z-0.910 F500
G1 X91.968 Y30.409 Z-0.843 F500
G1 X91.960 Y30.409 Z-0.773 F500
G1 X91.960 Y30.409 Z5.010 F500
G1 X91.960 Y29.774 Z5.010 F500
G1 X91.960 Y29.774 Z1.010 F500
G1 X91.960 Y29.774 Z-0.455 F200
G1 X91.960 Y29.774 Z-0.873 F200
G1 X91.968 Y29.774 Z-0.943 F500
G1 X91.991 Y29.774 Z-1.010 F500
G1 X92.029 Y29.774 Z-1.070 F500
G1 X92.080 Y29.774 Z-1.121 F500
G1 X92.140 Y29.774 Z-1.159 F500
G1 X92.207 Y29.774 Z-1.182 F500
G1 X92.277 Y29.774 Z-1.190 F500
G1 X92.595 Y29.774 Z-1.190 F500
G1 X92.666 Y29.782 Z-1.190 F500
G1 X92.733 Y29.805 Z-1.190 F500
G1 X92.793 Y29.843 Z-1.190 F500
G1 X92.843 Y29.893 Z-1.190 F500
G1 X92.881 Y29.954 Z-1.190 F500
G1 X92.905 Y30.021 Z-1.190 F500
G1 X92.912 Y30.091 Z-1.190 F500
G1 X92.912 Y45.500 Z-1.190 F500
G1 X92.905 Y45.648 Z-1.190 F500
G1 X92.882 Y45.794 Z-1.190 F500
G1 X92.843 Y45.936 Z-1.190 F500
G1 X92.790 Y46.075 Z-1.190 F500
G1 X92.723 Y46.206 Z-1.190 F500
G1 X92.643 Y46.330 Z-1.190 F500
G1 X92.550 Y46.445 Z-1.190 F500
G1 X92.445 Y46.550 Z-1.190 F500
G1 X92.330 Y46.643 Z-1.190 F500
G1 X92.206 Y46.723 Z-1.190 F500
G1 X92.075 Y46.790 Z-1.190 F500
G1 X91.936 Y46.843 Z-1.190 F500
G1 X91.794 Y46.882 Z-1.190 F500
G1 X91.648 Y46.905 Z-1.190 F500
G1 X91.500 Y46.912 Z-1.190 F500
G1 X79.554 Y46.912 Z-1.190 F500
G1 X79.409 Y46.905 Z-1.190 F500
G1 X79.265 Y46.883 Z-1.190 F500
G1 X79.124 Y46.845 Z-1.190 F500
G1 X78.988 Y46.794 Z-1.190 F500
G1 X78.857 Y46.728 Z-1.190 F500
G1 X78.735 Y46.650 Z-1.190 F500
G1 X78.620 Y46.560 Z-1.190 F500
G1 X78.516 Y46.458 Z-1.190 F500
G1 X78.423 Y46.346 Z-1.190 F500
G1 X78.342 Y46.224 Z-1.190 F500
G1 X78.274 Y46.096 Z-1.190 F500
G1 X78.219 Y45.960 Z-1.190 F500
G1 X78.179 Y45.820 Z-1.190 F500
G1 X78.022 Y45.181 Z-1.190 F500
G1 X77.851 Y44.545 Z-1.190 F500
G1 X77.666 Y43.913 Z-1.190 F500
G1 X77.467 Y43.285 Z-1.190 F500
G1 X77.254 Y42.662 Z-1.190 F500
G1 X77.027 Y42.043 Z-1.190 F500
G1 X76.787 Y41.430 Z-1.190 F500
G1 X76.532 Y40.823 Z-1.190 F500
G1 X76.264 Y40.221 Z-1.190 F500
G1 X75.983 Y39.626 Z-1.190 F500
G1 X75.688 Y39.037 Z-1.190 F500
G1 X75.381 Y38.455 Z-1.190 F500
G1 X75.060 Y37.879 Z-1.190 F500
G1 X74.727 Y37.311 Z-1.190 F500
G1 X74.381 Y36.751 Z-1.190 F500
G1 X74.022 Y36.198 Z-1.190 F500
G1 X73.652 Y35.654 Z-1.190 F500
G1 X73.269 Y35.118 Z-1.190 F500
G1 X72.874 Y34.591 Z-1.190 F500
G1 X72.468 Y34.073 Z-1.190 F500
G1 X72.050 Y33.564 Z-1.190 F500
G1 X71.621 Y33.064 Z-1.190 F500
G1 X71.536 Y32.957 Z-1.190 F500
G1 X71.462 Y32.843 Z-1.190 F500
G1 X71.399 Y32.722 Z-1.190 F500
G1 X71.348 Y32.596 Z-1.190 F500
G1 X71.309 Y32.465 Z-1.190 F500
G1 X71.284 Y32.331 Z-1.190 F500
G1 X71.271 Y32.196 Z-1.190 F500
G1 X71.271 Y32.059 Z-1.190 F500
G1 X71.285 Y31.924 Z-1.190 F500
G1 X71.312 Y31.790 Z-1.190 F500
G1 X77.453 Y7.158 Z-1.190 F500
G1 X77.495 Y7.020 Z-1.190 F500
G1 X77.551 Y6.888 Z-1.190 F500
G1 X77.620 Y6.761 Z-1.190 F500
G1 X77.701 Y6.642 Z-1.190 F500
G1 X77.794 Y6.533 Z-1.190 F500
G1 X77.898 Y6.433 Z-1.190 F500
G1 X78.012 Y6.344 Z-1.190 F500
G1 X78.134 Y6.267 Z-1.190 F500
G1 X78.263 Y6.204 Z-1.190 F500
G1 X78.398 Y6.153 Z-1.190 F500
G1 X78.537 Y6.117 Z-1.190 F500
G1 X78.680 Y6.095 Z-1.190 F500
G1 X78.823 Y6.088 Z-1.190 F500
G1 X83.500 Y6.088 Z-1.190 F500
G1 X83.879 Y6.095 Z-1.190 F500
G1 X84.257 Y6.118 Z-1.190 F500
G1 X84.635 Y6.156 Z-1.190 F500
G1 X85.010 Y6.209 Z-1.190 F500
G1 X85.383 Y6.278 Z-1.190 F500
G1 X85.753 Y6.361 Z-1.190 F500
G1 X86.119 Y6.459 Z-1.190 F500
G1 X86.481 Y6.572 Z-1.190 F500
G1 X86.838 Y6.699 Z-1.190 F500
G1 X87.189 Y6.841 Z-1.190 F500
G1 X87.535 Y6.996 Z-1.190 F500
G1 X87.874 Y7.166 Z-1.190 F500
G1 X88.206 Y7.349 Z-1.190 F500
G1 X88.531 Y7.545 Z-1.190 F500
G1 X88.847 Y7.754 Z-1.190 F500
G1 X89.154 Y7.975 Z-1.190 F500
G1 X89.453 Y8.209 Z-1.190 F500
G1 X89.742 Y8.455 Z-1.190 F500
G1 X90.020 Y8.712 Z-1.190 F500
G1 X90.288 Y8.980 Z-1.190 F500
G1 X90.545 Y9.258 Z-1.190 F500
G1 X90.791 Y9.547 Z-1.190 F500
G1 X91.025 Y9.846 Z-1.190 F500
G1 X91.246 Y10.153 Z-1.190 F500
G1 X91.455 Y10.469 Z-1.190 F500
G1 X91.651 Y10.794 Z-1.190 F500
G1 X91.834 Y11.126 Z-1.190 F500
G1 X92.004 Y11.465 Z-1.190 F500
G1 X92.159 Y11.811 Z-1.190 F500
G1 X92.301 Y12.162 Z-1.190 F500
G1 X92.428 Y12.519 Z-1.190 F500
G1 X92.541 Y12.881 Z-1.190 F500
G1 X92.639 Y13.247 Z-1.190 F500
G1 X92.722 Y13.617 Z-1.190 F500
G1 X92.791 Y13.990 Z-1.190 F500
G1 X92.844 Y14.365 Z-1.190 F500
G1 X92.882 Y14.743 Z-1.190 F500
G1 X92.905 Y15.121 Z-1.190 F500
G1 X92.912 Y15.500 Z-1.190 F500
G1 X92.912 Y30.091 Z-1.190 F500
G1 X92.905 Y30.162 Z-1.190 F500
G1 X92.881 Y30.229 Z-1.190 F500
G1 X92.843 Y30.289 Z-1.190 F500
G1 X92.793 Y30.340 Z-1.190 F500
G1 X92.733 Y30.377 Z-1.190 F500
G1 X92.666 Y30.401 Z-1.190 F500
G1 X92.595 Y30.409 Z-1.190 F500
G1 X92.277 Y30.409 Z-1.190 F500
G1 X92.207 Y30.409 Z-1.182 F500
G1 X92.140 Y30.409 Z-1.159 F500
G1 X92.080 Y30.409 Z-1.121 F500
G1 X92.029 Y30.409 Z-1.070 F500
G1 X91.991 Y30.409 Z-1.010 F500
G1 X91.968 Y30.409 Z-0.943 F500
G1 X91.960 Y30.409 Z-0.873 F500
G1 X91.960 Y30.409 Z5.010 F500
G1 X91.960 Y29.774 Z5.010 F500
G1 X91.960 Y29.774 Z1.010 F500
G1 X91.960 Y29.774 Z-0.555 F200
G1 X91.960 Y29.774 Z-0.973 F200
G1 X91.968 Y29.774 Z-1.043 F500
G1 X91.991 Y29.774 Z-1.110 F500
G1 X92.029 Y29.774 Z-1.170 F500
G1 X92.080 Y29.774 Z-1.221 F500
G1 X92.140 Y29.774 Z-1.259 F500
G1 X92.207 Y29.774 Z-1.282 F500
G1 X92.277 Y29.774 Z-1.290 F500
G1 X92.595 Y29.774 Z-1.290 F500
G1 X92.666 Y29.782 Z-1.290 F500
G1 X92.733 Y29.805 Z-1.290 F500
G1 X92.793 Y29.843 Z-1.290 F500
G1 X92.843 Y29.893 Z-1.290 F500
G1 X92.881 Y29.954 Z-1.290 F500
G1 X92.905 Y30.021 Z-1.290 F500
G1 X92.912 Y30.091 Z-1.290 F500
G1 X92.912 Y45.500 Z-1.290 F500
G1 X92.905 Y45.648 Z-1.290 F500
G1 X92.882 Y45.794 Z-1.290 F500
G1 X92.843 Y45.936 Z-1.290 F500
G1 X92.790 Y46.075 Z-1.290 F500
G1 X92.723 Y46.206 Z-1.290 F500
G1 X92.643 Y46.330 Z-1.290 F500
G1 X92.550 Y46.445 Z-1.290 F500
G1 X92.445 Y46.550 Z-1.290 F500
G1 X92.330 Y46.643 Z-1.290 F500
G1 X92.206 Y46.723 Z-1.290 F500
G1 X92.075 Y46.790 Z-1.290 F500
G1 X91.936 Y46.843 Z-1.290 F500
G1 X91.794 Y46.882 Z-1.290 F500
G1 X91.648 Y46.905 Z-1.290 F500
G1 X91.500 Y46.912 Z-1.290 F500
G1 X79.554 Y46.912 Z-1.290 F500
G1 X79.409 Y46.905 Z-1.290 F500
G1 X79.265 Y46.883 Z-1.290 F500
G1 X79.124 Y46.845 Z-1.290 F500
G1 X78.988 Y46.794 Z-1.290 F500
G1 X78.857 Y46.728 Z-1.290 F500
G1 X78.735 Y46.650 Z-1.290 F500
G1 X78.620 Y46.560 Z-1.290 F500
G1 X78.516 Y46.458 Z-1.290 F500
G1 X78.423 Y46.346 Z-1.290 F500
G1 X78.342 Y46.224 Z-1.290 F500
G1 X78.274 Y46.096 Z-1.290 F500
G1 X78.219 Y45.960 Z-1.290 F500
G1 X78.179 Y45.820 Z-1.290 F500
G1 X78.022 Y45.181 Z-1.290 F500
G1 X77.851 Y44.545 Z-1.290 F500
G1 X77.666 Y43.913 Z-1.290 F500
G1 X77.467 Y43.285 Z-1.290 F500
G1 X77.254 Y42.662 Z-1.290 F500
G1 X77.027 Y42.043 Z-1.290 F500
G1 X76.787 Y41.430 Z-1.290 F500
G1 X76.532 Y40.823 Z-1.290 F500
G1 X76.264 Y40.221 Z-1.290 F500
G1 X75.983 Y39.626 Z-1.290 F500
G1 X75.688 Y39.037 Z-1.290 F500
G1 X75.381 Y38.455 Z-1.290 F500
G1 X75.060 Y37.879 Z-1.290 F500
G1 X74.727 Y37.311 Z-1.290 F500
G1 X74.381 Y36.751 Z-1.290 F500
G1 X74.022 Y36.198 Z-1.290 F500
G1 X73.652 Y35.654 Z-1.290 F500
G1 X73.269 Y35.118 Z-1.290 F500
G1 X72.874 Y34.591 Z-1.290 F500
G1 X72.468 Y34.073 Z-1.290 F500
G1 X72.050 Y33.564 Z-1.290 F500
G1 X71.621 Y33.064 Z-1.290 F500
G1 X71.536 Y32.957 Z-1.290 F500
G1 X71.462 Y32.843 Z-1.290 F500
G1 X71.399 Y32.722 Z-1.290 F500
G1 X71.348 Y32.596 Z-1.290 F500
G1 X71.309 Y32.465 Z-1.290 F500
G1 X71.284 Y32.331 Z-1.290 F500
G1 X71.271 Y32.196 Z-1.290 F500
G1 X71.271 Y32.059 Z-1.290 F500
G1 X71.285 Y31.924 Z-1.290 F500
G1 X71.312 Y31.790 Z-1.290 F500
G1 X77.453 Y7.158 Z-1.290 F500
G1 X77.495 Y7.020 Z-1.290 F500
G1 X77.551 Y6.888 Z-1.290 F500
G1 X77.620 Y6.761 Z-1.290 F500
G1 X77.701 Y6.642 Z-1.290 F500
G1 X77.794 Y6.533 Z-1.290 F500
G1 X77.898 Y6.433 Z-1.290 F500
G1 X78.012 Y6.344 Z-1.290 F500
G1 X78.134 Y6.267 Z-1.290 F500
G1 X78.263 Y6.204 Z-1.290 F500
G1 X78.398 Y6.153 Z-1.290 F500
G1 X78.537 Y6.117 Z-1.290 F500
G1 X78.680 Y6.095 Z-1.290 F500
G1 X78.823 Y6.088 Z-1.290 F500
G1 X83.500 Y6.088 Z-1.290 F500
G1 X83.879 Y6.095 Z-1.290 F500
G1 X84.257 Y6.118 Z-1.290 F500
G1 X84.635 Y6.156 Z-1.290 F500
G1 X85.010 Y6.209 Z-1.290 F500
G1 X85.383 Y6.278 Z-1.290 F500
G1 X85.753 Y6.361 Z-1.290 F500
G1 X86.119 Y6.459 Z-1.290 F500
G1 X86.481 Y6.572 Z-1.290 F500
G1 X86.838 Y6.699 Z-1.290 F500
G1 X87.189 Y6.841 Z-1.290 F500
G1 X87.535 Y6.996 Z-1.290 F500
G1 X87.874 Y7.166 Z-1.290 F500
G1 X88.206 Y7.349 Z-1.290 F500
G1 X88.531 Y7.545 Z-1.290 F500
G1 X88.847 Y7.754 Z-1.290 F500
G1 X89.154 Y7.975 Z-1.290 F500
G1 X89.453 Y8.209 Z-1.290 F500
G1 X89.742 Y8.455 Z-1.290 F500
G1 X90.020 Y8.712 Z-1.290 F500
G1 X90.288 Y8.980 Z-1.290 F500
G1 X90.545 Y9.258 Z-1.290 F500
G1 X90.791 Y9.547 Z-1.290 F500
G1 X91.025 Y9.846 Z-1.290 F500
G1 X91.246 Y10.153 Z-1.290 F500
G1 X91.455 Y10.469 Z-1.290 F500
G1 X91.651 Y10.794 Z-1.290 F500
G1 X91.834 Y11.126 Z-1.290 F500
G1 X92.004 Y11.465 Z-1.290 F500
G1 X92.159 Y11.811 Z-1.290 F500
G1 X92.301 Y12.162 Z-1.290 F500
G1 X92.428 Y12.519 Z-1.290 F500
